(Exported by FreeCAD)
(Post Processor: grbl_post)
(Output Time:2025-12-14 22:45:25.903082)
(Begin preamble)
G17 G90
G21
(Begin operation: Fixture)
(Path: Fixture)
G54
(Finish operation: Fixture)
(Begin operation: 0.8mm Drill001)
(Path: 0.8mm Drill001)
(0.8mm Drill001)
(Begin toolchange)
( M6 T2 )
M3 S20000
(Finish operation: 0.8mm Drill001)
(Begin operation: Engrave)
(Path: Engrave)
(Engrave)
G0 Z6.000
G0 Z6.000
G0 X6.287 Y4.630
G0 Z4.000
G1 X6.287 Y4.630 Z0.020 F3000.000
G1 X6.109 Y5.139 Z0.020 F3000.000
G1 X5.347 Y5.139 Z0.020 F3000.000
G1 X5.169 Y4.630 Z0.020 F3000.000
G1 X4.750 Y4.630 Z0.020 F3000.000
G1 X5.480 Y6.630 Z0.020 F3000.000
G1 X5.974 Y6.630 Z0.020 F3000.000
G1 X6.702 Y4.630 Z0.020 F3000.000
G1 X6.287 Y4.630 Z0.020 F3000.000
G1 X6.287 Y4.630 Z0.000 F3000.000
G1 X6.109 Y5.139 Z0.000 F3000.000
G1 X5.347 Y5.139 Z0.000 F3000.000
G1 X5.169 Y4.630 Z0.000 F3000.000
G1 X4.750 Y4.630 Z0.000 F3000.000
G1 X5.480 Y6.630 Z0.000 F3000.000
G1 X5.974 Y6.630 Z0.000 F3000.000
G1 X6.702 Y4.630 Z0.000 F3000.000
G1 X6.287 Y4.630 Z0.000 F3000.000
G1 X6.287 Y4.630 Z-0.020 F3000.000
G1 X6.109 Y5.139 Z-0.020 F3000.000
G1 X5.347 Y5.139 Z-0.020 F3000.000
G1 X5.169 Y4.630 Z-0.020 F3000.000
G1 X4.750 Y4.630 Z-0.020 F3000.000
G1 X5.480 Y6.630 Z-0.020 F3000.000
G1 X5.974 Y6.630 Z-0.020 F3000.000
G1 X6.702 Y4.630 Z-0.020 F3000.000
G1 X6.287 Y4.630 Z-0.020 F3000.000
G1 X6.287 Y4.630 Z-0.040 F3000.000
G1 X6.109 Y5.139 Z-0.040 F3000.000
G1 X5.347 Y5.139 Z-0.040 F3000.000
G1 X5.169 Y4.630 Z-0.040 F3000.000
G1 X4.750 Y4.630 Z-0.040 F3000.000
G1 X5.480 Y6.630 Z-0.040 F3000.000
G1 X5.974 Y6.630 Z-0.040 F3000.000
G1 X6.702 Y4.630 Z-0.040 F3000.000
G1 X6.287 Y4.630 Z-0.040 F3000.000
G1 X6.287 Y4.630 Z-0.060 F3000.000
G1 X6.109 Y5.139 Z-0.060 F3000.000
G1 X5.347 Y5.139 Z-0.060 F3000.000
G1 X5.169 Y4.630 Z-0.060 F3000.000
G1 X4.750 Y4.630 Z-0.060 F3000.000
G1 X5.480 Y6.630 Z-0.060 F3000.000
G1 X5.974 Y6.630 Z-0.060 F3000.000
G1 X6.702 Y4.630 Z-0.060 F3000.000
G1 X6.287 Y4.630 Z-0.060 F3000.000
G1 X6.287 Y4.630 Z-0.080 F3000.000
G1 X6.109 Y5.139 Z-0.080 F3000.000
G1 X5.347 Y5.139 Z-0.080 F3000.000
G1 X5.169 Y4.630 Z-0.080 F3000.000
G1 X4.750 Y4.630 Z-0.080 F3000.000
G1 X5.480 Y6.630 Z-0.080 F3000.000
G1 X5.974 Y6.630 Z-0.080 F3000.000
G1 X6.702 Y4.630 Z-0.080 F3000.000
G1 X6.287 Y4.630 Z-0.080 F3000.000
G1 X6.287 Y4.630 Z-0.100 F3000.000
G1 X6.109 Y5.139 Z-0.100 F3000.000
G1 X5.347 Y5.139 Z-0.100 F3000.000
G1 X5.169 Y4.630 Z-0.100 F3000.000
G1 X4.750 Y4.630 Z-0.100 F3000.000
G1 X5.480 Y6.630 Z-0.100 F3000.000
G1 X5.974 Y6.630 Z-0.100 F3000.000
G1 X6.702 Y4.630 Z-0.100 F3000.000
G1 X6.287 Y4.630 Z-0.100 F3000.000
G0 Z6.000
G0 Z6.000
G0 X5.727 Y6.321
G0 Z4.000
G1 X5.727 Y6.321 Z0.020 F3000.000
G1 X5.719 Y6.290 Z0.020 F3000.000
G1 X5.685 Y6.174 Z0.020 F3000.000
G1 X5.440 Y5.454 Z0.020 F3000.000
G1 X6.016 Y5.454 Z0.020 F3000.000
G1 X5.818 Y6.030 Z0.020 F3000.000
G1 X5.757 Y6.223 Z0.020 F3000.000
G1 X5.727 Y6.321 Z0.020 F3000.000
G1 X5.727 Y6.321 Z0.000 F3000.000
G1 X5.719 Y6.290 Z0.000 F3000.000
G1 X5.685 Y6.174 Z0.000 F3000.000
G1 X5.440 Y5.454 Z0.000 F3000.000
G1 X6.016 Y5.454 Z0.000 F3000.000
G1 X5.818 Y6.030 Z0.000 F3000.000
G1 X5.757 Y6.223 Z0.000 F3000.000
G1 X5.727 Y6.321 Z0.000 F3000.000
G1 X5.727 Y6.321 Z-0.020 F3000.000
G1 X5.719 Y6.290 Z-0.020 F3000.000
G1 X5.685 Y6.174 Z-0.020 F3000.000
G1 X5.440 Y5.454 Z-0.020 F3000.000
G1 X6.016 Y5.454 Z-0.020 F3000.000
G1 X5.818 Y6.030 Z-0.020 F3000.000
G1 X5.757 Y6.223 Z-0.020 F3000.000
G1 X5.727 Y6.321 Z-0.020 F3000.000
G1 X5.727 Y6.321 Z-0.040 F3000.000
G1 X5.719 Y6.290 Z-0.040 F3000.000
G1 X5.685 Y6.174 Z-0.040 F3000.000
G1 X5.440 Y5.454 Z-0.040 F3000.000
G1 X6.016 Y5.454 Z-0.040 F3000.000
G1 X5.818 Y6.030 Z-0.040 F3000.000
G1 X5.757 Y6.223 Z-0.040 F3000.000
G1 X5.727 Y6.321 Z-0.040 F3000.000
G1 X5.727 Y6.321 Z-0.060 F3000.000
G1 X5.719 Y6.290 Z-0.060 F3000.000
G1 X5.685 Y6.174 Z-0.060 F3000.000
G1 X5.440 Y5.454 Z-0.060 F3000.000
G1 X6.016 Y5.454 Z-0.060 F3000.000
G1 X5.818 Y6.030 Z-0.060 F3000.000
G1 X5.757 Y6.223 Z-0.060 F3000.000
G1 X5.727 Y6.321 Z-0.060 F3000.000
G1 X5.727 Y6.321 Z-0.080 F3000.000
G1 X5.719 Y6.290 Z-0.080 F3000.000
G1 X5.685 Y6.174 Z-0.080 F3000.000
G1 X5.440 Y5.454 Z-0.080 F3000.000
G1 X6.016 Y5.454 Z-0.080 F3000.000
G1 X5.818 Y6.030 Z-0.080 F3000.000
G1 X5.757 Y6.223 Z-0.080 F3000.000
G1 X5.727 Y6.321 Z-0.080 F3000.000
G1 X5.727 Y6.321 Z-0.100 F3000.000
G1 X5.719 Y6.290 Z-0.100 F3000.000
G1 X5.685 Y6.174 Z-0.100 F3000.000
G1 X5.440 Y5.454 Z-0.100 F3000.000
G1 X6.016 Y5.454 Z-0.100 F3000.000
G1 X5.818 Y6.030 Z-0.100 F3000.000
G1 X5.757 Y6.223 Z-0.100 F3000.000
G1 X5.727 Y6.321 Z-0.100 F3000.000
G0 Z6.000
G0 Z6.000
G0 X8.438 Y5.402
G0 Z4.000
G1 X8.438 Y5.402 Z0.020 F3000.000
G1 X8.403 Y5.074 Z0.020 F3000.000
G1 X8.286 Y4.811 Z0.020 F3000.000
G1 X8.143 Y4.676 Z0.020 F3000.000
G1 X7.967 Y4.610 Z0.020 F3000.000
G1 X7.910 Y4.602 Z0.020 F3000.000
G1 X7.849 Y4.600 Z0.020 F3000.000
G1 X7.696 Y4.617 Z0.020 F3000.000
G1 X7.566 Y4.671 Z0.020 F3000.000
G1 X7.432 Y4.793 Z0.020 F3000.000
G1 X7.383 Y4.875 Z0.020 F3000.000
G1 X7.380 Y4.875 Z0.020 F3000.000
G1 X7.374 Y4.740 Z0.020 F3000.000
G1 X7.360 Y4.630 Z0.020 F3000.000
G1 X6.972 Y4.630 Z0.020 F3000.000
G1 X6.984 Y4.981 Z0.020 F3000.000
G1 X6.984 Y6.739 Z0.020 F3000.000
G1 X7.383 Y6.739 Z0.020 F3000.000
G1 X7.383 Y6.149 Z0.020 F3000.000
G1 X7.377 Y5.898 Z0.020 F3000.000
G1 X7.383 Y5.898 Z0.020 F3000.000
G1 X7.498 Y6.063 Z0.020 F3000.000
G1 X7.652 Y6.157 Z0.020 F3000.000
G1 X7.756 Y6.185 Z0.020 F3000.000
G1 X7.874 Y6.194 Z0.020 F3000.000
G1 X8.081 Y6.157 Z0.020 F3000.000
G1 X8.233 Y6.058 Z0.020 F3000.000
G1 X8.264 Y6.024 Z0.020 F3000.000
G1 X8.293 Y5.987 Z0.020 F3000.000
G1 X8.387 Y5.789 Z0.020 F3000.000
G1 X8.438 Y5.402 Z0.020 F3000.000
G1 X8.438 Y5.402 Z0.000 F3000.000
G1 X8.403 Y5.074 Z0.000 F3000.000
G1 X8.286 Y4.811 Z0.000 F3000.000
G1 X8.143 Y4.676 Z0.000 F3000.000
G1 X7.967 Y4.610 Z0.000 F3000.000
G1 X7.910 Y4.602 Z0.000 F3000.000
G1 X7.849 Y4.600 Z0.000 F3000.000
G1 X7.696 Y4.617 Z0.000 F3000.000
G1 X7.566 Y4.671 Z0.000 F3000.000
G1 X7.432 Y4.793 Z0.000 F3000.000
G1 X7.383 Y4.875 Z0.000 F3000.000
G1 X7.380 Y4.875 Z0.000 F3000.000
G1 X7.374 Y4.740 Z0.000 F3000.000
G1 X7.360 Y4.630 Z0.000 F3000.000
G1 X6.972 Y4.630 Z0.000 F3000.000
G1 X6.984 Y4.981 Z0.000 F3000.000
G1 X6.984 Y6.739 Z0.000 F3000.000
G1 X7.383 Y6.739 Z0.000 F3000.000
G1 X7.383 Y6.149 Z0.000 F3000.000
G1 X7.377 Y5.898 Z0.000 F3000.000
G1 X7.383 Y5.898 Z0.000 F3000.000
G1 X7.498 Y6.063 Z0.000 F3000.000
G1 X7.652 Y6.157 Z0.000 F3000.000
G1 X7.756 Y6.185 Z0.000 F3000.000
G1 X7.874 Y6.194 Z0.000 F3000.000
G1 X8.081 Y6.157 Z0.000 F3000.000
G1 X8.233 Y6.058 Z0.000 F3000.000
G1 X8.264 Y6.024 Z0.000 F3000.000
G1 X8.293 Y5.987 Z0.000 F3000.000
G1 X8.387 Y5.789 Z0.000 F3000.000
G1 X8.438 Y5.402 Z0.000 F3000.000
G1 X8.438 Y5.402 Z-0.020 F3000.000
G1 X8.403 Y5.074 Z-0.020 F3000.000
G1 X8.286 Y4.811 Z-0.020 F3000.000
G1 X8.143 Y4.676 Z-0.020 F3000.000
G1 X7.967 Y4.610 Z-0.020 F3000.000
G1 X7.910 Y4.602 Z-0.020 F3000.000
G1 X7.849 Y4.600 Z-0.020 F3000.000
G1 X7.696 Y4.617 Z-0.020 F3000.000
G1 X7.566 Y4.671 Z-0.020 F3000.000
G1 X7.432 Y4.793 Z-0.020 F3000.000
G1 X7.383 Y4.875 Z-0.020 F3000.000
G1 X7.380 Y4.875 Z-0.020 F3000.000
G1 X7.374 Y4.740 Z-0.020 F3000.000
G1 X7.360 Y4.630 Z-0.020 F3000.000
G1 X6.972 Y4.630 Z-0.020 F3000.000
G1 X6.984 Y4.981 Z-0.020 F3000.000
G1 X6.984 Y6.739 Z-0.020 F3000.000
G1 X7.383 Y6.739 Z-0.020 F3000.000
G1 X7.383 Y6.149 Z-0.020 F3000.000
G1 X7.377 Y5.898 Z-0.020 F3000.000
G1 X7.383 Y5.898 Z-0.020 F3000.000
G1 X7.498 Y6.063 Z-0.020 F3000.000
G1 X7.652 Y6.157 Z-0.020 F3000.000
G1 X7.756 Y6.185 Z-0.020 F3000.000
G1 X7.874 Y6.194 Z-0.020 F3000.000
G1 X8.081 Y6.157 Z-0.020 F3000.000
G1 X8.233 Y6.058 Z-0.020 F3000.000
G1 X8.264 Y6.024 Z-0.020 F3000.000
G1 X8.293 Y5.987 Z-0.020 F3000.000
G1 X8.387 Y5.789 Z-0.020 F3000.000
G1 X8.438 Y5.402 Z-0.020 F3000.000
G1 X8.438 Y5.402 Z-0.040 F3000.000
G1 X8.403 Y5.074 Z-0.040 F3000.000
G1 X8.286 Y4.811 Z-0.040 F3000.000
G1 X8.143 Y4.676 Z-0.040 F3000.000
G1 X7.967 Y4.610 Z-0.040 F3000.000
G1 X7.910 Y4.602 Z-0.040 F3000.000
G1 X7.849 Y4.600 Z-0.040 F3000.000
G1 X7.696 Y4.617 Z-0.040 F3000.000
G1 X7.566 Y4.671 Z-0.040 F3000.000
G1 X7.432 Y4.793 Z-0.040 F3000.000
G1 X7.383 Y4.875 Z-0.040 F3000.000
G1 X7.380 Y4.875 Z-0.040 F3000.000
G1 X7.374 Y4.740 Z-0.040 F3000.000
G1 X7.360 Y4.630 Z-0.040 F3000.000
G1 X6.972 Y4.630 Z-0.040 F3000.000
G1 X6.984 Y4.981 Z-0.040 F3000.000
G1 X6.984 Y6.739 Z-0.040 F3000.000
G1 X7.383 Y6.739 Z-0.040 F3000.000
G1 X7.383 Y6.149 Z-0.040 F3000.000
G1 X7.377 Y5.898 Z-0.040 F3000.000
G1 X7.383 Y5.898 Z-0.040 F3000.000
G1 X7.498 Y6.063 Z-0.040 F3000.000
G1 X7.652 Y6.157 Z-0.040 F3000.000
G1 X7.756 Y6.185 Z-0.040 F3000.000
G1 X7.874 Y6.194 Z-0.040 F3000.000
G1 X8.081 Y6.157 Z-0.040 F3000.000
G1 X8.233 Y6.058 Z-0.040 F3000.000
G1 X8.264 Y6.024 Z-0.040 F3000.000
G1 X8.293 Y5.987 Z-0.040 F3000.000
G1 X8.387 Y5.789 Z-0.040 F3000.000
G1 X8.438 Y5.402 Z-0.040 F3000.000
G1 X8.438 Y5.402 Z-0.060 F3000.000
G1 X8.403 Y5.074 Z-0.060 F3000.000
G1 X8.286 Y4.811 Z-0.060 F3000.000
G1 X8.143 Y4.676 Z-0.060 F3000.000
G1 X7.967 Y4.610 Z-0.060 F3000.000
G1 X7.910 Y4.602 Z-0.060 F3000.000
G1 X7.849 Y4.600 Z-0.060 F3000.000
G1 X7.696 Y4.617 Z-0.060 F3000.000
G1 X7.566 Y4.671 Z-0.060 F3000.000
G1 X7.432 Y4.793 Z-0.060 F3000.000
G1 X7.383 Y4.875 Z-0.060 F3000.000
G1 X7.380 Y4.875 Z-0.060 F3000.000
G1 X7.374 Y4.740 Z-0.060 F3000.000
G1 X7.360 Y4.630 Z-0.060 F3000.000
G1 X6.972 Y4.630 Z-0.060 F3000.000
G1 X6.984 Y4.981 Z-0.060 F3000.000
G1 X6.984 Y6.739 Z-0.060 F3000.000
G1 X7.383 Y6.739 Z-0.060 F3000.000
G1 X7.383 Y6.149 Z-0.060 F3000.000
G1 X7.377 Y5.898 Z-0.060 F3000.000
G1 X7.383 Y5.898 Z-0.060 F3000.000
G1 X7.498 Y6.063 Z-0.060 F3000.000
G1 X7.652 Y6.157 Z-0.060 F3000.000
G1 X7.756 Y6.185 Z-0.060 F3000.000
G1 X7.874 Y6.194 Z-0.060 F3000.000
G1 X8.081 Y6.157 Z-0.060 F3000.000
G1 X8.233 Y6.058 Z-0.060 F3000.000
G1 X8.264 Y6.024 Z-0.060 F3000.000
G1 X8.293 Y5.987 Z-0.060 F3000.000
G1 X8.387 Y5.789 Z-0.060 F3000.000
G1 X8.438 Y5.402 Z-0.060 F3000.000
G1 X8.438 Y5.402 Z-0.080 F3000.000
G1 X8.403 Y5.074 Z-0.080 F3000.000
G1 X8.286 Y4.811 Z-0.080 F3000.000
G1 X8.143 Y4.676 Z-0.080 F3000.000
G1 X7.967 Y4.610 Z-0.080 F3000.000
G1 X7.910 Y4.602 Z-0.080 F3000.000
G1 X7.849 Y4.600 Z-0.080 F3000.000
G1 X7.696 Y4.617 Z-0.080 F3000.000
G1 X7.566 Y4.671 Z-0.080 F3000.000
G1 X7.432 Y4.793 Z-0.080 F3000.000
G1 X7.383 Y4.875 Z-0.080 F3000.000
G1 X7.380 Y4.875 Z-0.080 F3000.000
G1 X7.374 Y4.740 Z-0.080 F3000.000
G1 X7.360 Y4.630 Z-0.080 F3000.000
G1 X6.972 Y4.630 Z-0.080 F3000.000
G1 X6.984 Y4.981 Z-0.080 F3000.000
G1 X6.984 Y6.739 Z-0.080 F3000.000
G1 X7.383 Y6.739 Z-0.080 F3000.000
G1 X7.383 Y6.149 Z-0.080 F3000.000
G1 X7.377 Y5.898 Z-0.080 F3000.000
G1 X7.383 Y5.898 Z-0.080 F3000.000
G1 X7.498 Y6.063 Z-0.080 F3000.000
G1 X7.652 Y6.157 Z-0.080 F3000.000
G1 X7.756 Y6.185 Z-0.080 F3000.000
G1 X7.874 Y6.194 Z-0.080 F3000.000
G1 X8.081 Y6.157 Z-0.080 F3000.000
G1 X8.233 Y6.058 Z-0.080 F3000.000
G1 X8.264 Y6.024 Z-0.080 F3000.000
G1 X8.293 Y5.987 Z-0.080 F3000.000
G1 X8.387 Y5.789 Z-0.080 F3000.000
G1 X8.438 Y5.402 Z-0.080 F3000.000
G1 X8.438 Y5.402 Z-0.100 F3000.000
G1 X8.403 Y5.074 Z-0.100 F3000.000
G1 X8.286 Y4.811 Z-0.100 F3000.000
G1 X8.143 Y4.676 Z-0.100 F3000.000
G1 X7.967 Y4.610 Z-0.100 F3000.000
G1 X7.910 Y4.602 Z-0.100 F3000.000
G1 X7.849 Y4.600 Z-0.100 F3000.000
G1 X7.696 Y4.617 Z-0.100 F3000.000
G1 X7.566 Y4.671 Z-0.100 F3000.000
G1 X7.432 Y4.793 Z-0.100 F3000.000
G1 X7.383 Y4.875 Z-0.100 F3000.000
G1 X7.380 Y4.875 Z-0.100 F3000.000
G1 X7.374 Y4.740 Z-0.100 F3000.000
G1 X7.360 Y4.630 Z-0.100 F3000.000
G1 X6.972 Y4.630 Z-0.100 F3000.000
G1 X6.984 Y4.981 Z-0.100 F3000.000
G1 X6.984 Y6.739 Z-0.100 F3000.000
G1 X7.383 Y6.739 Z-0.100 F3000.000
G1 X7.383 Y6.149 Z-0.100 F3000.000
G1 X7.377 Y5.898 Z-0.100 F3000.000
G1 X7.383 Y5.898 Z-0.100 F3000.000
G1 X7.498 Y6.063 Z-0.100 F3000.000
G1 X7.652 Y6.157 Z-0.100 F3000.000
G1 X7.756 Y6.185 Z-0.100 F3000.000
G1 X7.874 Y6.194 Z-0.100 F3000.000
G1 X8.081 Y6.157 Z-0.100 F3000.000
G1 X8.233 Y6.058 Z-0.100 F3000.000
G1 X8.264 Y6.024 Z-0.100 F3000.000
G1 X8.293 Y5.987 Z-0.100 F3000.000
G1 X8.387 Y5.789 Z-0.100 F3000.000
G1 X8.438 Y5.402 Z-0.100 F3000.000
G0 Z6.000
G0 Z6.000
G0 X8.022 Y5.402
G0 Z4.000
G1 X8.022 Y5.402 Z0.020 F3000.000
G1 X7.989 Y5.687 Z0.020 F3000.000
G1 X7.945 Y5.790 Z0.020 F3000.000
G1 X7.844 Y5.887 Z0.020 F3000.000
G1 X7.708 Y5.917 Z0.020 F3000.000
G1 X7.562 Y5.881 Z0.020 F3000.000
G1 X7.462 Y5.781 Z0.020 F3000.000
G1 X7.397 Y5.608 Z0.020 F3000.000
G1 X7.377 Y5.390 Z0.020 F3000.000
G1 X7.411 Y5.120 Z0.020 F3000.000
G1 X7.460 Y5.009 Z0.020 F3000.000
G1 X7.566 Y4.905 Z0.020 F3000.000
G1 X7.705 Y4.872 Z0.020 F3000.000
G1 X7.848 Y4.908 Z0.020 F3000.000
G1 X7.944 Y5.006 Z0.020 F3000.000
G1 X8.004 Y5.179 Z0.020 F3000.000
G1 X8.022 Y5.402 Z0.020 F3000.000
G1 X8.022 Y5.402 Z0.000 F3000.000
G1 X7.989 Y5.687 Z0.000 F3000.000
G1 X7.945 Y5.790 Z0.000 F3000.000
G1 X7.844 Y5.887 Z0.000 F3000.000
G1 X7.708 Y5.917 Z0.000 F3000.000
G1 X7.562 Y5.881 Z0.000 F3000.000
G1 X7.462 Y5.781 Z0.000 F3000.000
G1 X7.397 Y5.608 Z0.000 F3000.000
G1 X7.377 Y5.390 Z0.000 F3000.000
G1 X7.411 Y5.120 Z0.000 F3000.000
G1 X7.460 Y5.009 Z0.000 F3000.000
G1 X7.566 Y4.905 Z0.000 F3000.000
G1 X7.705 Y4.872 Z0.000 F3000.000
G1 X7.848 Y4.908 Z0.000 F3000.000
G1 X7.944 Y5.006 Z0.000 F3000.000
G1 X8.004 Y5.179 Z0.000 F3000.000
G1 X8.022 Y5.402 Z0.000 F3000.000
G1 X8.022 Y5.402 Z-0.020 F3000.000
G1 X7.989 Y5.687 Z-0.020 F3000.000
G1 X7.945 Y5.790 Z-0.020 F3000.000
G1 X7.844 Y5.887 Z-0.020 F3000.000
G1 X7.708 Y5.917 Z-0.020 F3000.000
G1 X7.562 Y5.881 Z-0.020 F3000.000
G1 X7.462 Y5.781 Z-0.020 F3000.000
G1 X7.397 Y5.608 Z-0.020 F3000.000
G1 X7.377 Y5.390 Z-0.020 F3000.000
G1 X7.411 Y5.120 Z-0.020 F3000.000
G1 X7.460 Y5.009 Z-0.020 F3000.000
G1 X7.566 Y4.905 Z-0.020 F3000.000
G1 X7.705 Y4.872 Z-0.020 F3000.000
G1 X7.848 Y4.908 Z-0.020 F3000.000
G1 X7.944 Y5.006 Z-0.020 F3000.000
G1 X8.004 Y5.179 Z-0.020 F3000.000
G1 X8.022 Y5.402 Z-0.020 F3000.000
G1 X8.022 Y5.402 Z-0.040 F3000.000
G1 X7.989 Y5.687 Z-0.040 F3000.000
G1 X7.945 Y5.790 Z-0.040 F3000.000
G1 X7.844 Y5.887 Z-0.040 F3000.000
G1 X7.708 Y5.917 Z-0.040 F3000.000
G1 X7.562 Y5.881 Z-0.040 F3000.000
G1 X7.462 Y5.781 Z-0.040 F3000.000
G1 X7.397 Y5.608 Z-0.040 F3000.000
G1 X7.377 Y5.390 Z-0.040 F3000.000
G1 X7.411 Y5.120 Z-0.040 F3000.000
G1 X7.460 Y5.009 Z-0.040 F3000.000
G1 X7.566 Y4.905 Z-0.040 F3000.000
G1 X7.705 Y4.872 Z-0.040 F3000.000
G1 X7.848 Y4.908 Z-0.040 F3000.000
G1 X7.944 Y5.006 Z-0.040 F3000.000
G1 X8.004 Y5.179 Z-0.040 F3000.000
G1 X8.022 Y5.402 Z-0.040 F3000.000
G1 X8.022 Y5.402 Z-0.060 F3000.000
G1 X7.989 Y5.687 Z-0.060 F3000.000
G1 X7.945 Y5.790 Z-0.060 F3000.000
G1 X7.844 Y5.887 Z-0.060 F3000.000
G1 X7.708 Y5.917 Z-0.060 F3000.000
G1 X7.562 Y5.881 Z-0.060 F3000.000
G1 X7.462 Y5.781 Z-0.060 F3000.000
G1 X7.397 Y5.608 Z-0.060 F3000.000
G1 X7.377 Y5.390 Z-0.060 F3000.000
G1 X7.411 Y5.120 Z-0.060 F3000.000
G1 X7.460 Y5.009 Z-0.060 F3000.000
G1 X7.566 Y4.905 Z-0.060 F3000.000
G1 X7.705 Y4.872 Z-0.060 F3000.000
G1 X7.848 Y4.908 Z-0.060 F3000.000
G1 X7.944 Y5.006 Z-0.060 F3000.000
G1 X8.004 Y5.179 Z-0.060 F3000.000
G1 X8.022 Y5.402 Z-0.060 F3000.000
G1 X8.022 Y5.402 Z-0.080 F3000.000
G1 X7.989 Y5.687 Z-0.080 F3000.000
G1 X7.945 Y5.790 Z-0.080 F3000.000
G1 X7.844 Y5.887 Z-0.080 F3000.000
G1 X7.708 Y5.917 Z-0.080 F3000.000
G1 X7.562 Y5.881 Z-0.080 F3000.000
G1 X7.462 Y5.781 Z-0.080 F3000.000
G1 X7.397 Y5.608 Z-0.080 F3000.000
G1 X7.377 Y5.390 Z-0.080 F3000.000
G1 X7.411 Y5.120 Z-0.080 F3000.000
G1 X7.460 Y5.009 Z-0.080 F3000.000
G1 X7.566 Y4.905 Z-0.080 F3000.000
G1 X7.705 Y4.872 Z-0.080 F3000.000
G1 X7.848 Y4.908 Z-0.080 F3000.000
G1 X7.944 Y5.006 Z-0.080 F3000.000
G1 X8.004 Y5.179 Z-0.080 F3000.000
G1 X8.022 Y5.402 Z-0.080 F3000.000
G1 X8.022 Y5.402 Z-0.100 F3000.000
G1 X7.989 Y5.687 Z-0.100 F3000.000
G1 X7.945 Y5.790 Z-0.100 F3000.000
G1 X7.844 Y5.887 Z-0.100 F3000.000
G1 X7.708 Y5.917 Z-0.100 F3000.000
G1 X7.562 Y5.881 Z-0.100 F3000.000
G1 X7.462 Y5.781 Z-0.100 F3000.000
G1 X7.397 Y5.608 Z-0.100 F3000.000
G1 X7.377 Y5.390 Z-0.100 F3000.000
G1 X7.411 Y5.120 Z-0.100 F3000.000
G1 X7.460 Y5.009 Z-0.100 F3000.000
G1 X7.566 Y4.905 Z-0.100 F3000.000
G1 X7.705 Y4.872 Z-0.100 F3000.000
G1 X7.848 Y4.908 Z-0.100 F3000.000
G1 X7.944 Y5.006 Z-0.100 F3000.000
G1 X8.004 Y5.179 Z-0.100 F3000.000
G1 X8.022 Y5.402 Z-0.100 F3000.000
G0 Z6.000
G0 Z6.000
G0 X8.740 Y4.630
G0 Z4.000
G1 X8.740 Y4.630 Z0.020 F3000.000
G1 X8.740 Y4.927 Z0.020 F3000.000
G1 X9.235 Y4.927 Z0.020 F3000.000
G1 X9.235 Y6.291 Z0.020 F3000.000
G1 X8.755 Y5.994 Z0.020 F3000.000
G1 X8.755 Y6.308 Z0.020 F3000.000
G1 X9.257 Y6.630 Z0.020 F3000.000
G1 X9.634 Y6.630 Z0.020 F3000.000
G1 X9.634 Y4.927 Z0.020 F3000.000
G1 X10.093 Y4.927 Z0.020 F3000.000
G1 X10.093 Y4.630 Z0.020 F3000.000
G1 X8.740 Y4.630 Z0.020 F3000.000
G1 X8.740 Y4.630 Z0.000 F3000.000
G1 X8.740 Y4.927 Z0.000 F3000.000
G1 X9.235 Y4.927 Z0.000 F3000.000
G1 X9.235 Y6.291 Z0.000 F3000.000
G1 X8.755 Y5.994 Z0.000 F3000.000
G1 X8.755 Y6.308 Z0.000 F3000.000
G1 X9.257 Y6.630 Z0.000 F3000.000
G1 X9.634 Y6.630 Z0.000 F3000.000
G1 X9.634 Y4.927 Z0.000 F3000.000
G1 X10.093 Y4.927 Z0.000 F3000.000
G1 X10.093 Y4.630 Z0.000 F3000.000
G1 X8.740 Y4.630 Z0.000 F3000.000
G1 X8.740 Y4.630 Z-0.020 F3000.000
G1 X8.740 Y4.927 Z-0.020 F3000.000
G1 X9.235 Y4.927 Z-0.020 F3000.000
G1 X9.235 Y6.291 Z-0.020 F3000.000
G1 X8.755 Y5.994 Z-0.020 F3000.000
G1 X8.755 Y6.308 Z-0.020 F3000.000
G1 X9.257 Y6.630 Z-0.020 F3000.000
G1 X9.634 Y6.630 Z-0.020 F3000.000
G1 X9.634 Y4.927 Z-0.020 F3000.000
G1 X10.093 Y4.927 Z-0.020 F3000.000
G1 X10.093 Y4.630 Z-0.020 F3000.000
G1 X8.740 Y4.630 Z-0.020 F3000.000
G1 X8.740 Y4.630 Z-0.040 F3000.000
G1 X8.740 Y4.927 Z-0.040 F3000.000
G1 X9.235 Y4.927 Z-0.040 F3000.000
G1 X9.235 Y6.291 Z-0.040 F3000.000
G1 X8.755 Y5.994 Z-0.040 F3000.000
G1 X8.755 Y6.308 Z-0.040 F3000.000
G1 X9.257 Y6.630 Z-0.040 F3000.000
G1 X9.634 Y6.630 Z-0.040 F3000.000
G1 X9.634 Y4.927 Z-0.040 F3000.000
G1 X10.093 Y4.927 Z-0.040 F3000.000
G1 X10.093 Y4.630 Z-0.040 F3000.000
G1 X8.740 Y4.630 Z-0.040 F3000.000
G1 X8.740 Y4.630 Z-0.060 F3000.000
G1 X8.740 Y4.927 Z-0.060 F3000.000
G1 X9.235 Y4.927 Z-0.060 F3000.000
G1 X9.235 Y6.291 Z-0.060 F3000.000
G1 X8.755 Y5.994 Z-0.060 F3000.000
G1 X8.755 Y6.308 Z-0.060 F3000.000
G1 X9.257 Y6.630 Z-0.060 F3000.000
G1 X9.634 Y6.630 Z-0.060 F3000.000
G1 X9.634 Y4.927 Z-0.060 F3000.000
G1 X10.093 Y4.927 Z-0.060 F3000.000
G1 X10.093 Y4.630 Z-0.060 F3000.000
G1 X8.740 Y4.630 Z-0.060 F3000.000
G1 X8.740 Y4.630 Z-0.080 F3000.000
G1 X8.740 Y4.927 Z-0.080 F3000.000
G1 X9.235 Y4.927 Z-0.080 F3000.000
G1 X9.235 Y6.291 Z-0.080 F3000.000
G1 X8.755 Y5.994 Z-0.080 F3000.000
G1 X8.755 Y6.308 Z-0.080 F3000.000
G1 X9.257 Y6.630 Z-0.080 F3000.000
G1 X9.634 Y6.630 Z-0.080 F3000.000
G1 X9.634 Y4.927 Z-0.080 F3000.000
G1 X10.093 Y4.927 Z-0.080 F3000.000
G1 X10.093 Y4.630 Z-0.080 F3000.000
G1 X8.740 Y4.630 Z-0.080 F3000.000
G1 X8.740 Y4.630 Z-0.100 F3000.000
G1 X8.740 Y4.927 Z-0.100 F3000.000
G1 X9.235 Y4.927 Z-0.100 F3000.000
G1 X9.235 Y6.291 Z-0.100 F3000.000
G1 X8.755 Y5.994 Z-0.100 F3000.000
G1 X8.755 Y6.308 Z-0.100 F3000.000
G1 X9.257 Y6.630 Z-0.100 F3000.000
G1 X9.634 Y6.630 Z-0.100 F3000.000
G1 X9.634 Y4.927 Z-0.100 F3000.000
G1 X10.093 Y4.927 Z-0.100 F3000.000
G1 X10.093 Y4.630 Z-0.100 F3000.000
G1 X8.740 Y4.630 Z-0.100 F3000.000
G0 Z6.000
(Finish operation: Engrave)
(Begin postamble)
M5
G17 G90
M2
