(Exported by FreeCAD)
(Post Processor: grbl_post)
(Output Time:2025-12-14 13:31:42.703502)
(Begin preamble)
G17 G90
G21
(Begin operation: Fixture)
(Path: Fixture)
G54
(Finish operation: Fixture)
(Begin operation: 3.0mm Drill001)
(Path: 3.0mm Drill001)
(3.0mm Drill001)
(Begin toolchange)
( M6 T2 )
M3 S20000
(Finish operation: 3.0mm Drill001)
(Begin operation: Pocket_Shape)
(Path: Pocket_Shape)
(Pocket_Shape)
G0 Z7.500
G0 X94.500 Y-18.500
G0 Z5.500
G1 X94.500 Y-18.500 Z-0.100 F3000.000
G1 X94.500 Y-17.439 Z-0.100 F3000.000
G1 X93.439 Y-18.500 Z-0.100 F3000.000
G1 X92.379 Y-18.500 Z-0.100 F3000.000
G1 X94.500 Y-16.379 Z-0.100 F3000.000
G1 X94.500 Y-15.318 Z-0.100 F3000.000
G1 X91.318 Y-18.500 Z-0.100 F3000.000
G1 X90.257 Y-18.500 Z-0.100 F3000.000
G1 X94.500 Y-14.257 Z-0.100 F3000.000
G1 X94.500 Y-13.197 Z-0.100 F3000.000
G1 X89.197 Y-18.500 Z-0.100 F3000.000
G1 X88.136 Y-18.500 Z-0.100 F3000.000
G1 X94.500 Y-12.136 Z-0.100 F3000.000
G1 X94.500 Y-11.075 Z-0.100 F3000.000
G1 X87.075 Y-18.500 Z-0.100 F3000.000
G1 X86.015 Y-18.500 Z-0.100 F3000.000
G1 X94.500 Y-10.015 Z-0.100 F3000.000
G1 X94.500 Y-8.954 Z-0.100 F3000.000
G1 X84.954 Y-18.500 Z-0.100 F3000.000
G1 X83.893 Y-18.500 Z-0.100 F3000.000
G1 X94.500 Y-7.893 Z-0.100 F3000.000
G1 X94.500 Y-6.833 Z-0.100 F3000.000
G1 X82.833 Y-18.500 Z-0.100 F3000.000
G1 X81.772 Y-18.500 Z-0.100 F3000.000
G1 X94.500 Y-5.772 Z-0.100 F3000.000
G1 X94.500 Y-4.711 Z-0.100 F3000.000
G1 X80.711 Y-18.500 Z-0.100 F3000.000
G1 X79.651 Y-18.500 Z-0.100 F3000.000
G1 X94.500 Y-3.651 Z-0.100 F3000.000
G1 X94.500 Y-2.590 Z-0.100 F3000.000
G1 X78.590 Y-18.500 Z-0.100 F3000.000
G1 X77.529 Y-18.500 Z-0.100 F3000.000
G1 X94.500 Y-1.529 Z-0.100 F3000.000
G1 X94.500 Y-0.469 Z-0.100 F3000.000
G1 X76.469 Y-18.500 Z-0.100 F3000.000
G1 X75.408 Y-18.500 Z-0.100 F3000.000
G1 X94.500 Y0.592 Z-0.100 F3000.000
G1 X94.500 Y1.653 Z-0.100 F3000.000
G1 X74.347 Y-18.500 Z-0.100 F3000.000
G1 X73.287 Y-18.500 Z-0.100 F3000.000
G1 X94.500 Y2.713 Z-0.100 F3000.000
G1 X94.500 Y3.774 Z-0.100 F3000.000
G1 X72.226 Y-18.500 Z-0.100 F3000.000
G1 X71.165 Y-18.500 Z-0.100 F3000.000
G1 X94.500 Y4.835 Z-0.100 F3000.000
G1 X94.500 Y5.895 Z-0.100 F3000.000
G1 X70.105 Y-18.500 Z-0.100 F3000.000
G1 X69.044 Y-18.500 Z-0.100 F3000.000
G1 X94.500 Y6.956 Z-0.100 F3000.000
G1 X94.500 Y8.017 Z-0.100 F3000.000
G1 X67.983 Y-18.500 Z-0.100 F3000.000
G1 X66.923 Y-18.500 Z-0.100 F3000.000
G1 X94.500 Y9.077 Z-0.100 F3000.000
G1 X94.500 Y10.138 Z-0.100 F3000.000
G1 X65.862 Y-18.500 Z-0.100 F3000.000
G1 X64.802 Y-18.500 Z-0.100 F3000.000
G1 X94.500 Y11.198 Z-0.100 F3000.000
G1 X94.500 Y12.259 Z-0.100 F3000.000
G1 X63.741 Y-18.500 Z-0.100 F3000.000
G1 X62.680 Y-18.500 Z-0.100 F3000.000
G1 X94.500 Y13.320 Z-0.100 F3000.000
G1 X94.500 Y14.380 Z-0.100 F3000.000
G1 X61.620 Y-18.500 Z-0.100 F3000.000
G1 X60.559 Y-18.500 Z-0.100 F3000.000
G1 X94.500 Y15.441 Z-0.100 F3000.000
G1 X94.500 Y16.502 Z-0.100 F3000.000
G1 X59.498 Y-18.500 Z-0.100 F3000.000
G1 X58.438 Y-18.500 Z-0.100 F3000.000
G1 X94.500 Y17.562 Z-0.100 F3000.000
G1 X94.500 Y18.623 Z-0.100 F3000.000
G1 X57.377 Y-18.500 Z-0.100 F3000.000
G1 X56.316 Y-18.500 Z-0.100 F3000.000
G1 X94.500 Y19.684 Z-0.100 F3000.000
G1 X94.500 Y20.744 Z-0.100 F3000.000
G1 X55.256 Y-18.500 Z-0.100 F3000.000
G1 X54.195 Y-18.500 Z-0.100 F3000.000
G1 X94.500 Y21.805 Z-0.100 F3000.000
G1 X94.500 Y22.866 Z-0.100 F3000.000
G1 X53.134 Y-18.500 Z-0.100 F3000.000
G1 X52.074 Y-18.500 Z-0.100 F3000.000
G1 X94.500 Y23.926 Z-0.100 F3000.000
G1 X94.500 Y24.987 Z-0.100 F3000.000
G1 X51.013 Y-18.500 Z-0.100 F3000.000
G1 X49.952 Y-18.500 Z-0.100 F3000.000
G1 X94.500 Y26.048 Z-0.100 F3000.000
G1 X94.500 Y27.108 Z-0.100 F3000.000
G1 X48.892 Y-18.500 Z-0.100 F3000.000
G1 X47.831 Y-18.500 Z-0.100 F3000.000
G1 X94.500 Y28.169 Z-0.100 F3000.000
G1 X94.500 Y29.230 Z-0.100 F3000.000
G1 X46.770 Y-18.500 Z-0.100 F3000.000
G1 X45.710 Y-18.500 Z-0.100 F3000.000
G1 X94.500 Y30.290 Z-0.100 F3000.000
G1 X94.500 Y31.351 Z-0.100 F3000.000
G1 X44.649 Y-18.500 Z-0.100 F3000.000
G1 X43.588 Y-18.500 Z-0.100 F3000.000
G1 X94.500 Y32.412 Z-0.100 F3000.000
G1 X94.500 Y33.472 Z-0.100 F3000.000
G1 X42.528 Y-18.500 Z-0.100 F3000.000
G1 X41.467 Y-18.500 Z-0.100 F3000.000
G1 X94.500 Y34.533 Z-0.100 F3000.000
G1 X94.500 Y35.594 Z-0.100 F3000.000
G1 X40.406 Y-18.500 Z-0.100 F3000.000
G1 X39.346 Y-18.500 Z-0.100 F3000.000
G1 X94.500 Y36.654 Z-0.100 F3000.000
G1 X94.500 Y37.715 Z-0.100 F3000.000
G1 X38.285 Y-18.500 Z-0.100 F3000.000
G1 X37.224 Y-18.500 Z-0.100 F3000.000
G1 X94.500 Y38.776 Z-0.100 F3000.000
G1 X94.500 Y39.836 Z-0.100 F3000.000
G1 X36.164 Y-18.500 Z-0.100 F3000.000
G1 X35.103 Y-18.500 Z-0.100 F3000.000
G1 X94.500 Y40.897 Z-0.100 F3000.000
G1 X94.500 Y41.958 Z-0.100 F3000.000
G1 X34.042 Y-18.500 Z-0.100 F3000.000
G1 X32.982 Y-18.500 Z-0.100 F3000.000
G1 X94.500 Y43.018 Z-0.100 F3000.000
G1 X94.500 Y44.079 Z-0.100 F3000.000
G1 X31.921 Y-18.500 Z-0.100 F3000.000
G1 X30.860 Y-18.500 Z-0.100 F3000.000
G1 X94.500 Y45.140 Z-0.100 F3000.000
G1 X94.500 Y46.200 Z-0.100 F3000.000
G1 X29.800 Y-18.500 Z-0.100 F3000.000
G1 X28.739 Y-18.500 Z-0.100 F3000.000
G1 X94.500 Y47.261 Z-0.100 F3000.000
G1 X94.500 Y48.322 Z-0.100 F3000.000
G1 X27.678 Y-18.500 Z-0.100 F3000.000
G1 X26.618 Y-18.500 Z-0.100 F3000.000
G1 X94.500 Y49.382 Z-0.100 F3000.000
G1 X94.500 Y50.443 Z-0.100 F3000.000
G1 X25.557 Y-18.500 Z-0.100 F3000.000
G1 X24.496 Y-18.500 Z-0.100 F3000.000
G1 X94.500 Y51.504 Z-0.100 F3000.000
G1 X94.500 Y52.564 Z-0.100 F3000.000
G1 X23.436 Y-18.500 Z-0.100 F3000.000
G1 X22.375 Y-18.500 Z-0.100 F3000.000
G1 X94.500 Y53.625 Z-0.100 F3000.000
G1 X94.500 Y54.686 Z-0.100 F3000.000
G1 X21.314 Y-18.500 Z-0.100 F3000.000
G1 X20.254 Y-18.500 Z-0.100 F3000.000
G1 X94.500 Y55.746 Z-0.100 F3000.000
G1 X94.500 Y56.807 Z-0.100 F3000.000
G1 X19.193 Y-18.500 Z-0.100 F3000.000
G1 X18.132 Y-18.500 Z-0.100 F3000.000
G1 X94.500 Y57.868 Z-0.100 F3000.000
G1 X94.500 Y58.928 Z-0.100 F3000.000
G1 X17.072 Y-18.500 Z-0.100 F3000.000
G1 X16.011 Y-18.500 Z-0.100 F3000.000
G1 X94.500 Y59.989 Z-0.100 F3000.000
G1 X94.500 Y61.050 Z-0.100 F3000.000
G1 X14.950 Y-18.500 Z-0.100 F3000.000
G1 X13.890 Y-18.500 Z-0.100 F3000.000
G1 X94.500 Y62.110 Z-0.100 F3000.000
G1 X94.500 Y63.171 Z-0.100 F3000.000
G1 X12.829 Y-18.500 Z-0.100 F3000.000
G1 X11.769 Y-18.500 Z-0.100 F3000.000
G1 X94.500 Y64.231 Z-0.100 F3000.000
G1 X94.500 Y65.292 Z-0.100 F3000.000
G1 X10.708 Y-18.500 Z-0.100 F3000.000
G1 X9.647 Y-18.500 Z-0.100 F3000.000
G1 X94.500 Y66.353 Z-0.100 F3000.000
G1 X94.500 Y67.413 Z-0.100 F3000.000
G1 X8.587 Y-18.500 Z-0.100 F3000.000
G1 X7.526 Y-18.500 Z-0.100 F3000.000
G1 X94.216 Y68.190 Z-0.100 F3000.000
G1 X93.155 Y68.190 Z-0.100 F3000.000
G1 X6.465 Y-18.500 Z-0.100 F3000.000
G1 X5.405 Y-18.500 Z-0.100 F3000.000
G1 X92.095 Y68.190 Z-0.100 F3000.000
G1 X91.034 Y68.190 Z-0.100 F3000.000
G1 X4.344 Y-18.500 Z-0.100 F3000.000
G1 X3.283 Y-18.500 Z-0.100 F3000.000
G1 X89.973 Y68.190 Z-0.100 F3000.000
G1 X88.913 Y68.190 Z-0.100 F3000.000
G1 X2.223 Y-18.500 Z-0.100 F3000.000
G1 X1.162 Y-18.500 Z-0.100 F3000.000
G1 X87.852 Y68.190 Z-0.100 F3000.000
G1 X86.791 Y68.190 Z-0.100 F3000.000
G1 X0.101 Y-18.500 Z-0.100 F3000.000
G1 X-0.959 Y-18.500 Z-0.100 F3000.000
G1 X85.731 Y68.190 Z-0.100 F3000.000
G1 X84.670 Y68.190 Z-0.100 F3000.000
G1 X-2.020 Y-18.500 Z-0.100 F3000.000
G1 X-3.081 Y-18.500 Z-0.100 F3000.000
G1 X83.609 Y68.190 Z-0.100 F3000.000
G1 X82.549 Y68.190 Z-0.100 F3000.000
G1 X-4.141 Y-18.500 Z-0.100 F3000.000
G1 X-5.202 Y-18.500 Z-0.100 F3000.000
G1 X81.488 Y68.190 Z-0.100 F3000.000
G1 X80.427 Y68.190 Z-0.100 F3000.000
G1 X-6.263 Y-18.500 Z-0.100 F3000.000
G1 X-7.323 Y-18.500 Z-0.100 F3000.000
G1 X79.367 Y68.190 Z-0.100 F3000.000
G1 X78.306 Y68.190 Z-0.100 F3000.000
G1 X-8.384 Y-18.500 Z-0.100 F3000.000
G1 X-9.445 Y-18.500 Z-0.100 F3000.000
G1 X77.245 Y68.190 Z-0.100 F3000.000
G1 X76.185 Y68.190 Z-0.100 F3000.000
G1 X-10.505 Y-18.500 Z-0.100 F3000.000
G1 X-11.566 Y-18.500 Z-0.100 F3000.000
G1 X75.124 Y68.190 Z-0.100 F3000.000
G1 X74.063 Y68.190 Z-0.100 F3000.000
G1 X-12.627 Y-18.500 Z-0.100 F3000.000
G1 X-13.687 Y-18.500 Z-0.100 F3000.000
G1 X73.003 Y68.190 Z-0.100 F3000.000
G1 X71.942 Y68.190 Z-0.100 F3000.000
G1 X-14.748 Y-18.500 Z-0.100 F3000.000
G1 X-15.809 Y-18.500 Z-0.100 F3000.000
G1 X70.881 Y68.190 Z-0.100 F3000.000
G1 X69.821 Y68.190 Z-0.100 F3000.000
G1 X-16.869 Y-18.500 Z-0.100 F3000.000
G1 X-17.930 Y-18.500 Z-0.100 F3000.000
G1 X68.760 Y68.190 Z-0.100 F3000.000
G1 X67.699 Y68.190 Z-0.100 F3000.000
G1 X-18.500 Y-18.009 Z-0.100 F3000.000
G1 X-18.500 Y-16.949 Z-0.100 F3000.000
G1 X66.639 Y68.190 Z-0.100 F3000.000
G1 X65.578 Y68.190 Z-0.100 F3000.000
G1 X-18.500 Y-15.888 Z-0.100 F3000.000
G1 X-18.500 Y-14.827 Z-0.100 F3000.000
G1 X64.517 Y68.190 Z-0.100 F3000.000
G1 X63.457 Y68.190 Z-0.100 F3000.000
G1 X-18.500 Y-13.767 Z-0.100 F3000.000
G1 X-18.500 Y-12.706 Z-0.100 F3000.000
G1 X62.396 Y68.190 Z-0.100 F3000.000
G1 X61.335 Y68.190 Z-0.100 F3000.000
G1 X-18.500 Y-11.645 Z-0.100 F3000.000
G1 X-18.500 Y-10.585 Z-0.100 F3000.000
G1 X60.275 Y68.190 Z-0.100 F3000.000
G1 X59.214 Y68.190 Z-0.100 F3000.000
G1 X-18.500 Y-9.524 Z-0.100 F3000.000
G1 X-18.500 Y-8.463 Z-0.100 F3000.000
G1 X58.153 Y68.190 Z-0.100 F3000.000
G1 X57.093 Y68.190 Z-0.100 F3000.000
G1 X-18.500 Y-7.403 Z-0.100 F3000.000
G1 X-18.500 Y-6.342 Z-0.100 F3000.000
G1 X56.032 Y68.190 Z-0.100 F3000.000
G1 X54.971 Y68.190 Z-0.100 F3000.000
G1 X-18.500 Y-5.281 Z-0.100 F3000.000
G1 X-18.500 Y-4.221 Z-0.100 F3000.000
G1 X53.911 Y68.190 Z-0.100 F3000.000
G1 X52.850 Y68.190 Z-0.100 F3000.000
G1 X-18.500 Y-3.160 Z-0.100 F3000.000
G1 X-18.500 Y-2.099 Z-0.100 F3000.000
G1 X51.789 Y68.190 Z-0.100 F3000.000
G1 X50.729 Y68.190 Z-0.100 F3000.000
G1 X-18.500 Y-1.039 Z-0.100 F3000.000
G1 X-18.500 Y0.022 Z-0.100 F3000.000
G1 X49.668 Y68.190 Z-0.100 F3000.000
G1 X48.607 Y68.190 Z-0.100 F3000.000
G1 X-18.500 Y1.083 Z-0.100 F3000.000
G1 X-18.500 Y2.143 Z-0.100 F3000.000
G1 X47.547 Y68.190 Z-0.100 F3000.000
G1 X46.486 Y68.190 Z-0.100 F3000.000
G1 X-18.500 Y3.204 Z-0.100 F3000.000
G1 X-18.500 Y4.265 Z-0.100 F3000.000
G1 X45.425 Y68.190 Z-0.100 F3000.000
G1 X44.365 Y68.190 Z-0.100 F3000.000
G1 X-18.500 Y5.325 Z-0.100 F3000.000
G1 X-18.500 Y6.386 Z-0.100 F3000.000
G1 X43.304 Y68.190 Z-0.100 F3000.000
G1 X42.244 Y68.190 Z-0.100 F3000.000
G1 X-18.500 Y7.446 Z-0.100 F3000.000
G1 X-18.500 Y8.507 Z-0.100 F3000.000
G1 X41.183 Y68.190 Z-0.100 F3000.000
G1 X40.122 Y68.190 Z-0.100 F3000.000
G1 X-18.500 Y9.568 Z-0.100 F3000.000
G1 X-18.500 Y10.628 Z-0.100 F3000.000
G1 X39.062 Y68.190 Z-0.100 F3000.000
G1 X38.001 Y68.190 Z-0.100 F3000.000
G1 X-18.500 Y11.689 Z-0.100 F3000.000
G1 X-18.500 Y12.750 Z-0.100 F3000.000
G1 X36.940 Y68.190 Z-0.100 F3000.000
G1 X35.880 Y68.190 Z-0.100 F3000.000
G1 X-18.500 Y13.810 Z-0.100 F3000.000
G1 X-18.500 Y14.871 Z-0.100 F3000.000
G1 X34.819 Y68.190 Z-0.100 F3000.000
G1 X33.758 Y68.190 Z-0.100 F3000.000
G1 X-18.500 Y15.932 Z-0.100 F3000.000
G1 X-18.500 Y16.992 Z-0.100 F3000.000
G1 X32.698 Y68.190 Z-0.100 F3000.000
G1 X31.637 Y68.190 Z-0.100 F3000.000
G1 X-18.500 Y18.053 Z-0.100 F3000.000
G1 X-18.500 Y19.114 Z-0.100 F3000.000
G1 X30.576 Y68.190 Z-0.100 F3000.000
G1 X29.516 Y68.190 Z-0.100 F3000.000
G1 X-18.500 Y20.174 Z-0.100 F3000.000
G1 X-18.500 Y21.235 Z-0.100 F3000.000
G1 X28.455 Y68.190 Z-0.100 F3000.000
G1 X27.394 Y68.190 Z-0.100 F3000.000
G1 X-18.500 Y22.296 Z-0.100 F3000.000
G1 X-18.500 Y23.356 Z-0.100 F3000.000
G1 X26.334 Y68.190 Z-0.100 F3000.000
G1 X25.273 Y68.190 Z-0.100 F3000.000
G1 X-18.500 Y24.417 Z-0.100 F3000.000
G1 X-18.500 Y25.478 Z-0.100 F3000.000
G1 X24.212 Y68.190 Z-0.100 F3000.000
G1 X23.152 Y68.190 Z-0.100 F3000.000
G1 X-18.500 Y26.538 Z-0.100 F3000.000
G1 X-18.500 Y27.599 Z-0.100 F3000.000
G1 X22.091 Y68.190 Z-0.100 F3000.000
G1 X21.030 Y68.190 Z-0.100 F3000.000
G1 X-18.500 Y28.660 Z-0.100 F3000.000
G1 X-18.500 Y29.720 Z-0.100 F3000.000
G1 X19.970 Y68.190 Z-0.100 F3000.000
G1 X18.909 Y68.190 Z-0.100 F3000.000
G1 X-18.500 Y30.781 Z-0.100 F3000.000
G1 X-18.500 Y31.842 Z-0.100 F3000.000
G1 X17.848 Y68.190 Z-0.100 F3000.000
G1 X16.788 Y68.190 Z-0.100 F3000.000
G1 X-18.500 Y32.902 Z-0.100 F3000.000
G1 X-18.500 Y33.963 Z-0.100 F3000.000
G1 X15.727 Y68.190 Z-0.100 F3000.000
G1 X14.666 Y68.190 Z-0.100 F3000.000
G1 X-18.500 Y35.024 Z-0.100 F3000.000
G1 X-18.500 Y36.084 Z-0.100 F3000.000
G1 X13.606 Y68.190 Z-0.100 F3000.000
G1 X12.545 Y68.190 Z-0.100 F3000.000
G1 X-18.500 Y37.145 Z-0.100 F3000.000
G1 X-18.500 Y38.206 Z-0.100 F3000.000
G1 X11.484 Y68.190 Z-0.100 F3000.000
G1 X10.424 Y68.190 Z-0.100 F3000.000
G1 X-18.500 Y39.266 Z-0.100 F3000.000
G1 X-18.500 Y40.327 Z-0.100 F3000.000
G1 X9.363 Y68.190 Z-0.100 F3000.000
G1 X8.302 Y68.190 Z-0.100 F3000.000
G1 X-18.500 Y41.388 Z-0.100 F3000.000
G1 X-18.500 Y42.448 Z-0.100 F3000.000
G1 X7.242 Y68.190 Z-0.100 F3000.000
G1 X6.181 Y68.190 Z-0.100 F3000.000
G1 X-18.500 Y43.509 Z-0.100 F3000.000
G1 X-18.500 Y44.570 Z-0.100 F3000.000
G1 X5.120 Y68.190 Z-0.100 F3000.000
G1 X4.060 Y68.190 Z-0.100 F3000.000
G1 X-18.500 Y45.630 Z-0.100 F3000.000
G1 X-18.500 Y46.691 Z-0.100 F3000.000
G1 X2.999 Y68.190 Z-0.100 F3000.000
G1 X1.938 Y68.190 Z-0.100 F3000.000
G1 X-18.500 Y47.752 Z-0.100 F3000.000
G1 X-18.500 Y48.812 Z-0.100 F3000.000
G1 X0.878 Y68.190 Z-0.100 F3000.000
G1 X-0.183 Y68.190 Z-0.100 F3000.000
G1 X-18.500 Y49.873 Z-0.100 F3000.000
G1 X-18.500 Y50.934 Z-0.100 F3000.000
G1 X-1.244 Y68.190 Z-0.100 F3000.000
G1 X-2.304 Y68.190 Z-0.100 F3000.000
G1 X-18.500 Y51.994 Z-0.100 F3000.000
G1 X-18.500 Y53.055 Z-0.100 F3000.000
G1 X-3.365 Y68.190 Z-0.100 F3000.000
G1 X-4.426 Y68.190 Z-0.100 F3000.000
G1 X-18.500 Y54.116 Z-0.100 F3000.000
G1 X-18.500 Y55.176 Z-0.100 F3000.000
G1 X-5.486 Y68.190 Z-0.100 F3000.000
G1 X-6.547 Y68.190 Z-0.100 F3000.000
G1 X-18.500 Y56.237 Z-0.100 F3000.000
G1 X-18.500 Y57.298 Z-0.100 F3000.000
G1 X-7.608 Y68.190 Z-0.100 F3000.000
G1 X-8.668 Y68.190 Z-0.100 F3000.000
G1 X-18.500 Y58.358 Z-0.100 F3000.000
G1 X-18.500 Y59.419 Z-0.100 F3000.000
G1 X-9.729 Y68.190 Z-0.100 F3000.000
G1 X-10.789 Y68.190 Z-0.100 F3000.000
G1 X-18.500 Y60.479 Z-0.100 F3000.000
G1 X-18.500 Y61.540 Z-0.100 F3000.000
G1 X-11.850 Y68.190 Z-0.100 F3000.000
G1 X-12.911 Y68.190 Z-0.100 F3000.000
G1 X-18.500 Y62.601 Z-0.100 F3000.000
G1 X-18.500 Y63.661 Z-0.100 F3000.000
G1 X-13.971 Y68.190 Z-0.100 F3000.000
G1 X-15.032 Y68.190 Z-0.100 F3000.000
G1 X-18.500 Y64.722 Z-0.100 F3000.000
G1 X-18.500 Y65.783 Z-0.100 F3000.000
G1 X-16.093 Y68.190 Z-0.100 F3000.000
G1 X-17.153 Y68.190 Z-0.100 F3000.000
G1 X-18.500 Y66.843 Z-0.100 F3000.000
G1 X-18.500 Y67.904 Z-0.100 F3000.000
G1 X-18.214 Y68.190 Z-0.100 F3000.000
G1 X-18.500 Y68.190 Z-0.100 F3000.000
G1 X-18.500 Y67.904 Z-0.100 F3000.000
G1 X-18.500 Y67.904 Z-0.200 F3000.000
G1 X-18.500 Y68.190 Z-0.200 F3000.000
G1 X-18.214 Y68.190 Z-0.200 F3000.000
G1 X-18.500 Y67.904 Z-0.200 F3000.000
G1 X-18.500 Y66.843 Z-0.200 F3000.000
G1 X-17.153 Y68.190 Z-0.200 F3000.000
G1 X-16.093 Y68.190 Z-0.200 F3000.000
G1 X-18.500 Y65.783 Z-0.200 F3000.000
G1 X-18.500 Y64.722 Z-0.200 F3000.000
G1 X-15.032 Y68.190 Z-0.200 F3000.000
G1 X-13.971 Y68.190 Z-0.200 F3000.000
G1 X-18.500 Y63.661 Z-0.200 F3000.000
G1 X-18.500 Y62.601 Z-0.200 F3000.000
G1 X-12.911 Y68.190 Z-0.200 F3000.000
G1 X-11.850 Y68.190 Z-0.200 F3000.000
G1 X-18.500 Y61.540 Z-0.200 F3000.000
G1 X-18.500 Y60.479 Z-0.200 F3000.000
G1 X-10.789 Y68.190 Z-0.200 F3000.000
G1 X-9.729 Y68.190 Z-0.200 F3000.000
G1 X-18.500 Y59.419 Z-0.200 F3000.000
G1 X-18.500 Y58.358 Z-0.200 F3000.000
G1 X-8.668 Y68.190 Z-0.200 F3000.000
G1 X-7.608 Y68.190 Z-0.200 F3000.000
G1 X-18.500 Y57.298 Z-0.200 F3000.000
G1 X-18.500 Y56.237 Z-0.200 F3000.000
G1 X-6.547 Y68.190 Z-0.200 F3000.000
G1 X-5.486 Y68.190 Z-0.200 F3000.000
G1 X-18.500 Y55.176 Z-0.200 F3000.000
G1 X-18.500 Y54.116 Z-0.200 F3000.000
G1 X-4.426 Y68.190 Z-0.200 F3000.000
G1 X-3.365 Y68.190 Z-0.200 F3000.000
G1 X-18.500 Y53.055 Z-0.200 F3000.000
G1 X-18.500 Y51.994 Z-0.200 F3000.000
G1 X-2.304 Y68.190 Z-0.200 F3000.000
G1 X-1.244 Y68.190 Z-0.200 F3000.000
G1 X-18.500 Y50.934 Z-0.200 F3000.000
G1 X-18.500 Y49.873 Z-0.200 F3000.000
G1 X-0.183 Y68.190 Z-0.200 F3000.000
G1 X0.878 Y68.190 Z-0.200 F3000.000
G1 X-18.500 Y48.812 Z-0.200 F3000.000
G1 X-18.500 Y47.752 Z-0.200 F3000.000
G1 X1.938 Y68.190 Z-0.200 F3000.000
G1 X2.999 Y68.190 Z-0.200 F3000.000
G1 X-18.500 Y46.691 Z-0.200 F3000.000
G1 X-18.500 Y45.630 Z-0.200 F3000.000
G1 X4.060 Y68.190 Z-0.200 F3000.000
G1 X5.120 Y68.190 Z-0.200 F3000.000
G1 X-18.500 Y44.570 Z-0.200 F3000.000
G1 X-18.500 Y43.509 Z-0.200 F3000.000
G1 X6.181 Y68.190 Z-0.200 F3000.000
G1 X7.242 Y68.190 Z-0.200 F3000.000
G1 X-18.500 Y42.448 Z-0.200 F3000.000
G1 X-18.500 Y41.388 Z-0.200 F3000.000
G1 X8.302 Y68.190 Z-0.200 F3000.000
G1 X9.363 Y68.190 Z-0.200 F3000.000
G1 X-18.500 Y40.327 Z-0.200 F3000.000
G1 X-18.500 Y39.266 Z-0.200 F3000.000
G1 X10.424 Y68.190 Z-0.200 F3000.000
G1 X11.484 Y68.190 Z-0.200 F3000.000
G1 X-18.500 Y38.206 Z-0.200 F3000.000
G1 X-18.500 Y37.145 Z-0.200 F3000.000
G1 X12.545 Y68.190 Z-0.200 F3000.000
G1 X13.606 Y68.190 Z-0.200 F3000.000
G1 X-18.500 Y36.084 Z-0.200 F3000.000
G1 X-18.500 Y35.024 Z-0.200 F3000.000
G1 X14.666 Y68.190 Z-0.200 F3000.000
G1 X15.727 Y68.190 Z-0.200 F3000.000
G1 X-18.500 Y33.963 Z-0.200 F3000.000
G1 X-18.500 Y32.902 Z-0.200 F3000.000
G1 X16.788 Y68.190 Z-0.200 F3000.000
G1 X17.848 Y68.190 Z-0.200 F3000.000
G1 X-18.500 Y31.842 Z-0.200 F3000.000
G1 X-18.500 Y30.781 Z-0.200 F3000.000
G1 X18.909 Y68.190 Z-0.200 F3000.000
G1 X19.970 Y68.190 Z-0.200 F3000.000
G1 X-18.500 Y29.720 Z-0.200 F3000.000
G1 X-18.500 Y28.660 Z-0.200 F3000.000
G1 X21.030 Y68.190 Z-0.200 F3000.000
G1 X22.091 Y68.190 Z-0.200 F3000.000
G1 X-18.500 Y27.599 Z-0.200 F3000.000
G1 X-18.500 Y26.538 Z-0.200 F3000.000
G1 X23.152 Y68.190 Z-0.200 F3000.000
G1 X24.212 Y68.190 Z-0.200 F3000.000
G1 X-18.500 Y25.478 Z-0.200 F3000.000
G1 X-18.500 Y24.417 Z-0.200 F3000.000
G1 X25.273 Y68.190 Z-0.200 F3000.000
G1 X26.334 Y68.190 Z-0.200 F3000.000
G1 X-18.500 Y23.356 Z-0.200 F3000.000
G1 X-18.500 Y22.296 Z-0.200 F3000.000
G1 X27.394 Y68.190 Z-0.200 F3000.000
G1 X28.455 Y68.190 Z-0.200 F3000.000
G1 X-18.500 Y21.235 Z-0.200 F3000.000
G1 X-18.500 Y20.174 Z-0.200 F3000.000
G1 X29.516 Y68.190 Z-0.200 F3000.000
G1 X30.576 Y68.190 Z-0.200 F3000.000
G1 X-18.500 Y19.114 Z-0.200 F3000.000
G1 X-18.500 Y18.053 Z-0.200 F3000.000
G1 X31.637 Y68.190 Z-0.200 F3000.000
G1 X32.698 Y68.190 Z-0.200 F3000.000
G1 X-18.500 Y16.992 Z-0.200 F3000.000
G1 X-18.500 Y15.932 Z-0.200 F3000.000
G1 X33.758 Y68.190 Z-0.200 F3000.000
G1 X34.819 Y68.190 Z-0.200 F3000.000
G1 X-18.500 Y14.871 Z-0.200 F3000.000
G1 X-18.500 Y13.810 Z-0.200 F3000.000
G1 X35.880 Y68.190 Z-0.200 F3000.000
G1 X36.940 Y68.190 Z-0.200 F3000.000
G1 X-18.500 Y12.750 Z-0.200 F3000.000
G1 X-18.500 Y11.689 Z-0.200 F3000.000
G1 X38.001 Y68.190 Z-0.200 F3000.000
G1 X39.062 Y68.190 Z-0.200 F3000.000
G1 X-18.500 Y10.628 Z-0.200 F3000.000
G1 X-18.500 Y9.568 Z-0.200 F3000.000
G1 X40.122 Y68.190 Z-0.200 F3000.000
G1 X41.183 Y68.190 Z-0.200 F3000.000
G1 X-18.500 Y8.507 Z-0.200 F3000.000
G1 X-18.500 Y7.446 Z-0.200 F3000.000
G1 X42.244 Y68.190 Z-0.200 F3000.000
G1 X43.304 Y68.190 Z-0.200 F3000.000
G1 X-18.500 Y6.386 Z-0.200 F3000.000
G1 X-18.500 Y5.325 Z-0.200 F3000.000
G1 X44.365 Y68.190 Z-0.200 F3000.000
G1 X45.425 Y68.190 Z-0.200 F3000.000
G1 X-18.500 Y4.265 Z-0.200 F3000.000
G1 X-18.500 Y3.204 Z-0.200 F3000.000
G1 X46.486 Y68.190 Z-0.200 F3000.000
G1 X47.547 Y68.190 Z-0.200 F3000.000
G1 X-18.500 Y2.143 Z-0.200 F3000.000
G1 X-18.500 Y1.083 Z-0.200 F3000.000
G1 X48.607 Y68.190 Z-0.200 F3000.000
G1 X49.668 Y68.190 Z-0.200 F3000.000
G1 X-18.500 Y0.022 Z-0.200 F3000.000
G1 X-18.500 Y-1.039 Z-0.200 F3000.000
G1 X50.729 Y68.190 Z-0.200 F3000.000
G1 X51.789 Y68.190 Z-0.200 F3000.000
G1 X-18.500 Y-2.099 Z-0.200 F3000.000
G1 X-18.500 Y-3.160 Z-0.200 F3000.000
G1 X52.850 Y68.190 Z-0.200 F3000.000
G1 X53.911 Y68.190 Z-0.200 F3000.000
G1 X-18.500 Y-4.221 Z-0.200 F3000.000
G1 X-18.500 Y-5.281 Z-0.200 F3000.000
G1 X54.971 Y68.190 Z-0.200 F3000.000
G1 X56.032 Y68.190 Z-0.200 F3000.000
G1 X-18.500 Y-6.342 Z-0.200 F3000.000
G1 X-18.500 Y-7.403 Z-0.200 F3000.000
G1 X57.093 Y68.190 Z-0.200 F3000.000
G1 X58.153 Y68.190 Z-0.200 F3000.000
G1 X-18.500 Y-8.463 Z-0.200 F3000.000
G1 X-18.500 Y-9.524 Z-0.200 F3000.000
G1 X59.214 Y68.190 Z-0.200 F3000.000
G1 X60.275 Y68.190 Z-0.200 F3000.000
G1 X-18.500 Y-10.585 Z-0.200 F3000.000
G1 X-18.500 Y-11.645 Z-0.200 F3000.000
G1 X61.335 Y68.190 Z-0.200 F3000.000
G1 X62.396 Y68.190 Z-0.200 F3000.000
G1 X-18.500 Y-12.706 Z-0.200 F3000.000
G1 X-18.500 Y-13.767 Z-0.200 F3000.000
G1 X63.457 Y68.190 Z-0.200 F3000.000
G1 X64.517 Y68.190 Z-0.200 F3000.000
G1 X-18.500 Y-14.827 Z-0.200 F3000.000
G1 X-18.500 Y-15.888 Z-0.200 F3000.000
G1 X65.578 Y68.190 Z-0.200 F3000.000
G1 X66.639 Y68.190 Z-0.200 F3000.000
G1 X-18.500 Y-16.949 Z-0.200 F3000.000
G1 X-18.500 Y-18.009 Z-0.200 F3000.000
G1 X67.699 Y68.190 Z-0.200 F3000.000
G1 X68.760 Y68.190 Z-0.200 F3000.000
G1 X-17.930 Y-18.500 Z-0.200 F3000.000
G1 X-16.869 Y-18.500 Z-0.200 F3000.000
G1 X69.821 Y68.190 Z-0.200 F3000.000
G1 X70.881 Y68.190 Z-0.200 F3000.000
G1 X-15.809 Y-18.500 Z-0.200 F3000.000
G1 X-14.748 Y-18.500 Z-0.200 F3000.000
G1 X71.942 Y68.190 Z-0.200 F3000.000
G1 X73.003 Y68.190 Z-0.200 F3000.000
G1 X-13.687 Y-18.500 Z-0.200 F3000.000
G1 X-12.627 Y-18.500 Z-0.200 F3000.000
G1 X74.063 Y68.190 Z-0.200 F3000.000
G1 X75.124 Y68.190 Z-0.200 F3000.000
G1 X-11.566 Y-18.500 Z-0.200 F3000.000
G1 X-10.505 Y-18.500 Z-0.200 F3000.000
G1 X76.185 Y68.190 Z-0.200 F3000.000
G1 X77.245 Y68.190 Z-0.200 F3000.000
G1 X-9.445 Y-18.500 Z-0.200 F3000.000
G1 X-8.384 Y-18.500 Z-0.200 F3000.000
G1 X78.306 Y68.190 Z-0.200 F3000.000
G1 X79.367 Y68.190 Z-0.200 F3000.000
G1 X-7.323 Y-18.500 Z-0.200 F3000.000
G1 X-6.263 Y-18.500 Z-0.200 F3000.000
G1 X80.427 Y68.190 Z-0.200 F3000.000
G1 X81.488 Y68.190 Z-0.200 F3000.000
G1 X-5.202 Y-18.500 Z-0.200 F3000.000
G1 X-4.141 Y-18.500 Z-0.200 F3000.000
G1 X82.549 Y68.190 Z-0.200 F3000.000
G1 X83.609 Y68.190 Z-0.200 F3000.000
G1 X-3.081 Y-18.500 Z-0.200 F3000.000
G1 X-2.020 Y-18.500 Z-0.200 F3000.000
G1 X84.670 Y68.190 Z-0.200 F3000.000
G1 X85.731 Y68.190 Z-0.200 F3000.000
G1 X-0.959 Y-18.500 Z-0.200 F3000.000
G1 X0.101 Y-18.500 Z-0.200 F3000.000
G1 X86.791 Y68.190 Z-0.200 F3000.000
G1 X87.852 Y68.190 Z-0.200 F3000.000
G1 X1.162 Y-18.500 Z-0.200 F3000.000
G1 X2.223 Y-18.500 Z-0.200 F3000.000
G1 X88.913 Y68.190 Z-0.200 F3000.000
G1 X89.973 Y68.190 Z-0.200 F3000.000
G1 X3.283 Y-18.500 Z-0.200 F3000.000
G1 X4.344 Y-18.500 Z-0.200 F3000.000
G1 X91.034 Y68.190 Z-0.200 F3000.000
G1 X92.095 Y68.190 Z-0.200 F3000.000
G1 X5.405 Y-18.500 Z-0.200 F3000.000
G1 X6.465 Y-18.500 Z-0.200 F3000.000
G1 X93.155 Y68.190 Z-0.200 F3000.000
G1 X94.216 Y68.190 Z-0.200 F3000.000
G1 X7.526 Y-18.500 Z-0.200 F3000.000
G1 X8.587 Y-18.500 Z-0.200 F3000.000
G1 X94.500 Y67.413 Z-0.200 F3000.000
G1 X94.500 Y66.353 Z-0.200 F3000.000
G1 X9.647 Y-18.500 Z-0.200 F3000.000
G1 X10.708 Y-18.500 Z-0.200 F3000.000
G1 X94.500 Y65.292 Z-0.200 F3000.000
G1 X94.500 Y64.231 Z-0.200 F3000.000
G1 X11.769 Y-18.500 Z-0.200 F3000.000
G1 X12.829 Y-18.500 Z-0.200 F3000.000
G1 X94.500 Y63.171 Z-0.200 F3000.000
G1 X94.500 Y62.110 Z-0.200 F3000.000
G1 X13.890 Y-18.500 Z-0.200 F3000.000
G1 X14.950 Y-18.500 Z-0.200 F3000.000
G1 X94.500 Y61.050 Z-0.200 F3000.000
G1 X94.500 Y59.989 Z-0.200 F3000.000
G1 X16.011 Y-18.500 Z-0.200 F3000.000
G1 X17.072 Y-18.500 Z-0.200 F3000.000
G1 X94.500 Y58.928 Z-0.200 F3000.000
G1 X94.500 Y57.868 Z-0.200 F3000.000
G1 X18.132 Y-18.500 Z-0.200 F3000.000
G1 X19.193 Y-18.500 Z-0.200 F3000.000
G1 X94.500 Y56.807 Z-0.200 F3000.000
G1 X94.500 Y55.746 Z-0.200 F3000.000
G1 X20.254 Y-18.500 Z-0.200 F3000.000
G1 X21.314 Y-18.500 Z-0.200 F3000.000
G1 X94.500 Y54.686 Z-0.200 F3000.000
G1 X94.500 Y53.625 Z-0.200 F3000.000
G1 X22.375 Y-18.500 Z-0.200 F3000.000
G1 X23.436 Y-18.500 Z-0.200 F3000.000
G1 X94.500 Y52.564 Z-0.200 F3000.000
G1 X94.500 Y51.504 Z-0.200 F3000.000
G1 X24.496 Y-18.500 Z-0.200 F3000.000
G1 X25.557 Y-18.500 Z-0.200 F3000.000
G1 X94.500 Y50.443 Z-0.200 F3000.000
G1 X94.500 Y49.382 Z-0.200 F3000.000
G1 X26.618 Y-18.500 Z-0.200 F3000.000
G1 X27.678 Y-18.500 Z-0.200 F3000.000
G1 X94.500 Y48.322 Z-0.200 F3000.000
G1 X94.500 Y47.261 Z-0.200 F3000.000
G1 X28.739 Y-18.500 Z-0.200 F3000.000
G1 X29.800 Y-18.500 Z-0.200 F3000.000
G1 X94.500 Y46.200 Z-0.200 F3000.000
G1 X94.500 Y45.140 Z-0.200 F3000.000
G1 X30.860 Y-18.500 Z-0.200 F3000.000
G1 X31.921 Y-18.500 Z-0.200 F3000.000
G1 X94.500 Y44.079 Z-0.200 F3000.000
G1 X94.500 Y43.018 Z-0.200 F3000.000
G1 X32.982 Y-18.500 Z-0.200 F3000.000
G1 X34.042 Y-18.500 Z-0.200 F3000.000
G1 X94.500 Y41.958 Z-0.200 F3000.000
G1 X94.500 Y40.897 Z-0.200 F3000.000
G1 X35.103 Y-18.500 Z-0.200 F3000.000
G1 X36.164 Y-18.500 Z-0.200 F3000.000
G1 X94.500 Y39.836 Z-0.200 F3000.000
G1 X94.500 Y38.776 Z-0.200 F3000.000
G1 X37.224 Y-18.500 Z-0.200 F3000.000
G1 X38.285 Y-18.500 Z-0.200 F3000.000
G1 X94.500 Y37.715 Z-0.200 F3000.000
G1 X94.500 Y36.654 Z-0.200 F3000.000
G1 X39.346 Y-18.500 Z-0.200 F3000.000
G1 X40.406 Y-18.500 Z-0.200 F3000.000
G1 X94.500 Y35.594 Z-0.200 F3000.000
G1 X94.500 Y34.533 Z-0.200 F3000.000
G1 X41.467 Y-18.500 Z-0.200 F3000.000
G1 X42.528 Y-18.500 Z-0.200 F3000.000
G1 X94.500 Y33.472 Z-0.200 F3000.000
G1 X94.500 Y32.412 Z-0.200 F3000.000
G1 X43.588 Y-18.500 Z-0.200 F3000.000
G1 X44.649 Y-18.500 Z-0.200 F3000.000
G1 X94.500 Y31.351 Z-0.200 F3000.000
G1 X94.500 Y30.290 Z-0.200 F3000.000
G1 X45.710 Y-18.500 Z-0.200 F3000.000
G1 X46.770 Y-18.500 Z-0.200 F3000.000
G1 X94.500 Y29.230 Z-0.200 F3000.000
G1 X94.500 Y28.169 Z-0.200 F3000.000
G1 X47.831 Y-18.500 Z-0.200 F3000.000
G1 X48.892 Y-18.500 Z-0.200 F3000.000
G1 X94.500 Y27.108 Z-0.200 F3000.000
G1 X94.500 Y26.048 Z-0.200 F3000.000
G1 X49.952 Y-18.500 Z-0.200 F3000.000
G1 X51.013 Y-18.500 Z-0.200 F3000.000
G1 X94.500 Y24.987 Z-0.200 F3000.000
G1 X94.500 Y23.926 Z-0.200 F3000.000
G1 X52.074 Y-18.500 Z-0.200 F3000.000
G1 X53.134 Y-18.500 Z-0.200 F3000.000
G1 X94.500 Y22.866 Z-0.200 F3000.000
G1 X94.500 Y21.805 Z-0.200 F3000.000
G1 X54.195 Y-18.500 Z-0.200 F3000.000
G1 X55.256 Y-18.500 Z-0.200 F3000.000
G1 X94.500 Y20.744 Z-0.200 F3000.000
G1 X94.500 Y19.684 Z-0.200 F3000.000
G1 X56.316 Y-18.500 Z-0.200 F3000.000
G1 X57.377 Y-18.500 Z-0.200 F3000.000
G1 X94.500 Y18.623 Z-0.200 F3000.000
G1 X94.500 Y17.562 Z-0.200 F3000.000
G1 X58.438 Y-18.500 Z-0.200 F3000.000
G1 X59.498 Y-18.500 Z-0.200 F3000.000
G1 X94.500 Y16.502 Z-0.200 F3000.000
G1 X94.500 Y15.441 Z-0.200 F3000.000
G1 X60.559 Y-18.500 Z-0.200 F3000.000
G1 X61.620 Y-18.500 Z-0.200 F3000.000
G1 X94.500 Y14.380 Z-0.200 F3000.000
G1 X94.500 Y13.320 Z-0.200 F3000.000
G1 X62.680 Y-18.500 Z-0.200 F3000.000
G1 X63.741 Y-18.500 Z-0.200 F3000.000
G1 X94.500 Y12.259 Z-0.200 F3000.000
G1 X94.500 Y11.198 Z-0.200 F3000.000
G1 X64.802 Y-18.500 Z-0.200 F3000.000
G1 X65.862 Y-18.500 Z-0.200 F3000.000
G1 X94.500 Y10.138 Z-0.200 F3000.000
G1 X94.500 Y9.077 Z-0.200 F3000.000
G1 X66.923 Y-18.500 Z-0.200 F3000.000
G1 X67.983 Y-18.500 Z-0.200 F3000.000
G1 X94.500 Y8.017 Z-0.200 F3000.000
G1 X94.500 Y6.956 Z-0.200 F3000.000
G1 X69.044 Y-18.500 Z-0.200 F3000.000
G1 X70.105 Y-18.500 Z-0.200 F3000.000
G1 X94.500 Y5.895 Z-0.200 F3000.000
G1 X94.500 Y4.835 Z-0.200 F3000.000
G1 X71.165 Y-18.500 Z-0.200 F3000.000
G1 X72.226 Y-18.500 Z-0.200 F3000.000
G1 X94.500 Y3.774 Z-0.200 F3000.000
G1 X94.500 Y2.713 Z-0.200 F3000.000
G1 X73.287 Y-18.500 Z-0.200 F3000.000
G1 X74.347 Y-18.500 Z-0.200 F3000.000
G1 X94.500 Y1.653 Z-0.200 F3000.000
G1 X94.500 Y0.592 Z-0.200 F3000.000
G1 X75.408 Y-18.500 Z-0.200 F3000.000
G1 X76.469 Y-18.500 Z-0.200 F3000.000
G1 X94.500 Y-0.469 Z-0.200 F3000.000
G1 X94.500 Y-1.529 Z-0.200 F3000.000
G1 X77.529 Y-18.500 Z-0.200 F3000.000
G1 X78.590 Y-18.500 Z-0.200 F3000.000
G1 X94.500 Y-2.590 Z-0.200 F3000.000
G1 X94.500 Y-3.651 Z-0.200 F3000.000
G1 X79.651 Y-18.500 Z-0.200 F3000.000
G1 X80.711 Y-18.500 Z-0.200 F3000.000
G1 X94.500 Y-4.711 Z-0.200 F3000.000
G1 X94.500 Y-5.772 Z-0.200 F3000.000
G1 X81.772 Y-18.500 Z-0.200 F3000.000
G1 X82.833 Y-18.500 Z-0.200 F3000.000
G1 X94.500 Y-6.833 Z-0.200 F3000.000
G1 X94.500 Y-7.893 Z-0.200 F3000.000
G1 X83.893 Y-18.500 Z-0.200 F3000.000
G1 X84.954 Y-18.500 Z-0.200 F3000.000
G1 X94.500 Y-8.954 Z-0.200 F3000.000
G1 X94.500 Y-10.015 Z-0.200 F3000.000
G1 X86.015 Y-18.500 Z-0.200 F3000.000
G1 X87.075 Y-18.500 Z-0.200 F3000.000
G1 X94.500 Y-11.075 Z-0.200 F3000.000
G1 X94.500 Y-12.136 Z-0.200 F3000.000
G1 X88.136 Y-18.500 Z-0.200 F3000.000
G1 X89.197 Y-18.500 Z-0.200 F3000.000
G1 X94.500 Y-13.197 Z-0.200 F3000.000
G1 X94.500 Y-14.257 Z-0.200 F3000.000
G1 X90.257 Y-18.500 Z-0.200 F3000.000
G1 X91.318 Y-18.500 Z-0.200 F3000.000
G1 X94.500 Y-15.318 Z-0.200 F3000.000
G1 X94.500 Y-16.379 Z-0.200 F3000.000
G1 X92.379 Y-18.500 Z-0.200 F3000.000
G1 X93.439 Y-18.500 Z-0.200 F3000.000
G1 X94.500 Y-17.439 Z-0.200 F3000.000
G1 X94.500 Y-18.500 Z-0.200 F3000.000
G1 X94.500 Y-18.500 Z-0.300 F3000.000
G1 X94.500 Y-17.439 Z-0.300 F3000.000
G1 X93.439 Y-18.500 Z-0.300 F3000.000
G1 X92.379 Y-18.500 Z-0.300 F3000.000
G1 X94.500 Y-16.379 Z-0.300 F3000.000
G1 X94.500 Y-15.318 Z-0.300 F3000.000
G1 X91.318 Y-18.500 Z-0.300 F3000.000
G1 X90.257 Y-18.500 Z-0.300 F3000.000
G1 X94.500 Y-14.257 Z-0.300 F3000.000
G1 X94.500 Y-13.197 Z-0.300 F3000.000
G1 X89.197 Y-18.500 Z-0.300 F3000.000
G1 X88.136 Y-18.500 Z-0.300 F3000.000
G1 X94.500 Y-12.136 Z-0.300 F3000.000
G1 X94.500 Y-11.075 Z-0.300 F3000.000
G1 X87.075 Y-18.500 Z-0.300 F3000.000
G1 X86.015 Y-18.500 Z-0.300 F3000.000
G1 X94.500 Y-10.015 Z-0.300 F3000.000
G1 X94.500 Y-8.954 Z-0.300 F3000.000
G1 X84.954 Y-18.500 Z-0.300 F3000.000
G1 X83.893 Y-18.500 Z-0.300 F3000.000
G1 X94.500 Y-7.893 Z-0.300 F3000.000
G1 X94.500 Y-6.833 Z-0.300 F3000.000
G1 X82.833 Y-18.500 Z-0.300 F3000.000
G1 X81.772 Y-18.500 Z-0.300 F3000.000
G1 X94.500 Y-5.772 Z-0.300 F3000.000
G1 X94.500 Y-4.711 Z-0.300 F3000.000
G1 X80.711 Y-18.500 Z-0.300 F3000.000
G1 X79.651 Y-18.500 Z-0.300 F3000.000
G1 X94.500 Y-3.651 Z-0.300 F3000.000
G1 X94.500 Y-2.590 Z-0.300 F3000.000
G1 X78.590 Y-18.500 Z-0.300 F3000.000
G1 X77.529 Y-18.500 Z-0.300 F3000.000
G1 X94.500 Y-1.529 Z-0.300 F3000.000
G1 X94.500 Y-0.469 Z-0.300 F3000.000
G1 X76.469 Y-18.500 Z-0.300 F3000.000
G1 X75.408 Y-18.500 Z-0.300 F3000.000
G1 X94.500 Y0.592 Z-0.300 F3000.000
G1 X94.500 Y1.653 Z-0.300 F3000.000
G1 X74.347 Y-18.500 Z-0.300 F3000.000
G1 X73.287 Y-18.500 Z-0.300 F3000.000
G1 X94.500 Y2.713 Z-0.300 F3000.000
G1 X94.500 Y3.774 Z-0.300 F3000.000
G1 X72.226 Y-18.500 Z-0.300 F3000.000
G1 X71.165 Y-18.500 Z-0.300 F3000.000
G1 X94.500 Y4.835 Z-0.300 F3000.000
G1 X94.500 Y5.895 Z-0.300 F3000.000
G1 X70.105 Y-18.500 Z-0.300 F3000.000
G1 X69.044 Y-18.500 Z-0.300 F3000.000
G1 X94.500 Y6.956 Z-0.300 F3000.000
G1 X94.500 Y8.017 Z-0.300 F3000.000
G1 X67.983 Y-18.500 Z-0.300 F3000.000
G1 X66.923 Y-18.500 Z-0.300 F3000.000
G1 X94.500 Y9.077 Z-0.300 F3000.000
G1 X94.500 Y10.138 Z-0.300 F3000.000
G1 X65.862 Y-18.500 Z-0.300 F3000.000
G1 X64.802 Y-18.500 Z-0.300 F3000.000
G1 X94.500 Y11.198 Z-0.300 F3000.000
G1 X94.500 Y12.259 Z-0.300 F3000.000
G1 X63.741 Y-18.500 Z-0.300 F3000.000
G1 X62.680 Y-18.500 Z-0.300 F3000.000
G1 X94.500 Y13.320 Z-0.300 F3000.000
G1 X94.500 Y14.380 Z-0.300 F3000.000
G1 X61.620 Y-18.500 Z-0.300 F3000.000
G1 X60.559 Y-18.500 Z-0.300 F3000.000
G1 X94.500 Y15.441 Z-0.300 F3000.000
G1 X94.500 Y16.502 Z-0.300 F3000.000
G1 X59.498 Y-18.500 Z-0.300 F3000.000
G1 X58.438 Y-18.500 Z-0.300 F3000.000
G1 X94.500 Y17.562 Z-0.300 F3000.000
G1 X94.500 Y18.623 Z-0.300 F3000.000
G1 X57.377 Y-18.500 Z-0.300 F3000.000
G1 X56.316 Y-18.500 Z-0.300 F3000.000
G1 X94.500 Y19.684 Z-0.300 F3000.000
G1 X94.500 Y20.744 Z-0.300 F3000.000
G1 X55.256 Y-18.500 Z-0.300 F3000.000
G1 X54.195 Y-18.500 Z-0.300 F3000.000
G1 X94.500 Y21.805 Z-0.300 F3000.000
G1 X94.500 Y22.866 Z-0.300 F3000.000
G1 X53.134 Y-18.500 Z-0.300 F3000.000
G1 X52.074 Y-18.500 Z-0.300 F3000.000
G1 X94.500 Y23.926 Z-0.300 F3000.000
G1 X94.500 Y24.987 Z-0.300 F3000.000
G1 X51.013 Y-18.500 Z-0.300 F3000.000
G1 X49.952 Y-18.500 Z-0.300 F3000.000
G1 X94.500 Y26.048 Z-0.300 F3000.000
G1 X94.500 Y27.108 Z-0.300 F3000.000
G1 X48.892 Y-18.500 Z-0.300 F3000.000
G1 X47.831 Y-18.500 Z-0.300 F3000.000
G1 X94.500 Y28.169 Z-0.300 F3000.000
G1 X94.500 Y29.230 Z-0.300 F3000.000
G1 X46.770 Y-18.500 Z-0.300 F3000.000
G1 X45.710 Y-18.500 Z-0.300 F3000.000
G1 X94.500 Y30.290 Z-0.300 F3000.000
G1 X94.500 Y31.351 Z-0.300 F3000.000
G1 X44.649 Y-18.500 Z-0.300 F3000.000
G1 X43.588 Y-18.500 Z-0.300 F3000.000
G1 X94.500 Y32.412 Z-0.300 F3000.000
G1 X94.500 Y33.472 Z-0.300 F3000.000
G1 X42.528 Y-18.500 Z-0.300 F3000.000
G1 X41.467 Y-18.500 Z-0.300 F3000.000
G1 X94.500 Y34.533 Z-0.300 F3000.000
G1 X94.500 Y35.594 Z-0.300 F3000.000
G1 X40.406 Y-18.500 Z-0.300 F3000.000
G1 X39.346 Y-18.500 Z-0.300 F3000.000
G1 X94.500 Y36.654 Z-0.300 F3000.000
G1 X94.500 Y37.715 Z-0.300 F3000.000
G1 X38.285 Y-18.500 Z-0.300 F3000.000
G1 X37.224 Y-18.500 Z-0.300 F3000.000
G1 X94.500 Y38.776 Z-0.300 F3000.000
G1 X94.500 Y39.836 Z-0.300 F3000.000
G1 X36.164 Y-18.500 Z-0.300 F3000.000
G1 X35.103 Y-18.500 Z-0.300 F3000.000
G1 X94.500 Y40.897 Z-0.300 F3000.000
G1 X94.500 Y41.958 Z-0.300 F3000.000
G1 X34.042 Y-18.500 Z-0.300 F3000.000
G1 X32.982 Y-18.500 Z-0.300 F3000.000
G1 X94.500 Y43.018 Z-0.300 F3000.000
G1 X94.500 Y44.079 Z-0.300 F3000.000
G1 X31.921 Y-18.500 Z-0.300 F3000.000
G1 X30.860 Y-18.500 Z-0.300 F3000.000
G1 X94.500 Y45.140 Z-0.300 F3000.000
G1 X94.500 Y46.200 Z-0.300 F3000.000
G1 X29.800 Y-18.500 Z-0.300 F3000.000
G1 X28.739 Y-18.500 Z-0.300 F3000.000
G1 X94.500 Y47.261 Z-0.300 F3000.000
G1 X94.500 Y48.322 Z-0.300 F3000.000
G1 X27.678 Y-18.500 Z-0.300 F3000.000
G1 X26.618 Y-18.500 Z-0.300 F3000.000
G1 X94.500 Y49.382 Z-0.300 F3000.000
G1 X94.500 Y50.443 Z-0.300 F3000.000
G1 X25.557 Y-18.500 Z-0.300 F3000.000
G1 X24.496 Y-18.500 Z-0.300 F3000.000
G1 X94.500 Y51.504 Z-0.300 F3000.000
G1 X94.500 Y52.564 Z-0.300 F3000.000
G1 X23.436 Y-18.500 Z-0.300 F3000.000
G1 X22.375 Y-18.500 Z-0.300 F3000.000
G1 X94.500 Y53.625 Z-0.300 F3000.000
G1 X94.500 Y54.686 Z-0.300 F3000.000
G1 X21.314 Y-18.500 Z-0.300 F3000.000
G1 X20.254 Y-18.500 Z-0.300 F3000.000
G1 X94.500 Y55.746 Z-0.300 F3000.000
G1 X94.500 Y56.807 Z-0.300 F3000.000
G1 X19.193 Y-18.500 Z-0.300 F3000.000
G1 X18.132 Y-18.500 Z-0.300 F3000.000
G1 X94.500 Y57.868 Z-0.300 F3000.000
G1 X94.500 Y58.928 Z-0.300 F3000.000
G1 X17.072 Y-18.500 Z-0.300 F3000.000
G1 X16.011 Y-18.500 Z-0.300 F3000.000
G1 X94.500 Y59.989 Z-0.300 F3000.000
G1 X94.500 Y61.050 Z-0.300 F3000.000
G1 X14.950 Y-18.500 Z-0.300 F3000.000
G1 X13.890 Y-18.500 Z-0.300 F3000.000
G1 X94.500 Y62.110 Z-0.300 F3000.000
G1 X94.500 Y63.171 Z-0.300 F3000.000
G1 X12.829 Y-18.500 Z-0.300 F3000.000
G1 X11.769 Y-18.500 Z-0.300 F3000.000
G1 X94.500 Y64.231 Z-0.300 F3000.000
G1 X94.500 Y65.292 Z-0.300 F3000.000
G1 X10.708 Y-18.500 Z-0.300 F3000.000
G1 X9.647 Y-18.500 Z-0.300 F3000.000
G1 X94.500 Y66.353 Z-0.300 F3000.000
G1 X94.500 Y67.413 Z-0.300 F3000.000
G1 X8.587 Y-18.500 Z-0.300 F3000.000
G1 X7.526 Y-18.500 Z-0.300 F3000.000
G1 X94.216 Y68.190 Z-0.300 F3000.000
G1 X93.155 Y68.190 Z-0.300 F3000.000
G1 X6.465 Y-18.500 Z-0.300 F3000.000
G1 X5.405 Y-18.500 Z-0.300 F3000.000
G1 X92.095 Y68.190 Z-0.300 F3000.000
G1 X91.034 Y68.190 Z-0.300 F3000.000
G1 X4.344 Y-18.500 Z-0.300 F3000.000
G1 X3.283 Y-18.500 Z-0.300 F3000.000
G1 X89.973 Y68.190 Z-0.300 F3000.000
G1 X88.913 Y68.190 Z-0.300 F3000.000
G1 X2.223 Y-18.500 Z-0.300 F3000.000
G1 X1.162 Y-18.500 Z-0.300 F3000.000
G1 X87.852 Y68.190 Z-0.300 F3000.000
G1 X86.791 Y68.190 Z-0.300 F3000.000
G1 X0.101 Y-18.500 Z-0.300 F3000.000
G1 X-0.959 Y-18.500 Z-0.300 F3000.000
G1 X85.731 Y68.190 Z-0.300 F3000.000
G1 X84.670 Y68.190 Z-0.300 F3000.000
G1 X-2.020 Y-18.500 Z-0.300 F3000.000
G1 X-3.081 Y-18.500 Z-0.300 F3000.000
G1 X83.609 Y68.190 Z-0.300 F3000.000
G1 X82.549 Y68.190 Z-0.300 F3000.000
G1 X-4.141 Y-18.500 Z-0.300 F3000.000
G1 X-5.202 Y-18.500 Z-0.300 F3000.000
G1 X81.488 Y68.190 Z-0.300 F3000.000
G1 X80.427 Y68.190 Z-0.300 F3000.000
G1 X-6.263 Y-18.500 Z-0.300 F3000.000
G1 X-7.323 Y-18.500 Z-0.300 F3000.000
G1 X79.367 Y68.190 Z-0.300 F3000.000
G1 X78.306 Y68.190 Z-0.300 F3000.000
G1 X-8.384 Y-18.500 Z-0.300 F3000.000
G1 X-9.445 Y-18.500 Z-0.300 F3000.000
G1 X77.245 Y68.190 Z-0.300 F3000.000
G1 X76.185 Y68.190 Z-0.300 F3000.000
G1 X-10.505 Y-18.500 Z-0.300 F3000.000
G1 X-11.566 Y-18.500 Z-0.300 F3000.000
G1 X75.124 Y68.190 Z-0.300 F3000.000
G1 X74.063 Y68.190 Z-0.300 F3000.000
G1 X-12.627 Y-18.500 Z-0.300 F3000.000
G1 X-13.687 Y-18.500 Z-0.300 F3000.000
G1 X73.003 Y68.190 Z-0.300 F3000.000
G1 X71.942 Y68.190 Z-0.300 F3000.000
G1 X-14.748 Y-18.500 Z-0.300 F3000.000
G1 X-15.809 Y-18.500 Z-0.300 F3000.000
G1 X70.881 Y68.190 Z-0.300 F3000.000
G1 X69.821 Y68.190 Z-0.300 F3000.000
G1 X-16.869 Y-18.500 Z-0.300 F3000.000
G1 X-17.930 Y-18.500 Z-0.300 F3000.000
G1 X68.760 Y68.190 Z-0.300 F3000.000
G1 X67.699 Y68.190 Z-0.300 F3000.000
G1 X-18.500 Y-18.009 Z-0.300 F3000.000
G1 X-18.500 Y-16.949 Z-0.300 F3000.000
G1 X66.639 Y68.190 Z-0.300 F3000.000
G1 X65.578 Y68.190 Z-0.300 F3000.000
G1 X-18.500 Y-15.888 Z-0.300 F3000.000
G1 X-18.500 Y-14.827 Z-0.300 F3000.000
G1 X64.517 Y68.190 Z-0.300 F3000.000
G1 X63.457 Y68.190 Z-0.300 F3000.000
G1 X-18.500 Y-13.767 Z-0.300 F3000.000
G1 X-18.500 Y-12.706 Z-0.300 F3000.000
G1 X62.396 Y68.190 Z-0.300 F3000.000
G1 X61.335 Y68.190 Z-0.300 F3000.000
G1 X-18.500 Y-11.645 Z-0.300 F3000.000
G1 X-18.500 Y-10.585 Z-0.300 F3000.000
G1 X60.275 Y68.190 Z-0.300 F3000.000
G1 X59.214 Y68.190 Z-0.300 F3000.000
G1 X-18.500 Y-9.524 Z-0.300 F3000.000
G1 X-18.500 Y-8.463 Z-0.300 F3000.000
G1 X58.153 Y68.190 Z-0.300 F3000.000
G1 X57.093 Y68.190 Z-0.300 F3000.000
G1 X-18.500 Y-7.403 Z-0.300 F3000.000
G1 X-18.500 Y-6.342 Z-0.300 F3000.000
G1 X56.032 Y68.190 Z-0.300 F3000.000
G1 X54.971 Y68.190 Z-0.300 F3000.000
G1 X-18.500 Y-5.281 Z-0.300 F3000.000
G1 X-18.500 Y-4.221 Z-0.300 F3000.000
G1 X53.911 Y68.190 Z-0.300 F3000.000
G1 X52.850 Y68.190 Z-0.300 F3000.000
G1 X-18.500 Y-3.160 Z-0.300 F3000.000
G1 X-18.500 Y-2.099 Z-0.300 F3000.000
G1 X51.789 Y68.190 Z-0.300 F3000.000
G1 X50.729 Y68.190 Z-0.300 F3000.000
G1 X-18.500 Y-1.039 Z-0.300 F3000.000
G1 X-18.500 Y0.022 Z-0.300 F3000.000
G1 X49.668 Y68.190 Z-0.300 F3000.000
G1 X48.607 Y68.190 Z-0.300 F3000.000
G1 X-18.500 Y1.083 Z-0.300 F3000.000
G1 X-18.500 Y2.143 Z-0.300 F3000.000
G1 X47.547 Y68.190 Z-0.300 F3000.000
G1 X46.486 Y68.190 Z-0.300 F3000.000
G1 X-18.500 Y3.204 Z-0.300 F3000.000
G1 X-18.500 Y4.265 Z-0.300 F3000.000
G1 X45.425 Y68.190 Z-0.300 F3000.000
G1 X44.365 Y68.190 Z-0.300 F3000.000
G1 X-18.500 Y5.325 Z-0.300 F3000.000
G1 X-18.500 Y6.386 Z-0.300 F3000.000
G1 X43.304 Y68.190 Z-0.300 F3000.000
G1 X42.244 Y68.190 Z-0.300 F3000.000
G1 X-18.500 Y7.446 Z-0.300 F3000.000
G1 X-18.500 Y8.507 Z-0.300 F3000.000
G1 X41.183 Y68.190 Z-0.300 F3000.000
G1 X40.122 Y68.190 Z-0.300 F3000.000
G1 X-18.500 Y9.568 Z-0.300 F3000.000
G1 X-18.500 Y10.628 Z-0.300 F3000.000
G1 X39.062 Y68.190 Z-0.300 F3000.000
G1 X38.001 Y68.190 Z-0.300 F3000.000
G1 X-18.500 Y11.689 Z-0.300 F3000.000
G1 X-18.500 Y12.750 Z-0.300 F3000.000
G1 X36.940 Y68.190 Z-0.300 F3000.000
G1 X35.880 Y68.190 Z-0.300 F3000.000
G1 X-18.500 Y13.810 Z-0.300 F3000.000
G1 X-18.500 Y14.871 Z-0.300 F3000.000
G1 X34.819 Y68.190 Z-0.300 F3000.000
G1 X33.758 Y68.190 Z-0.300 F3000.000
G1 X-18.500 Y15.932 Z-0.300 F3000.000
G1 X-18.500 Y16.992 Z-0.300 F3000.000
G1 X32.698 Y68.190 Z-0.300 F3000.000
G1 X31.637 Y68.190 Z-0.300 F3000.000
G1 X-18.500 Y18.053 Z-0.300 F3000.000
G1 X-18.500 Y19.114 Z-0.300 F3000.000
G1 X30.576 Y68.190 Z-0.300 F3000.000
G1 X29.516 Y68.190 Z-0.300 F3000.000
G1 X-18.500 Y20.174 Z-0.300 F3000.000
G1 X-18.500 Y21.235 Z-0.300 F3000.000
G1 X28.455 Y68.190 Z-0.300 F3000.000
G1 X27.394 Y68.190 Z-0.300 F3000.000
G1 X-18.500 Y22.296 Z-0.300 F3000.000
G1 X-18.500 Y23.356 Z-0.300 F3000.000
G1 X26.334 Y68.190 Z-0.300 F3000.000
G1 X25.273 Y68.190 Z-0.300 F3000.000
G1 X-18.500 Y24.417 Z-0.300 F3000.000
G1 X-18.500 Y25.478 Z-0.300 F3000.000
G1 X24.212 Y68.190 Z-0.300 F3000.000
G1 X23.152 Y68.190 Z-0.300 F3000.000
G1 X-18.500 Y26.538 Z-0.300 F3000.000
G1 X-18.500 Y27.599 Z-0.300 F3000.000
G1 X22.091 Y68.190 Z-0.300 F3000.000
G1 X21.030 Y68.190 Z-0.300 F3000.000
G1 X-18.500 Y28.660 Z-0.300 F3000.000
G1 X-18.500 Y29.720 Z-0.300 F3000.000
G1 X19.970 Y68.190 Z-0.300 F3000.000
G1 X18.909 Y68.190 Z-0.300 F3000.000
G1 X-18.500 Y30.781 Z-0.300 F3000.000
G1 X-18.500 Y31.842 Z-0.300 F3000.000
G1 X17.848 Y68.190 Z-0.300 F3000.000
G1 X16.788 Y68.190 Z-0.300 F3000.000
G1 X-18.500 Y32.902 Z-0.300 F3000.000
G1 X-18.500 Y33.963 Z-0.300 F3000.000
G1 X15.727 Y68.190 Z-0.300 F3000.000
G1 X14.666 Y68.190 Z-0.300 F3000.000
G1 X-18.500 Y35.024 Z-0.300 F3000.000
G1 X-18.500 Y36.084 Z-0.300 F3000.000
G1 X13.606 Y68.190 Z-0.300 F3000.000
G1 X12.545 Y68.190 Z-0.300 F3000.000
G1 X-18.500 Y37.145 Z-0.300 F3000.000
G1 X-18.500 Y38.206 Z-0.300 F3000.000
G1 X11.484 Y68.190 Z-0.300 F3000.000
G1 X10.424 Y68.190 Z-0.300 F3000.000
G1 X-18.500 Y39.266 Z-0.300 F3000.000
G1 X-18.500 Y40.327 Z-0.300 F3000.000
G1 X9.363 Y68.190 Z-0.300 F3000.000
G1 X8.302 Y68.190 Z-0.300 F3000.000
G1 X-18.500 Y41.388 Z-0.300 F3000.000
G1 X-18.500 Y42.448 Z-0.300 F3000.000
G1 X7.242 Y68.190 Z-0.300 F3000.000
G1 X6.181 Y68.190 Z-0.300 F3000.000
G1 X-18.500 Y43.509 Z-0.300 F3000.000
G1 X-18.500 Y44.570 Z-0.300 F3000.000
G1 X5.120 Y68.190 Z-0.300 F3000.000
G1 X4.060 Y68.190 Z-0.300 F3000.000
G1 X-18.500 Y45.630 Z-0.300 F3000.000
G1 X-18.500 Y46.691 Z-0.300 F3000.000
G1 X2.999 Y68.190 Z-0.300 F3000.000
G1 X1.938 Y68.190 Z-0.300 F3000.000
G1 X-18.500 Y47.752 Z-0.300 F3000.000
G1 X-18.500 Y48.812 Z-0.300 F3000.000
G1 X0.878 Y68.190 Z-0.300 F3000.000
G1 X-0.183 Y68.190 Z-0.300 F3000.000
G1 X-18.500 Y49.873 Z-0.300 F3000.000
G1 X-18.500 Y50.934 Z-0.300 F3000.000
G1 X-1.244 Y68.190 Z-0.300 F3000.000
G1 X-2.304 Y68.190 Z-0.300 F3000.000
G1 X-18.500 Y51.994 Z-0.300 F3000.000
G1 X-18.500 Y53.055 Z-0.300 F3000.000
G1 X-3.365 Y68.190 Z-0.300 F3000.000
G1 X-4.426 Y68.190 Z-0.300 F3000.000
G1 X-18.500 Y54.116 Z-0.300 F3000.000
G1 X-18.500 Y55.176 Z-0.300 F3000.000
G1 X-5.486 Y68.190 Z-0.300 F3000.000
G1 X-6.547 Y68.190 Z-0.300 F3000.000
G1 X-18.500 Y56.237 Z-0.300 F3000.000
G1 X-18.500 Y57.298 Z-0.300 F3000.000
G1 X-7.608 Y68.190 Z-0.300 F3000.000
G1 X-8.668 Y68.190 Z-0.300 F3000.000
G1 X-18.500 Y58.358 Z-0.300 F3000.000
G1 X-18.500 Y59.419 Z-0.300 F3000.000
G1 X-9.729 Y68.190 Z-0.300 F3000.000
G1 X-10.789 Y68.190 Z-0.300 F3000.000
G1 X-18.500 Y60.479 Z-0.300 F3000.000
G1 X-18.500 Y61.540 Z-0.300 F3000.000
G1 X-11.850 Y68.190 Z-0.300 F3000.000
G1 X-12.911 Y68.190 Z-0.300 F3000.000
G1 X-18.500 Y62.601 Z-0.300 F3000.000
G1 X-18.500 Y63.661 Z-0.300 F3000.000
G1 X-13.971 Y68.190 Z-0.300 F3000.000
G1 X-15.032 Y68.190 Z-0.300 F3000.000
G1 X-18.500 Y64.722 Z-0.300 F3000.000
G1 X-18.500 Y65.783 Z-0.300 F3000.000
G1 X-16.093 Y68.190 Z-0.300 F3000.000
G1 X-17.153 Y68.190 Z-0.300 F3000.000
G1 X-18.500 Y66.843 Z-0.300 F3000.000
G1 X-18.500 Y67.904 Z-0.300 F3000.000
G1 X-18.214 Y68.190 Z-0.300 F3000.000
G1 X-18.500 Y68.190 Z-0.300 F3000.000
G1 X-18.500 Y67.904 Z-0.300 F3000.000
G1 X-18.500 Y67.904 Z-0.400 F3000.000
G1 X-18.500 Y68.190 Z-0.400 F3000.000
G1 X-18.214 Y68.190 Z-0.400 F3000.000
G1 X-18.500 Y67.904 Z-0.400 F3000.000
G1 X-18.500 Y66.843 Z-0.400 F3000.000
G1 X-17.153 Y68.190 Z-0.400 F3000.000
G1 X-16.093 Y68.190 Z-0.400 F3000.000
G1 X-18.500 Y65.783 Z-0.400 F3000.000
G1 X-18.500 Y64.722 Z-0.400 F3000.000
G1 X-15.032 Y68.190 Z-0.400 F3000.000
G1 X-13.971 Y68.190 Z-0.400 F3000.000
G1 X-18.500 Y63.661 Z-0.400 F3000.000
G1 X-18.500 Y62.601 Z-0.400 F3000.000
G1 X-12.911 Y68.190 Z-0.400 F3000.000
G1 X-11.850 Y68.190 Z-0.400 F3000.000
G1 X-18.500 Y61.540 Z-0.400 F3000.000
G1 X-18.500 Y60.479 Z-0.400 F3000.000
G1 X-10.789 Y68.190 Z-0.400 F3000.000
G1 X-9.729 Y68.190 Z-0.400 F3000.000
G1 X-18.500 Y59.419 Z-0.400 F3000.000
G1 X-18.500 Y58.358 Z-0.400 F3000.000
G1 X-8.668 Y68.190 Z-0.400 F3000.000
G1 X-7.608 Y68.190 Z-0.400 F3000.000
G1 X-18.500 Y57.298 Z-0.400 F3000.000
G1 X-18.500 Y56.237 Z-0.400 F3000.000
G1 X-6.547 Y68.190 Z-0.400 F3000.000
G1 X-5.486 Y68.190 Z-0.400 F3000.000
G1 X-18.500 Y55.176 Z-0.400 F3000.000
G1 X-18.500 Y54.116 Z-0.400 F3000.000
G1 X-4.426 Y68.190 Z-0.400 F3000.000
G1 X-3.365 Y68.190 Z-0.400 F3000.000
G1 X-18.500 Y53.055 Z-0.400 F3000.000
G1 X-18.500 Y51.994 Z-0.400 F3000.000
G1 X-2.304 Y68.190 Z-0.400 F3000.000
G1 X-1.244 Y68.190 Z-0.400 F3000.000
G1 X-18.500 Y50.934 Z-0.400 F3000.000
G1 X-18.500 Y49.873 Z-0.400 F3000.000
G1 X-0.183 Y68.190 Z-0.400 F3000.000
G1 X0.878 Y68.190 Z-0.400 F3000.000
G1 X-18.500 Y48.812 Z-0.400 F3000.000
G1 X-18.500 Y47.752 Z-0.400 F3000.000
G1 X1.938 Y68.190 Z-0.400 F3000.000
G1 X2.999 Y68.190 Z-0.400 F3000.000
G1 X-18.500 Y46.691 Z-0.400 F3000.000
G1 X-18.500 Y45.630 Z-0.400 F3000.000
G1 X4.060 Y68.190 Z-0.400 F3000.000
G1 X5.120 Y68.190 Z-0.400 F3000.000
G1 X-18.500 Y44.570 Z-0.400 F3000.000
G1 X-18.500 Y43.509 Z-0.400 F3000.000
G1 X6.181 Y68.190 Z-0.400 F3000.000
G1 X7.242 Y68.190 Z-0.400 F3000.000
G1 X-18.500 Y42.448 Z-0.400 F3000.000
G1 X-18.500 Y41.388 Z-0.400 F3000.000
G1 X8.302 Y68.190 Z-0.400 F3000.000
G1 X9.363 Y68.190 Z-0.400 F3000.000
G1 X-18.500 Y40.327 Z-0.400 F3000.000
G1 X-18.500 Y39.266 Z-0.400 F3000.000
G1 X10.424 Y68.190 Z-0.400 F3000.000
G1 X11.484 Y68.190 Z-0.400 F3000.000
G1 X-18.500 Y38.206 Z-0.400 F3000.000
G1 X-18.500 Y37.145 Z-0.400 F3000.000
G1 X12.545 Y68.190 Z-0.400 F3000.000
G1 X13.606 Y68.190 Z-0.400 F3000.000
G1 X-18.500 Y36.084 Z-0.400 F3000.000
G1 X-18.500 Y35.024 Z-0.400 F3000.000
G1 X14.666 Y68.190 Z-0.400 F3000.000
G1 X15.727 Y68.190 Z-0.400 F3000.000
G1 X-18.500 Y33.963 Z-0.400 F3000.000
G1 X-18.500 Y32.902 Z-0.400 F3000.000
G1 X16.788 Y68.190 Z-0.400 F3000.000
G1 X17.848 Y68.190 Z-0.400 F3000.000
G1 X-18.500 Y31.842 Z-0.400 F3000.000
G1 X-18.500 Y30.781 Z-0.400 F3000.000
G1 X18.909 Y68.190 Z-0.400 F3000.000
G1 X19.970 Y68.190 Z-0.400 F3000.000
G1 X-18.500 Y29.720 Z-0.400 F3000.000
G1 X-18.500 Y28.660 Z-0.400 F3000.000
G1 X21.030 Y68.190 Z-0.400 F3000.000
G1 X22.091 Y68.190 Z-0.400 F3000.000
G1 X-18.500 Y27.599 Z-0.400 F3000.000
G1 X-18.500 Y26.538 Z-0.400 F3000.000
G1 X23.152 Y68.190 Z-0.400 F3000.000
G1 X24.212 Y68.190 Z-0.400 F3000.000
G1 X-18.500 Y25.478 Z-0.400 F3000.000
G1 X-18.500 Y24.417 Z-0.400 F3000.000
G1 X25.273 Y68.190 Z-0.400 F3000.000
G1 X26.334 Y68.190 Z-0.400 F3000.000
G1 X-18.500 Y23.356 Z-0.400 F3000.000
G1 X-18.500 Y22.296 Z-0.400 F3000.000
G1 X27.394 Y68.190 Z-0.400 F3000.000
G1 X28.455 Y68.190 Z-0.400 F3000.000
G1 X-18.500 Y21.235 Z-0.400 F3000.000
G1 X-18.500 Y20.174 Z-0.400 F3000.000
G1 X29.516 Y68.190 Z-0.400 F3000.000
G1 X30.576 Y68.190 Z-0.400 F3000.000
G1 X-18.500 Y19.114 Z-0.400 F3000.000
G1 X-18.500 Y18.053 Z-0.400 F3000.000
G1 X31.637 Y68.190 Z-0.400 F3000.000
G1 X32.698 Y68.190 Z-0.400 F3000.000
G1 X-18.500 Y16.992 Z-0.400 F3000.000
G1 X-18.500 Y15.932 Z-0.400 F3000.000
G1 X33.758 Y68.190 Z-0.400 F3000.000
G1 X34.819 Y68.190 Z-0.400 F3000.000
G1 X-18.500 Y14.871 Z-0.400 F3000.000
G1 X-18.500 Y13.810 Z-0.400 F3000.000
G1 X35.880 Y68.190 Z-0.400 F3000.000
G1 X36.940 Y68.190 Z-0.400 F3000.000
G1 X-18.500 Y12.750 Z-0.400 F3000.000
G1 X-18.500 Y11.689 Z-0.400 F3000.000
G1 X38.001 Y68.190 Z-0.400 F3000.000
G1 X39.062 Y68.190 Z-0.400 F3000.000
G1 X-18.500 Y10.628 Z-0.400 F3000.000
G1 X-18.500 Y9.568 Z-0.400 F3000.000
G1 X40.122 Y68.190 Z-0.400 F3000.000
G1 X41.183 Y68.190 Z-0.400 F3000.000
G1 X-18.500 Y8.507 Z-0.400 F3000.000
G1 X-18.500 Y7.446 Z-0.400 F3000.000
G1 X42.244 Y68.190 Z-0.400 F3000.000
G1 X43.304 Y68.190 Z-0.400 F3000.000
G1 X-18.500 Y6.386 Z-0.400 F3000.000
G1 X-18.500 Y5.325 Z-0.400 F3000.000
G1 X44.365 Y68.190 Z-0.400 F3000.000
G1 X45.425 Y68.190 Z-0.400 F3000.000
G1 X-18.500 Y4.265 Z-0.400 F3000.000
G1 X-18.500 Y3.204 Z-0.400 F3000.000
G1 X46.486 Y68.190 Z-0.400 F3000.000
G1 X47.547 Y68.190 Z-0.400 F3000.000
G1 X-18.500 Y2.143 Z-0.400 F3000.000
G1 X-18.500 Y1.083 Z-0.400 F3000.000
G1 X48.607 Y68.190 Z-0.400 F3000.000
G1 X49.668 Y68.190 Z-0.400 F3000.000
G1 X-18.500 Y0.022 Z-0.400 F3000.000
G1 X-18.500 Y-1.039 Z-0.400 F3000.000
G1 X50.729 Y68.190 Z-0.400 F3000.000
G1 X51.789 Y68.190 Z-0.400 F3000.000
G1 X-18.500 Y-2.099 Z-0.400 F3000.000
G1 X-18.500 Y-3.160 Z-0.400 F3000.000
G1 X52.850 Y68.190 Z-0.400 F3000.000
G1 X53.911 Y68.190 Z-0.400 F3000.000
G1 X-18.500 Y-4.221 Z-0.400 F3000.000
G1 X-18.500 Y-5.281 Z-0.400 F3000.000
G1 X54.971 Y68.190 Z-0.400 F3000.000
G1 X56.032 Y68.190 Z-0.400 F3000.000
G1 X-18.500 Y-6.342 Z-0.400 F3000.000
G1 X-18.500 Y-7.403 Z-0.400 F3000.000
G1 X57.093 Y68.190 Z-0.400 F3000.000
G1 X58.153 Y68.190 Z-0.400 F3000.000
G1 X-18.500 Y-8.463 Z-0.400 F3000.000
G1 X-18.500 Y-9.524 Z-0.400 F3000.000
G1 X59.214 Y68.190 Z-0.400 F3000.000
G1 X60.275 Y68.190 Z-0.400 F3000.000
G1 X-18.500 Y-10.585 Z-0.400 F3000.000
G1 X-18.500 Y-11.645 Z-0.400 F3000.000
G1 X61.335 Y68.190 Z-0.400 F3000.000
G1 X62.396 Y68.190 Z-0.400 F3000.000
G1 X-18.500 Y-12.706 Z-0.400 F3000.000
G1 X-18.500 Y-13.767 Z-0.400 F3000.000
G1 X63.457 Y68.190 Z-0.400 F3000.000
G1 X64.517 Y68.190 Z-0.400 F3000.000
G1 X-18.500 Y-14.827 Z-0.400 F3000.000
G1 X-18.500 Y-15.888 Z-0.400 F3000.000
G1 X65.578 Y68.190 Z-0.400 F3000.000
G1 X66.639 Y68.190 Z-0.400 F3000.000
G1 X-18.500 Y-16.949 Z-0.400 F3000.000
G1 X-18.500 Y-18.009 Z-0.400 F3000.000
G1 X67.699 Y68.190 Z-0.400 F3000.000
G1 X68.760 Y68.190 Z-0.400 F3000.000
G1 X-17.930 Y-18.500 Z-0.400 F3000.000
G1 X-16.869 Y-18.500 Z-0.400 F3000.000
G1 X69.821 Y68.190 Z-0.400 F3000.000
G1 X70.881 Y68.190 Z-0.400 F3000.000
G1 X-15.809 Y-18.500 Z-0.400 F3000.000
G1 X-14.748 Y-18.500 Z-0.400 F3000.000
G1 X71.942 Y68.190 Z-0.400 F3000.000
G1 X73.003 Y68.190 Z-0.400 F3000.000
G1 X-13.687 Y-18.500 Z-0.400 F3000.000
G1 X-12.627 Y-18.500 Z-0.400 F3000.000
G1 X74.063 Y68.190 Z-0.400 F3000.000
G1 X75.124 Y68.190 Z-0.400 F3000.000
G1 X-11.566 Y-18.500 Z-0.400 F3000.000
G1 X-10.505 Y-18.500 Z-0.400 F3000.000
G1 X76.185 Y68.190 Z-0.400 F3000.000
G1 X77.245 Y68.190 Z-0.400 F3000.000
G1 X-9.445 Y-18.500 Z-0.400 F3000.000
G1 X-8.384 Y-18.500 Z-0.400 F3000.000
G1 X78.306 Y68.190 Z-0.400 F3000.000
G1 X79.367 Y68.190 Z-0.400 F3000.000
G1 X-7.323 Y-18.500 Z-0.400 F3000.000
G1 X-6.263 Y-18.500 Z-0.400 F3000.000
G1 X80.427 Y68.190 Z-0.400 F3000.000
G1 X81.488 Y68.190 Z-0.400 F3000.000
G1 X-5.202 Y-18.500 Z-0.400 F3000.000
G1 X-4.141 Y-18.500 Z-0.400 F3000.000
G1 X82.549 Y68.190 Z-0.400 F3000.000
G1 X83.609 Y68.190 Z-0.400 F3000.000
G1 X-3.081 Y-18.500 Z-0.400 F3000.000
G1 X-2.020 Y-18.500 Z-0.400 F3000.000
G1 X84.670 Y68.190 Z-0.400 F3000.000
G1 X85.731 Y68.190 Z-0.400 F3000.000
G1 X-0.959 Y-18.500 Z-0.400 F3000.000
G1 X0.101 Y-18.500 Z-0.400 F3000.000
G1 X86.791 Y68.190 Z-0.400 F3000.000
G1 X87.852 Y68.190 Z-0.400 F3000.000
G1 X1.162 Y-18.500 Z-0.400 F3000.000
G1 X2.223 Y-18.500 Z-0.400 F3000.000
G1 X88.913 Y68.190 Z-0.400 F3000.000
G1 X89.973 Y68.190 Z-0.400 F3000.000
G1 X3.283 Y-18.500 Z-0.400 F3000.000
G1 X4.344 Y-18.500 Z-0.400 F3000.000
G1 X91.034 Y68.190 Z-0.400 F3000.000
G1 X92.095 Y68.190 Z-0.400 F3000.000
G1 X5.405 Y-18.500 Z-0.400 F3000.000
G1 X6.465 Y-18.500 Z-0.400 F3000.000
G1 X93.155 Y68.190 Z-0.400 F3000.000
G1 X94.216 Y68.190 Z-0.400 F3000.000
G1 X7.526 Y-18.500 Z-0.400 F3000.000
G1 X8.587 Y-18.500 Z-0.400 F3000.000
G1 X94.500 Y67.413 Z-0.400 F3000.000
G1 X94.500 Y66.353 Z-0.400 F3000.000
G1 X9.647 Y-18.500 Z-0.400 F3000.000
G1 X10.708 Y-18.500 Z-0.400 F3000.000
G1 X94.500 Y65.292 Z-0.400 F3000.000
G1 X94.500 Y64.231 Z-0.400 F3000.000
G1 X11.769 Y-18.500 Z-0.400 F3000.000
G1 X12.829 Y-18.500 Z-0.400 F3000.000
G1 X94.500 Y63.171 Z-0.400 F3000.000
G1 X94.500 Y62.110 Z-0.400 F3000.000
G1 X13.890 Y-18.500 Z-0.400 F3000.000
G1 X14.950 Y-18.500 Z-0.400 F3000.000
G1 X94.500 Y61.050 Z-0.400 F3000.000
G1 X94.500 Y59.989 Z-0.400 F3000.000
G1 X16.011 Y-18.500 Z-0.400 F3000.000
G1 X17.072 Y-18.500 Z-0.400 F3000.000
G1 X94.500 Y58.928 Z-0.400 F3000.000
G1 X94.500 Y57.868 Z-0.400 F3000.000
G1 X18.132 Y-18.500 Z-0.400 F3000.000
G1 X19.193 Y-18.500 Z-0.400 F3000.000
G1 X94.500 Y56.807 Z-0.400 F3000.000
G1 X94.500 Y55.746 Z-0.400 F3000.000
G1 X20.254 Y-18.500 Z-0.400 F3000.000
G1 X21.314 Y-18.500 Z-0.400 F3000.000
G1 X94.500 Y54.686 Z-0.400 F3000.000
G1 X94.500 Y53.625 Z-0.400 F3000.000
G1 X22.375 Y-18.500 Z-0.400 F3000.000
G1 X23.436 Y-18.500 Z-0.400 F3000.000
G1 X94.500 Y52.564 Z-0.400 F3000.000
G1 X94.500 Y51.504 Z-0.400 F3000.000
G1 X24.496 Y-18.500 Z-0.400 F3000.000
G1 X25.557 Y-18.500 Z-0.400 F3000.000
G1 X94.500 Y50.443 Z-0.400 F3000.000
G1 X94.500 Y49.382 Z-0.400 F3000.000
G1 X26.618 Y-18.500 Z-0.400 F3000.000
G1 X27.678 Y-18.500 Z-0.400 F3000.000
G1 X94.500 Y48.322 Z-0.400 F3000.000
G1 X94.500 Y47.261 Z-0.400 F3000.000
G1 X28.739 Y-18.500 Z-0.400 F3000.000
G1 X29.800 Y-18.500 Z-0.400 F3000.000
G1 X94.500 Y46.200 Z-0.400 F3000.000
G1 X94.500 Y45.140 Z-0.400 F3000.000
G1 X30.860 Y-18.500 Z-0.400 F3000.000
G1 X31.921 Y-18.500 Z-0.400 F3000.000
G1 X94.500 Y44.079 Z-0.400 F3000.000
G1 X94.500 Y43.018 Z-0.400 F3000.000
G1 X32.982 Y-18.500 Z-0.400 F3000.000
G1 X34.042 Y-18.500 Z-0.400 F3000.000
G1 X94.500 Y41.958 Z-0.400 F3000.000
G1 X94.500 Y40.897 Z-0.400 F3000.000
G1 X35.103 Y-18.500 Z-0.400 F3000.000
G1 X36.164 Y-18.500 Z-0.400 F3000.000
G1 X94.500 Y39.836 Z-0.400 F3000.000
G1 X94.500 Y38.776 Z-0.400 F3000.000
G1 X37.224 Y-18.500 Z-0.400 F3000.000
G1 X38.285 Y-18.500 Z-0.400 F3000.000
G1 X94.500 Y37.715 Z-0.400 F3000.000
G1 X94.500 Y36.654 Z-0.400 F3000.000
G1 X39.346 Y-18.500 Z-0.400 F3000.000
G1 X40.406 Y-18.500 Z-0.400 F3000.000
G1 X94.500 Y35.594 Z-0.400 F3000.000
G1 X94.500 Y34.533 Z-0.400 F3000.000
G1 X41.467 Y-18.500 Z-0.400 F3000.000
G1 X42.528 Y-18.500 Z-0.400 F3000.000
G1 X94.500 Y33.472 Z-0.400 F3000.000
G1 X94.500 Y32.412 Z-0.400 F3000.000
G1 X43.588 Y-18.500 Z-0.400 F3000.000
G1 X44.649 Y-18.500 Z-0.400 F3000.000
G1 X94.500 Y31.351 Z-0.400 F3000.000
G1 X94.500 Y30.290 Z-0.400 F3000.000
G1 X45.710 Y-18.500 Z-0.400 F3000.000
G1 X46.770 Y-18.500 Z-0.400 F3000.000
G1 X94.500 Y29.230 Z-0.400 F3000.000
G1 X94.500 Y28.169 Z-0.400 F3000.000
G1 X47.831 Y-18.500 Z-0.400 F3000.000
G1 X48.892 Y-18.500 Z-0.400 F3000.000
G1 X94.500 Y27.108 Z-0.400 F3000.000
G1 X94.500 Y26.048 Z-0.400 F3000.000
G1 X49.952 Y-18.500 Z-0.400 F3000.000
G1 X51.013 Y-18.500 Z-0.400 F3000.000
G1 X94.500 Y24.987 Z-0.400 F3000.000
G1 X94.500 Y23.926 Z-0.400 F3000.000
G1 X52.074 Y-18.500 Z-0.400 F3000.000
G1 X53.134 Y-18.500 Z-0.400 F3000.000
G1 X94.500 Y22.866 Z-0.400 F3000.000
G1 X94.500 Y21.805 Z-0.400 F3000.000
G1 X54.195 Y-18.500 Z-0.400 F3000.000
G1 X55.256 Y-18.500 Z-0.400 F3000.000
G1 X94.500 Y20.744 Z-0.400 F3000.000
G1 X94.500 Y19.684 Z-0.400 F3000.000
G1 X56.316 Y-18.500 Z-0.400 F3000.000
G1 X57.377 Y-18.500 Z-0.400 F3000.000
G1 X94.500 Y18.623 Z-0.400 F3000.000
G1 X94.500 Y17.562 Z-0.400 F3000.000
G1 X58.438 Y-18.500 Z-0.400 F3000.000
G1 X59.498 Y-18.500 Z-0.400 F3000.000
G1 X94.500 Y16.502 Z-0.400 F3000.000
G1 X94.500 Y15.441 Z-0.400 F3000.000
G1 X60.559 Y-18.500 Z-0.400 F3000.000
G1 X61.620 Y-18.500 Z-0.400 F3000.000
G1 X94.500 Y14.380 Z-0.400 F3000.000
G1 X94.500 Y13.320 Z-0.400 F3000.000
G1 X62.680 Y-18.500 Z-0.400 F3000.000
G1 X63.741 Y-18.500 Z-0.400 F3000.000
G1 X94.500 Y12.259 Z-0.400 F3000.000
G1 X94.500 Y11.198 Z-0.400 F3000.000
G1 X64.802 Y-18.500 Z-0.400 F3000.000
G1 X65.862 Y-18.500 Z-0.400 F3000.000
G1 X94.500 Y10.138 Z-0.400 F3000.000
G1 X94.500 Y9.077 Z-0.400 F3000.000
G1 X66.923 Y-18.500 Z-0.400 F3000.000
G1 X67.983 Y-18.500 Z-0.400 F3000.000
G1 X94.500 Y8.017 Z-0.400 F3000.000
G1 X94.500 Y6.956 Z-0.400 F3000.000
G1 X69.044 Y-18.500 Z-0.400 F3000.000
G1 X70.105 Y-18.500 Z-0.400 F3000.000
G1 X94.500 Y5.895 Z-0.400 F3000.000
G1 X94.500 Y4.835 Z-0.400 F3000.000
G1 X71.165 Y-18.500 Z-0.400 F3000.000
G1 X72.226 Y-18.500 Z-0.400 F3000.000
G1 X94.500 Y3.774 Z-0.400 F3000.000
G1 X94.500 Y2.713 Z-0.400 F3000.000
G1 X73.287 Y-18.500 Z-0.400 F3000.000
G1 X74.347 Y-18.500 Z-0.400 F3000.000
G1 X94.500 Y1.653 Z-0.400 F3000.000
G1 X94.500 Y0.592 Z-0.400 F3000.000
G1 X75.408 Y-18.500 Z-0.400 F3000.000
G1 X76.469 Y-18.500 Z-0.400 F3000.000
G1 X94.500 Y-0.469 Z-0.400 F3000.000
G1 X94.500 Y-1.529 Z-0.400 F3000.000
G1 X77.529 Y-18.500 Z-0.400 F3000.000
G1 X78.590 Y-18.500 Z-0.400 F3000.000
G1 X94.500 Y-2.590 Z-0.400 F3000.000
G1 X94.500 Y-3.651 Z-0.400 F3000.000
G1 X79.651 Y-18.500 Z-0.400 F3000.000
G1 X80.711 Y-18.500 Z-0.400 F3000.000
G1 X94.500 Y-4.711 Z-0.400 F3000.000
G1 X94.500 Y-5.772 Z-0.400 F3000.000
G1 X81.772 Y-18.500 Z-0.400 F3000.000
G1 X82.833 Y-18.500 Z-0.400 F3000.000
G1 X94.500 Y-6.833 Z-0.400 F3000.000
G1 X94.500 Y-7.893 Z-0.400 F3000.000
G1 X83.893 Y-18.500 Z-0.400 F3000.000
G1 X84.954 Y-18.500 Z-0.400 F3000.000
G1 X94.500 Y-8.954 Z-0.400 F3000.000
G1 X94.500 Y-10.015 Z-0.400 F3000.000
G1 X86.015 Y-18.500 Z-0.400 F3000.000
G1 X87.075 Y-18.500 Z-0.400 F3000.000
G1 X94.500 Y-11.075 Z-0.400 F3000.000
G1 X94.500 Y-12.136 Z-0.400 F3000.000
G1 X88.136 Y-18.500 Z-0.400 F3000.000
G1 X89.197 Y-18.500 Z-0.400 F3000.000
G1 X94.500 Y-13.197 Z-0.400 F3000.000
G1 X94.500 Y-14.257 Z-0.400 F3000.000
G1 X90.257 Y-18.500 Z-0.400 F3000.000
G1 X91.318 Y-18.500 Z-0.400 F3000.000
G1 X94.500 Y-15.318 Z-0.400 F3000.000
G1 X94.500 Y-16.379 Z-0.400 F3000.000
G1 X92.379 Y-18.500 Z-0.400 F3000.000
G1 X93.439 Y-18.500 Z-0.400 F3000.000
G1 X94.500 Y-17.439 Z-0.400 F3000.000
G1 X94.500 Y-18.500 Z-0.400 F3000.000
G1 X94.500 Y-18.500 Z-0.500 F3000.000
G1 X94.500 Y-17.439 Z-0.500 F3000.000
G1 X93.439 Y-18.500 Z-0.500 F3000.000
G1 X92.379 Y-18.500 Z-0.500 F3000.000
G1 X94.500 Y-16.379 Z-0.500 F3000.000
G1 X94.500 Y-15.318 Z-0.500 F3000.000
G1 X91.318 Y-18.500 Z-0.500 F3000.000
G1 X90.257 Y-18.500 Z-0.500 F3000.000
G1 X94.500 Y-14.257 Z-0.500 F3000.000
G1 X94.500 Y-13.197 Z-0.500 F3000.000
G1 X89.197 Y-18.500 Z-0.500 F3000.000
G1 X88.136 Y-18.500 Z-0.500 F3000.000
G1 X94.500 Y-12.136 Z-0.500 F3000.000
G1 X94.500 Y-11.075 Z-0.500 F3000.000
G1 X87.075 Y-18.500 Z-0.500 F3000.000
G1 X86.015 Y-18.500 Z-0.500 F3000.000
G1 X94.500 Y-10.015 Z-0.500 F3000.000
G1 X94.500 Y-8.954 Z-0.500 F3000.000
G1 X84.954 Y-18.500 Z-0.500 F3000.000
G1 X83.893 Y-18.500 Z-0.500 F3000.000
G1 X94.500 Y-7.893 Z-0.500 F3000.000
G1 X94.500 Y-6.833 Z-0.500 F3000.000
G1 X82.833 Y-18.500 Z-0.500 F3000.000
G1 X81.772 Y-18.500 Z-0.500 F3000.000
G1 X94.500 Y-5.772 Z-0.500 F3000.000
G1 X94.500 Y-4.711 Z-0.500 F3000.000
G1 X80.711 Y-18.500 Z-0.500 F3000.000
G1 X79.651 Y-18.500 Z-0.500 F3000.000
G1 X94.500 Y-3.651 Z-0.500 F3000.000
G1 X94.500 Y-2.590 Z-0.500 F3000.000
G1 X78.590 Y-18.500 Z-0.500 F3000.000
G1 X77.529 Y-18.500 Z-0.500 F3000.000
G1 X94.500 Y-1.529 Z-0.500 F3000.000
G1 X94.500 Y-0.469 Z-0.500 F3000.000
G1 X76.469 Y-18.500 Z-0.500 F3000.000
G1 X75.408 Y-18.500 Z-0.500 F3000.000
G1 X94.500 Y0.592 Z-0.500 F3000.000
G1 X94.500 Y1.653 Z-0.500 F3000.000
G1 X74.347 Y-18.500 Z-0.500 F3000.000
G1 X73.287 Y-18.500 Z-0.500 F3000.000
G1 X94.500 Y2.713 Z-0.500 F3000.000
G1 X94.500 Y3.774 Z-0.500 F3000.000
G1 X72.226 Y-18.500 Z-0.500 F3000.000
G1 X71.165 Y-18.500 Z-0.500 F3000.000
G1 X94.500 Y4.835 Z-0.500 F3000.000
G1 X94.500 Y5.895 Z-0.500 F3000.000
G1 X70.105 Y-18.500 Z-0.500 F3000.000
G1 X69.044 Y-18.500 Z-0.500 F3000.000
G1 X94.500 Y6.956 Z-0.500 F3000.000
G1 X94.500 Y8.017 Z-0.500 F3000.000
G1 X67.983 Y-18.500 Z-0.500 F3000.000
G1 X66.923 Y-18.500 Z-0.500 F3000.000
G1 X94.500 Y9.077 Z-0.500 F3000.000
G1 X94.500 Y10.138 Z-0.500 F3000.000
G1 X65.862 Y-18.500 Z-0.500 F3000.000
G1 X64.802 Y-18.500 Z-0.500 F3000.000
G1 X94.500 Y11.198 Z-0.500 F3000.000
G1 X94.500 Y12.259 Z-0.500 F3000.000
G1 X63.741 Y-18.500 Z-0.500 F3000.000
G1 X62.680 Y-18.500 Z-0.500 F3000.000
G1 X94.500 Y13.320 Z-0.500 F3000.000
G1 X94.500 Y14.380 Z-0.500 F3000.000
G1 X61.620 Y-18.500 Z-0.500 F3000.000
G1 X60.559 Y-18.500 Z-0.500 F3000.000
G1 X94.500 Y15.441 Z-0.500 F3000.000
G1 X94.500 Y16.502 Z-0.500 F3000.000
G1 X59.498 Y-18.500 Z-0.500 F3000.000
G1 X58.438 Y-18.500 Z-0.500 F3000.000
G1 X94.500 Y17.562 Z-0.500 F3000.000
G1 X94.500 Y18.623 Z-0.500 F3000.000
G1 X57.377 Y-18.500 Z-0.500 F3000.000
G1 X56.316 Y-18.500 Z-0.500 F3000.000
G1 X94.500 Y19.684 Z-0.500 F3000.000
G1 X94.500 Y20.744 Z-0.500 F3000.000
G1 X55.256 Y-18.500 Z-0.500 F3000.000
G1 X54.195 Y-18.500 Z-0.500 F3000.000
G1 X94.500 Y21.805 Z-0.500 F3000.000
G1 X94.500 Y22.866 Z-0.500 F3000.000
G1 X53.134 Y-18.500 Z-0.500 F3000.000
G1 X52.074 Y-18.500 Z-0.500 F3000.000
G1 X94.500 Y23.926 Z-0.500 F3000.000
G1 X94.500 Y24.987 Z-0.500 F3000.000
G1 X51.013 Y-18.500 Z-0.500 F3000.000
G1 X49.952 Y-18.500 Z-0.500 F3000.000
G1 X94.500 Y26.048 Z-0.500 F3000.000
G1 X94.500 Y27.108 Z-0.500 F3000.000
G1 X48.892 Y-18.500 Z-0.500 F3000.000
G1 X47.831 Y-18.500 Z-0.500 F3000.000
G1 X94.500 Y28.169 Z-0.500 F3000.000
G1 X94.500 Y29.230 Z-0.500 F3000.000
G1 X46.770 Y-18.500 Z-0.500 F3000.000
G1 X45.710 Y-18.500 Z-0.500 F3000.000
G1 X94.500 Y30.290 Z-0.500 F3000.000
G1 X94.500 Y31.351 Z-0.500 F3000.000
G1 X44.649 Y-18.500 Z-0.500 F3000.000
G1 X43.588 Y-18.500 Z-0.500 F3000.000
G1 X94.500 Y32.412 Z-0.500 F3000.000
G1 X94.500 Y33.472 Z-0.500 F3000.000
G1 X42.528 Y-18.500 Z-0.500 F3000.000
G1 X41.467 Y-18.500 Z-0.500 F3000.000
G1 X94.500 Y34.533 Z-0.500 F3000.000
G1 X94.500 Y35.594 Z-0.500 F3000.000
G1 X40.406 Y-18.500 Z-0.500 F3000.000
G1 X39.346 Y-18.500 Z-0.500 F3000.000
G1 X94.500 Y36.654 Z-0.500 F3000.000
G1 X94.500 Y37.715 Z-0.500 F3000.000
G1 X38.285 Y-18.500 Z-0.500 F3000.000
G1 X37.224 Y-18.500 Z-0.500 F3000.000
G1 X94.500 Y38.776 Z-0.500 F3000.000
G1 X94.500 Y39.836 Z-0.500 F3000.000
G1 X36.164 Y-18.500 Z-0.500 F3000.000
G1 X35.103 Y-18.500 Z-0.500 F3000.000
G1 X94.500 Y40.897 Z-0.500 F3000.000
G1 X94.500 Y41.958 Z-0.500 F3000.000
G1 X34.042 Y-18.500 Z-0.500 F3000.000
G1 X32.982 Y-18.500 Z-0.500 F3000.000
G1 X94.500 Y43.018 Z-0.500 F3000.000
G1 X94.500 Y44.079 Z-0.500 F3000.000
G1 X31.921 Y-18.500 Z-0.500 F3000.000
G1 X30.860 Y-18.500 Z-0.500 F3000.000
G1 X94.500 Y45.140 Z-0.500 F3000.000
G1 X94.500 Y46.200 Z-0.500 F3000.000
G1 X29.800 Y-18.500 Z-0.500 F3000.000
G1 X28.739 Y-18.500 Z-0.500 F3000.000
G1 X94.500 Y47.261 Z-0.500 F3000.000
G1 X94.500 Y48.322 Z-0.500 F3000.000
G1 X27.678 Y-18.500 Z-0.500 F3000.000
G1 X26.618 Y-18.500 Z-0.500 F3000.000
G1 X94.500 Y49.382 Z-0.500 F3000.000
G1 X94.500 Y50.443 Z-0.500 F3000.000
G1 X25.557 Y-18.500 Z-0.500 F3000.000
G1 X24.496 Y-18.500 Z-0.500 F3000.000
G1 X94.500 Y51.504 Z-0.500 F3000.000
G1 X94.500 Y52.564 Z-0.500 F3000.000
G1 X23.436 Y-18.500 Z-0.500 F3000.000
G1 X22.375 Y-18.500 Z-0.500 F3000.000
G1 X94.500 Y53.625 Z-0.500 F3000.000
G1 X94.500 Y54.686 Z-0.500 F3000.000
G1 X21.314 Y-18.500 Z-0.500 F3000.000
G1 X20.254 Y-18.500 Z-0.500 F3000.000
G1 X94.500 Y55.746 Z-0.500 F3000.000
G1 X94.500 Y56.807 Z-0.500 F3000.000
G1 X19.193 Y-18.500 Z-0.500 F3000.000
G1 X18.132 Y-18.500 Z-0.500 F3000.000
G1 X94.500 Y57.868 Z-0.500 F3000.000
G1 X94.500 Y58.928 Z-0.500 F3000.000
G1 X17.072 Y-18.500 Z-0.500 F3000.000
G1 X16.011 Y-18.500 Z-0.500 F3000.000
G1 X94.500 Y59.989 Z-0.500 F3000.000
G1 X94.500 Y61.050 Z-0.500 F3000.000
G1 X14.950 Y-18.500 Z-0.500 F3000.000
G1 X13.890 Y-18.500 Z-0.500 F3000.000
G1 X94.500 Y62.110 Z-0.500 F3000.000
G1 X94.500 Y63.171 Z-0.500 F3000.000
G1 X12.829 Y-18.500 Z-0.500 F3000.000
G1 X11.769 Y-18.500 Z-0.500 F3000.000
G1 X94.500 Y64.231 Z-0.500 F3000.000
G1 X94.500 Y65.292 Z-0.500 F3000.000
G1 X10.708 Y-18.500 Z-0.500 F3000.000
G1 X9.647 Y-18.500 Z-0.500 F3000.000
G1 X94.500 Y66.353 Z-0.500 F3000.000
G1 X94.500 Y67.413 Z-0.500 F3000.000
G1 X8.587 Y-18.500 Z-0.500 F3000.000
G1 X7.526 Y-18.500 Z-0.500 F3000.000
G1 X94.216 Y68.190 Z-0.500 F3000.000
G1 X93.155 Y68.190 Z-0.500 F3000.000
G1 X6.465 Y-18.500 Z-0.500 F3000.000
G1 X5.405 Y-18.500 Z-0.500 F3000.000
G1 X92.095 Y68.190 Z-0.500 F3000.000
G1 X91.034 Y68.190 Z-0.500 F3000.000
G1 X4.344 Y-18.500 Z-0.500 F3000.000
G1 X3.283 Y-18.500 Z-0.500 F3000.000
G1 X89.973 Y68.190 Z-0.500 F3000.000
G1 X88.913 Y68.190 Z-0.500 F3000.000
G1 X2.223 Y-18.500 Z-0.500 F3000.000
G1 X1.162 Y-18.500 Z-0.500 F3000.000
G1 X87.852 Y68.190 Z-0.500 F3000.000
G1 X86.791 Y68.190 Z-0.500 F3000.000
G1 X0.101 Y-18.500 Z-0.500 F3000.000
G1 X-0.959 Y-18.500 Z-0.500 F3000.000
G1 X85.731 Y68.190 Z-0.500 F3000.000
G1 X84.670 Y68.190 Z-0.500 F3000.000
G1 X-2.020 Y-18.500 Z-0.500 F3000.000
G1 X-3.081 Y-18.500 Z-0.500 F3000.000
G1 X83.609 Y68.190 Z-0.500 F3000.000
G1 X82.549 Y68.190 Z-0.500 F3000.000
G1 X-4.141 Y-18.500 Z-0.500 F3000.000
G1 X-5.202 Y-18.500 Z-0.500 F3000.000
G1 X81.488 Y68.190 Z-0.500 F3000.000
G1 X80.427 Y68.190 Z-0.500 F3000.000
G1 X-6.263 Y-18.500 Z-0.500 F3000.000
G1 X-7.323 Y-18.500 Z-0.500 F3000.000
G1 X79.367 Y68.190 Z-0.500 F3000.000
G1 X78.306 Y68.190 Z-0.500 F3000.000
G1 X-8.384 Y-18.500 Z-0.500 F3000.000
G1 X-9.445 Y-18.500 Z-0.500 F3000.000
G1 X77.245 Y68.190 Z-0.500 F3000.000
G1 X76.185 Y68.190 Z-0.500 F3000.000
G1 X-10.505 Y-18.500 Z-0.500 F3000.000
G1 X-11.566 Y-18.500 Z-0.500 F3000.000
G1 X75.124 Y68.190 Z-0.500 F3000.000
G1 X74.063 Y68.190 Z-0.500 F3000.000
G1 X-12.627 Y-18.500 Z-0.500 F3000.000
G1 X-13.687 Y-18.500 Z-0.500 F3000.000
G1 X73.003 Y68.190 Z-0.500 F3000.000
G1 X71.942 Y68.190 Z-0.500 F3000.000
G1 X-14.748 Y-18.500 Z-0.500 F3000.000
G1 X-15.809 Y-18.500 Z-0.500 F3000.000
G1 X70.881 Y68.190 Z-0.500 F3000.000
G1 X69.821 Y68.190 Z-0.500 F3000.000
G1 X-16.869 Y-18.500 Z-0.500 F3000.000
G1 X-17.930 Y-18.500 Z-0.500 F3000.000
G1 X68.760 Y68.190 Z-0.500 F3000.000
G1 X67.699 Y68.190 Z-0.500 F3000.000
G1 X-18.500 Y-18.009 Z-0.500 F3000.000
G1 X-18.500 Y-16.949 Z-0.500 F3000.000
G1 X66.639 Y68.190 Z-0.500 F3000.000
G1 X65.578 Y68.190 Z-0.500 F3000.000
G1 X-18.500 Y-15.888 Z-0.500 F3000.000
G1 X-18.500 Y-14.827 Z-0.500 F3000.000
G1 X64.517 Y68.190 Z-0.500 F3000.000
G1 X63.457 Y68.190 Z-0.500 F3000.000
G1 X-18.500 Y-13.767 Z-0.500 F3000.000
G1 X-18.500 Y-12.706 Z-0.500 F3000.000
G1 X62.396 Y68.190 Z-0.500 F3000.000
G1 X61.335 Y68.190 Z-0.500 F3000.000
G1 X-18.500 Y-11.645 Z-0.500 F3000.000
G1 X-18.500 Y-10.585 Z-0.500 F3000.000
G1 X60.275 Y68.190 Z-0.500 F3000.000
G1 X59.214 Y68.190 Z-0.500 F3000.000
G1 X-18.500 Y-9.524 Z-0.500 F3000.000
G1 X-18.500 Y-8.463 Z-0.500 F3000.000
G1 X58.153 Y68.190 Z-0.500 F3000.000
G1 X57.093 Y68.190 Z-0.500 F3000.000
G1 X-18.500 Y-7.403 Z-0.500 F3000.000
G1 X-18.500 Y-6.342 Z-0.500 F3000.000
G1 X56.032 Y68.190 Z-0.500 F3000.000
G1 X54.971 Y68.190 Z-0.500 F3000.000
G1 X-18.500 Y-5.281 Z-0.500 F3000.000
G1 X-18.500 Y-4.221 Z-0.500 F3000.000
G1 X53.911 Y68.190 Z-0.500 F3000.000
G1 X52.850 Y68.190 Z-0.500 F3000.000
G1 X-18.500 Y-3.160 Z-0.500 F3000.000
G1 X-18.500 Y-2.099 Z-0.500 F3000.000
G1 X51.789 Y68.190 Z-0.500 F3000.000
G1 X50.729 Y68.190 Z-0.500 F3000.000
G1 X-18.500 Y-1.039 Z-0.500 F3000.000
G1 X-18.500 Y0.022 Z-0.500 F3000.000
G1 X49.668 Y68.190 Z-0.500 F3000.000
G1 X48.607 Y68.190 Z-0.500 F3000.000
G1 X-18.500 Y1.083 Z-0.500 F3000.000
G1 X-18.500 Y2.143 Z-0.500 F3000.000
G1 X47.547 Y68.190 Z-0.500 F3000.000
G1 X46.486 Y68.190 Z-0.500 F3000.000
G1 X-18.500 Y3.204 Z-0.500 F3000.000
G1 X-18.500 Y4.265 Z-0.500 F3000.000
G1 X45.425 Y68.190 Z-0.500 F3000.000
G1 X44.365 Y68.190 Z-0.500 F3000.000
G1 X-18.500 Y5.325 Z-0.500 F3000.000
G1 X-18.500 Y6.386 Z-0.500 F3000.000
G1 X43.304 Y68.190 Z-0.500 F3000.000
G1 X42.244 Y68.190 Z-0.500 F3000.000
G1 X-18.500 Y7.446 Z-0.500 F3000.000
G1 X-18.500 Y8.507 Z-0.500 F3000.000
G1 X41.183 Y68.190 Z-0.500 F3000.000
G1 X40.122 Y68.190 Z-0.500 F3000.000
G1 X-18.500 Y9.568 Z-0.500 F3000.000
G1 X-18.500 Y10.628 Z-0.500 F3000.000
G1 X39.062 Y68.190 Z-0.500 F3000.000
G1 X38.001 Y68.190 Z-0.500 F3000.000
G1 X-18.500 Y11.689 Z-0.500 F3000.000
G1 X-18.500 Y12.750 Z-0.500 F3000.000
G1 X36.940 Y68.190 Z-0.500 F3000.000
G1 X35.880 Y68.190 Z-0.500 F3000.000
G1 X-18.500 Y13.810 Z-0.500 F3000.000
G1 X-18.500 Y14.871 Z-0.500 F3000.000
G1 X34.819 Y68.190 Z-0.500 F3000.000
G1 X33.758 Y68.190 Z-0.500 F3000.000
G1 X-18.500 Y15.932 Z-0.500 F3000.000
G1 X-18.500 Y16.992 Z-0.500 F3000.000
G1 X32.698 Y68.190 Z-0.500 F3000.000
G1 X31.637 Y68.190 Z-0.500 F3000.000
G1 X-18.500 Y18.053 Z-0.500 F3000.000
G1 X-18.500 Y19.114 Z-0.500 F3000.000
G1 X30.576 Y68.190 Z-0.500 F3000.000
G1 X29.516 Y68.190 Z-0.500 F3000.000
G1 X-18.500 Y20.174 Z-0.500 F3000.000
G1 X-18.500 Y21.235 Z-0.500 F3000.000
G1 X28.455 Y68.190 Z-0.500 F3000.000
G1 X27.394 Y68.190 Z-0.500 F3000.000
G1 X-18.500 Y22.296 Z-0.500 F3000.000
G1 X-18.500 Y23.356 Z-0.500 F3000.000
G1 X26.334 Y68.190 Z-0.500 F3000.000
G1 X25.273 Y68.190 Z-0.500 F3000.000
G1 X-18.500 Y24.417 Z-0.500 F3000.000
G1 X-18.500 Y25.478 Z-0.500 F3000.000
G1 X24.212 Y68.190 Z-0.500 F3000.000
G1 X23.152 Y68.190 Z-0.500 F3000.000
G1 X-18.500 Y26.538 Z-0.500 F3000.000
G1 X-18.500 Y27.599 Z-0.500 F3000.000
G1 X22.091 Y68.190 Z-0.500 F3000.000
G1 X21.030 Y68.190 Z-0.500 F3000.000
G1 X-18.500 Y28.660 Z-0.500 F3000.000
G1 X-18.500 Y29.720 Z-0.500 F3000.000
G1 X19.970 Y68.190 Z-0.500 F3000.000
G1 X18.909 Y68.190 Z-0.500 F3000.000
G1 X-18.500 Y30.781 Z-0.500 F3000.000
G1 X-18.500 Y31.842 Z-0.500 F3000.000
G1 X17.848 Y68.190 Z-0.500 F3000.000
G1 X16.788 Y68.190 Z-0.500 F3000.000
G1 X-18.500 Y32.902 Z-0.500 F3000.000
G1 X-18.500 Y33.963 Z-0.500 F3000.000
G1 X15.727 Y68.190 Z-0.500 F3000.000
G1 X14.666 Y68.190 Z-0.500 F3000.000
G1 X-18.500 Y35.024 Z-0.500 F3000.000
G1 X-18.500 Y36.084 Z-0.500 F3000.000
G1 X13.606 Y68.190 Z-0.500 F3000.000
G1 X12.545 Y68.190 Z-0.500 F3000.000
G1 X-18.500 Y37.145 Z-0.500 F3000.000
G1 X-18.500 Y38.206 Z-0.500 F3000.000
G1 X11.484 Y68.190 Z-0.500 F3000.000
G1 X10.424 Y68.190 Z-0.500 F3000.000
G1 X-18.500 Y39.266 Z-0.500 F3000.000
G1 X-18.500 Y40.327 Z-0.500 F3000.000
G1 X9.363 Y68.190 Z-0.500 F3000.000
G1 X8.302 Y68.190 Z-0.500 F3000.000
G1 X-18.500 Y41.388 Z-0.500 F3000.000
G1 X-18.500 Y42.448 Z-0.500 F3000.000
G1 X7.242 Y68.190 Z-0.500 F3000.000
G1 X6.181 Y68.190 Z-0.500 F3000.000
G1 X-18.500 Y43.509 Z-0.500 F3000.000
G1 X-18.500 Y44.570 Z-0.500 F3000.000
G1 X5.120 Y68.190 Z-0.500 F3000.000
G1 X4.060 Y68.190 Z-0.500 F3000.000
G1 X-18.500 Y45.630 Z-0.500 F3000.000
G1 X-18.500 Y46.691 Z-0.500 F3000.000
G1 X2.999 Y68.190 Z-0.500 F3000.000
G1 X1.938 Y68.190 Z-0.500 F3000.000
G1 X-18.500 Y47.752 Z-0.500 F3000.000
G1 X-18.500 Y48.812 Z-0.500 F3000.000
G1 X0.878 Y68.190 Z-0.500 F3000.000
G1 X-0.183 Y68.190 Z-0.500 F3000.000
G1 X-18.500 Y49.873 Z-0.500 F3000.000
G1 X-18.500 Y50.934 Z-0.500 F3000.000
G1 X-1.244 Y68.190 Z-0.500 F3000.000
G1 X-2.304 Y68.190 Z-0.500 F3000.000
G1 X-18.500 Y51.994 Z-0.500 F3000.000
G1 X-18.500 Y53.055 Z-0.500 F3000.000
G1 X-3.365 Y68.190 Z-0.500 F3000.000
G1 X-4.426 Y68.190 Z-0.500 F3000.000
G1 X-18.500 Y54.116 Z-0.500 F3000.000
G1 X-18.500 Y55.176 Z-0.500 F3000.000
G1 X-5.486 Y68.190 Z-0.500 F3000.000
G1 X-6.547 Y68.190 Z-0.500 F3000.000
G1 X-18.500 Y56.237 Z-0.500 F3000.000
G1 X-18.500 Y57.298 Z-0.500 F3000.000
G1 X-7.608 Y68.190 Z-0.500 F3000.000
G1 X-8.668 Y68.190 Z-0.500 F3000.000
G1 X-18.500 Y58.358 Z-0.500 F3000.000
G1 X-18.500 Y59.419 Z-0.500 F3000.000
G1 X-9.729 Y68.190 Z-0.500 F3000.000
G1 X-10.789 Y68.190 Z-0.500 F3000.000
G1 X-18.500 Y60.479 Z-0.500 F3000.000
G1 X-18.500 Y61.540 Z-0.500 F3000.000
G1 X-11.850 Y68.190 Z-0.500 F3000.000
G1 X-12.911 Y68.190 Z-0.500 F3000.000
G1 X-18.500 Y62.601 Z-0.500 F3000.000
G1 X-18.500 Y63.661 Z-0.500 F3000.000
G1 X-13.971 Y68.190 Z-0.500 F3000.000
G1 X-15.032 Y68.190 Z-0.500 F3000.000
G1 X-18.500 Y64.722 Z-0.500 F3000.000
G1 X-18.500 Y65.783 Z-0.500 F3000.000
G1 X-16.093 Y68.190 Z-0.500 F3000.000
G1 X-17.153 Y68.190 Z-0.500 F3000.000
G1 X-18.500 Y66.843 Z-0.500 F3000.000
G1 X-18.500 Y67.904 Z-0.500 F3000.000
G1 X-18.214 Y68.190 Z-0.500 F3000.000
G1 X-18.500 Y68.190 Z-0.500 F3000.000
G1 X-18.500 Y67.904 Z-0.500 F3000.000
G1 X-18.500 Y67.904 Z-0.600 F3000.000
G1 X-18.500 Y68.190 Z-0.600 F3000.000
G1 X-18.214 Y68.190 Z-0.600 F3000.000
G1 X-18.500 Y67.904 Z-0.600 F3000.000
G1 X-18.500 Y66.843 Z-0.600 F3000.000
G1 X-17.153 Y68.190 Z-0.600 F3000.000
G1 X-16.093 Y68.190 Z-0.600 F3000.000
G1 X-18.500 Y65.783 Z-0.600 F3000.000
G1 X-18.500 Y64.722 Z-0.600 F3000.000
G1 X-15.032 Y68.190 Z-0.600 F3000.000
G1 X-13.971 Y68.190 Z-0.600 F3000.000
G1 X-18.500 Y63.661 Z-0.600 F3000.000
G1 X-18.500 Y62.601 Z-0.600 F3000.000
G1 X-12.911 Y68.190 Z-0.600 F3000.000
G1 X-11.850 Y68.190 Z-0.600 F3000.000
G1 X-18.500 Y61.540 Z-0.600 F3000.000
G1 X-18.500 Y60.479 Z-0.600 F3000.000
G1 X-10.789 Y68.190 Z-0.600 F3000.000
G1 X-9.729 Y68.190 Z-0.600 F3000.000
G1 X-18.500 Y59.419 Z-0.600 F3000.000
G1 X-18.500 Y58.358 Z-0.600 F3000.000
G1 X-8.668 Y68.190 Z-0.600 F3000.000
G1 X-7.608 Y68.190 Z-0.600 F3000.000
G1 X-18.500 Y57.298 Z-0.600 F3000.000
G1 X-18.500 Y56.237 Z-0.600 F3000.000
G1 X-6.547 Y68.190 Z-0.600 F3000.000
G1 X-5.486 Y68.190 Z-0.600 F3000.000
G1 X-18.500 Y55.176 Z-0.600 F3000.000
G1 X-18.500 Y54.116 Z-0.600 F3000.000
G1 X-4.426 Y68.190 Z-0.600 F3000.000
G1 X-3.365 Y68.190 Z-0.600 F3000.000
G1 X-18.500 Y53.055 Z-0.600 F3000.000
G1 X-18.500 Y51.994 Z-0.600 F3000.000
G1 X-2.304 Y68.190 Z-0.600 F3000.000
G1 X-1.244 Y68.190 Z-0.600 F3000.000
G1 X-18.500 Y50.934 Z-0.600 F3000.000
G1 X-18.500 Y49.873 Z-0.600 F3000.000
G1 X-0.183 Y68.190 Z-0.600 F3000.000
G1 X0.878 Y68.190 Z-0.600 F3000.000
G1 X-18.500 Y48.812 Z-0.600 F3000.000
G1 X-18.500 Y47.752 Z-0.600 F3000.000
G1 X1.938 Y68.190 Z-0.600 F3000.000
G1 X2.999 Y68.190 Z-0.600 F3000.000
G1 X-18.500 Y46.691 Z-0.600 F3000.000
G1 X-18.500 Y45.630 Z-0.600 F3000.000
G1 X4.060 Y68.190 Z-0.600 F3000.000
G1 X5.120 Y68.190 Z-0.600 F3000.000
G1 X-18.500 Y44.570 Z-0.600 F3000.000
G1 X-18.500 Y43.509 Z-0.600 F3000.000
G1 X6.181 Y68.190 Z-0.600 F3000.000
G1 X7.242 Y68.190 Z-0.600 F3000.000
G1 X-18.500 Y42.448 Z-0.600 F3000.000
G1 X-18.500 Y41.388 Z-0.600 F3000.000
G1 X8.302 Y68.190 Z-0.600 F3000.000
G1 X9.363 Y68.190 Z-0.600 F3000.000
G1 X-18.500 Y40.327 Z-0.600 F3000.000
G1 X-18.500 Y39.266 Z-0.600 F3000.000
G1 X10.424 Y68.190 Z-0.600 F3000.000
G1 X11.484 Y68.190 Z-0.600 F3000.000
G1 X-18.500 Y38.206 Z-0.600 F3000.000
G1 X-18.500 Y37.145 Z-0.600 F3000.000
G1 X12.545 Y68.190 Z-0.600 F3000.000
G1 X13.606 Y68.190 Z-0.600 F3000.000
G1 X-18.500 Y36.084 Z-0.600 F3000.000
G1 X-18.500 Y35.024 Z-0.600 F3000.000
G1 X14.666 Y68.190 Z-0.600 F3000.000
G1 X15.727 Y68.190 Z-0.600 F3000.000
G1 X-18.500 Y33.963 Z-0.600 F3000.000
G1 X-18.500 Y32.902 Z-0.600 F3000.000
G1 X16.788 Y68.190 Z-0.600 F3000.000
G1 X17.848 Y68.190 Z-0.600 F3000.000
G1 X-18.500 Y31.842 Z-0.600 F3000.000
G1 X-18.500 Y30.781 Z-0.600 F3000.000
G1 X18.909 Y68.190 Z-0.600 F3000.000
G1 X19.970 Y68.190 Z-0.600 F3000.000
G1 X-18.500 Y29.720 Z-0.600 F3000.000
G1 X-18.500 Y28.660 Z-0.600 F3000.000
G1 X21.030 Y68.190 Z-0.600 F3000.000
G1 X22.091 Y68.190 Z-0.600 F3000.000
G1 X-18.500 Y27.599 Z-0.600 F3000.000
G1 X-18.500 Y26.538 Z-0.600 F3000.000
G1 X23.152 Y68.190 Z-0.600 F3000.000
G1 X24.212 Y68.190 Z-0.600 F3000.000
G1 X-18.500 Y25.478 Z-0.600 F3000.000
G1 X-18.500 Y24.417 Z-0.600 F3000.000
G1 X25.273 Y68.190 Z-0.600 F3000.000
G1 X26.334 Y68.190 Z-0.600 F3000.000
G1 X-18.500 Y23.356 Z-0.600 F3000.000
G1 X-18.500 Y22.296 Z-0.600 F3000.000
G1 X27.394 Y68.190 Z-0.600 F3000.000
G1 X28.455 Y68.190 Z-0.600 F3000.000
G1 X-18.500 Y21.235 Z-0.600 F3000.000
G1 X-18.500 Y20.174 Z-0.600 F3000.000
G1 X29.516 Y68.190 Z-0.600 F3000.000
G1 X30.576 Y68.190 Z-0.600 F3000.000
G1 X-18.500 Y19.114 Z-0.600 F3000.000
G1 X-18.500 Y18.053 Z-0.600 F3000.000
G1 X31.637 Y68.190 Z-0.600 F3000.000
G1 X32.698 Y68.190 Z-0.600 F3000.000
G1 X-18.500 Y16.992 Z-0.600 F3000.000
G1 X-18.500 Y15.932 Z-0.600 F3000.000
G1 X33.758 Y68.190 Z-0.600 F3000.000
G1 X34.819 Y68.190 Z-0.600 F3000.000
G1 X-18.500 Y14.871 Z-0.600 F3000.000
G1 X-18.500 Y13.810 Z-0.600 F3000.000
G1 X35.880 Y68.190 Z-0.600 F3000.000
G1 X36.940 Y68.190 Z-0.600 F3000.000
G1 X-18.500 Y12.750 Z-0.600 F3000.000
G1 X-18.500 Y11.689 Z-0.600 F3000.000
G1 X38.001 Y68.190 Z-0.600 F3000.000
G1 X39.062 Y68.190 Z-0.600 F3000.000
G1 X-18.500 Y10.628 Z-0.600 F3000.000
G1 X-18.500 Y9.568 Z-0.600 F3000.000
G1 X40.122 Y68.190 Z-0.600 F3000.000
G1 X41.183 Y68.190 Z-0.600 F3000.000
G1 X-18.500 Y8.507 Z-0.600 F3000.000
G1 X-18.500 Y7.446 Z-0.600 F3000.000
G1 X42.244 Y68.190 Z-0.600 F3000.000
G1 X43.304 Y68.190 Z-0.600 F3000.000
G1 X-18.500 Y6.386 Z-0.600 F3000.000
G1 X-18.500 Y5.325 Z-0.600 F3000.000
G1 X44.365 Y68.190 Z-0.600 F3000.000
G1 X45.425 Y68.190 Z-0.600 F3000.000
G1 X-18.500 Y4.265 Z-0.600 F3000.000
G1 X-18.500 Y3.204 Z-0.600 F3000.000
G1 X46.486 Y68.190 Z-0.600 F3000.000
G1 X47.547 Y68.190 Z-0.600 F3000.000
G1 X-18.500 Y2.143 Z-0.600 F3000.000
G1 X-18.500 Y1.083 Z-0.600 F3000.000
G1 X48.607 Y68.190 Z-0.600 F3000.000
G1 X49.668 Y68.190 Z-0.600 F3000.000
G1 X-18.500 Y0.022 Z-0.600 F3000.000
G1 X-18.500 Y-1.039 Z-0.600 F3000.000
G1 X50.729 Y68.190 Z-0.600 F3000.000
G1 X51.789 Y68.190 Z-0.600 F3000.000
G1 X-18.500 Y-2.099 Z-0.600 F3000.000
G1 X-18.500 Y-3.160 Z-0.600 F3000.000
G1 X52.850 Y68.190 Z-0.600 F3000.000
G1 X53.911 Y68.190 Z-0.600 F3000.000
G1 X-18.500 Y-4.221 Z-0.600 F3000.000
G1 X-18.500 Y-5.281 Z-0.600 F3000.000
G1 X54.971 Y68.190 Z-0.600 F3000.000
G1 X56.032 Y68.190 Z-0.600 F3000.000
G1 X-18.500 Y-6.342 Z-0.600 F3000.000
G1 X-18.500 Y-7.403 Z-0.600 F3000.000
G1 X57.093 Y68.190 Z-0.600 F3000.000
G1 X58.153 Y68.190 Z-0.600 F3000.000
G1 X-18.500 Y-8.463 Z-0.600 F3000.000
G1 X-18.500 Y-9.524 Z-0.600 F3000.000
G1 X59.214 Y68.190 Z-0.600 F3000.000
G1 X60.275 Y68.190 Z-0.600 F3000.000
G1 X-18.500 Y-10.585 Z-0.600 F3000.000
G1 X-18.500 Y-11.645 Z-0.600 F3000.000
G1 X61.335 Y68.190 Z-0.600 F3000.000
G1 X62.396 Y68.190 Z-0.600 F3000.000
G1 X-18.500 Y-12.706 Z-0.600 F3000.000
G1 X-18.500 Y-13.767 Z-0.600 F3000.000
G1 X63.457 Y68.190 Z-0.600 F3000.000
G1 X64.517 Y68.190 Z-0.600 F3000.000
G1 X-18.500 Y-14.827 Z-0.600 F3000.000
G1 X-18.500 Y-15.888 Z-0.600 F3000.000
G1 X65.578 Y68.190 Z-0.600 F3000.000
G1 X66.639 Y68.190 Z-0.600 F3000.000
G1 X-18.500 Y-16.949 Z-0.600 F3000.000
G1 X-18.500 Y-18.009 Z-0.600 F3000.000
G1 X67.699 Y68.190 Z-0.600 F3000.000
G1 X68.760 Y68.190 Z-0.600 F3000.000
G1 X-17.930 Y-18.500 Z-0.600 F3000.000
G1 X-16.869 Y-18.500 Z-0.600 F3000.000
G1 X69.821 Y68.190 Z-0.600 F3000.000
G1 X70.881 Y68.190 Z-0.600 F3000.000
G1 X-15.809 Y-18.500 Z-0.600 F3000.000
G1 X-14.748 Y-18.500 Z-0.600 F3000.000
G1 X71.942 Y68.190 Z-0.600 F3000.000
G1 X73.003 Y68.190 Z-0.600 F3000.000
G1 X-13.687 Y-18.500 Z-0.600 F3000.000
G1 X-12.627 Y-18.500 Z-0.600 F3000.000
G1 X74.063 Y68.190 Z-0.600 F3000.000
G1 X75.124 Y68.190 Z-0.600 F3000.000
G1 X-11.566 Y-18.500 Z-0.600 F3000.000
G1 X-10.505 Y-18.500 Z-0.600 F3000.000
G1 X76.185 Y68.190 Z-0.600 F3000.000
G1 X77.245 Y68.190 Z-0.600 F3000.000
G1 X-9.445 Y-18.500 Z-0.600 F3000.000
G1 X-8.384 Y-18.500 Z-0.600 F3000.000
G1 X78.306 Y68.190 Z-0.600 F3000.000
G1 X79.367 Y68.190 Z-0.600 F3000.000
G1 X-7.323 Y-18.500 Z-0.600 F3000.000
G1 X-6.263 Y-18.500 Z-0.600 F3000.000
G1 X80.427 Y68.190 Z-0.600 F3000.000
G1 X81.488 Y68.190 Z-0.600 F3000.000
G1 X-5.202 Y-18.500 Z-0.600 F3000.000
G1 X-4.141 Y-18.500 Z-0.600 F3000.000
G1 X82.549 Y68.190 Z-0.600 F3000.000
G1 X83.609 Y68.190 Z-0.600 F3000.000
G1 X-3.081 Y-18.500 Z-0.600 F3000.000
G1 X-2.020 Y-18.500 Z-0.600 F3000.000
G1 X84.670 Y68.190 Z-0.600 F3000.000
G1 X85.731 Y68.190 Z-0.600 F3000.000
G1 X-0.959 Y-18.500 Z-0.600 F3000.000
G1 X0.101 Y-18.500 Z-0.600 F3000.000
G1 X86.791 Y68.190 Z-0.600 F3000.000
G1 X87.852 Y68.190 Z-0.600 F3000.000
G1 X1.162 Y-18.500 Z-0.600 F3000.000
G1 X2.223 Y-18.500 Z-0.600 F3000.000
G1 X88.913 Y68.190 Z-0.600 F3000.000
G1 X89.973 Y68.190 Z-0.600 F3000.000
G1 X3.283 Y-18.500 Z-0.600 F3000.000
G1 X4.344 Y-18.500 Z-0.600 F3000.000
G1 X91.034 Y68.190 Z-0.600 F3000.000
G1 X92.095 Y68.190 Z-0.600 F3000.000
G1 X5.405 Y-18.500 Z-0.600 F3000.000
G1 X6.465 Y-18.500 Z-0.600 F3000.000
G1 X93.155 Y68.190 Z-0.600 F3000.000
G1 X94.216 Y68.190 Z-0.600 F3000.000
G1 X7.526 Y-18.500 Z-0.600 F3000.000
G1 X8.587 Y-18.500 Z-0.600 F3000.000
G1 X94.500 Y67.413 Z-0.600 F3000.000
G1 X94.500 Y66.353 Z-0.600 F3000.000
G1 X9.647 Y-18.500 Z-0.600 F3000.000
G1 X10.708 Y-18.500 Z-0.600 F3000.000
G1 X94.500 Y65.292 Z-0.600 F3000.000
G1 X94.500 Y64.231 Z-0.600 F3000.000
G1 X11.769 Y-18.500 Z-0.600 F3000.000
G1 X12.829 Y-18.500 Z-0.600 F3000.000
G1 X94.500 Y63.171 Z-0.600 F3000.000
G1 X94.500 Y62.110 Z-0.600 F3000.000
G1 X13.890 Y-18.500 Z-0.600 F3000.000
G1 X14.950 Y-18.500 Z-0.600 F3000.000
G1 X94.500 Y61.050 Z-0.600 F3000.000
G1 X94.500 Y59.989 Z-0.600 F3000.000
G1 X16.011 Y-18.500 Z-0.600 F3000.000
G1 X17.072 Y-18.500 Z-0.600 F3000.000
G1 X94.500 Y58.928 Z-0.600 F3000.000
G1 X94.500 Y57.868 Z-0.600 F3000.000
G1 X18.132 Y-18.500 Z-0.600 F3000.000
G1 X19.193 Y-18.500 Z-0.600 F3000.000
G1 X94.500 Y56.807 Z-0.600 F3000.000
G1 X94.500 Y55.746 Z-0.600 F3000.000
G1 X20.254 Y-18.500 Z-0.600 F3000.000
G1 X21.314 Y-18.500 Z-0.600 F3000.000
G1 X94.500 Y54.686 Z-0.600 F3000.000
G1 X94.500 Y53.625 Z-0.600 F3000.000
G1 X22.375 Y-18.500 Z-0.600 F3000.000
G1 X23.436 Y-18.500 Z-0.600 F3000.000
G1 X94.500 Y52.564 Z-0.600 F3000.000
G1 X94.500 Y51.504 Z-0.600 F3000.000
G1 X24.496 Y-18.500 Z-0.600 F3000.000
G1 X25.557 Y-18.500 Z-0.600 F3000.000
G1 X94.500 Y50.443 Z-0.600 F3000.000
G1 X94.500 Y49.382 Z-0.600 F3000.000
G1 X26.618 Y-18.500 Z-0.600 F3000.000
G1 X27.678 Y-18.500 Z-0.600 F3000.000
G1 X94.500 Y48.322 Z-0.600 F3000.000
G1 X94.500 Y47.261 Z-0.600 F3000.000
G1 X28.739 Y-18.500 Z-0.600 F3000.000
G1 X29.800 Y-18.500 Z-0.600 F3000.000
G1 X94.500 Y46.200 Z-0.600 F3000.000
G1 X94.500 Y45.140 Z-0.600 F3000.000
G1 X30.860 Y-18.500 Z-0.600 F3000.000
G1 X31.921 Y-18.500 Z-0.600 F3000.000
G1 X94.500 Y44.079 Z-0.600 F3000.000
G1 X94.500 Y43.018 Z-0.600 F3000.000
G1 X32.982 Y-18.500 Z-0.600 F3000.000
G1 X34.042 Y-18.500 Z-0.600 F3000.000
G1 X94.500 Y41.958 Z-0.600 F3000.000
G1 X94.500 Y40.897 Z-0.600 F3000.000
G1 X35.103 Y-18.500 Z-0.600 F3000.000
G1 X36.164 Y-18.500 Z-0.600 F3000.000
G1 X94.500 Y39.836 Z-0.600 F3000.000
G1 X94.500 Y38.776 Z-0.600 F3000.000
G1 X37.224 Y-18.500 Z-0.600 F3000.000
G1 X38.285 Y-18.500 Z-0.600 F3000.000
G1 X94.500 Y37.715 Z-0.600 F3000.000
G1 X94.500 Y36.654 Z-0.600 F3000.000
G1 X39.346 Y-18.500 Z-0.600 F3000.000
G1 X40.406 Y-18.500 Z-0.600 F3000.000
G1 X94.500 Y35.594 Z-0.600 F3000.000
G1 X94.500 Y34.533 Z-0.600 F3000.000
G1 X41.467 Y-18.500 Z-0.600 F3000.000
G1 X42.528 Y-18.500 Z-0.600 F3000.000
G1 X94.500 Y33.472 Z-0.600 F3000.000
G1 X94.500 Y32.412 Z-0.600 F3000.000
G1 X43.588 Y-18.500 Z-0.600 F3000.000
G1 X44.649 Y-18.500 Z-0.600 F3000.000
G1 X94.500 Y31.351 Z-0.600 F3000.000
G1 X94.500 Y30.290 Z-0.600 F3000.000
G1 X45.710 Y-18.500 Z-0.600 F3000.000
G1 X46.770 Y-18.500 Z-0.600 F3000.000
G1 X94.500 Y29.230 Z-0.600 F3000.000
G1 X94.500 Y28.169 Z-0.600 F3000.000
G1 X47.831 Y-18.500 Z-0.600 F3000.000
G1 X48.892 Y-18.500 Z-0.600 F3000.000
G1 X94.500 Y27.108 Z-0.600 F3000.000
G1 X94.500 Y26.048 Z-0.600 F3000.000
G1 X49.952 Y-18.500 Z-0.600 F3000.000
G1 X51.013 Y-18.500 Z-0.600 F3000.000
G1 X94.500 Y24.987 Z-0.600 F3000.000
G1 X94.500 Y23.926 Z-0.600 F3000.000
G1 X52.074 Y-18.500 Z-0.600 F3000.000
G1 X53.134 Y-18.500 Z-0.600 F3000.000
G1 X94.500 Y22.866 Z-0.600 F3000.000
G1 X94.500 Y21.805 Z-0.600 F3000.000
G1 X54.195 Y-18.500 Z-0.600 F3000.000
G1 X55.256 Y-18.500 Z-0.600 F3000.000
G1 X94.500 Y20.744 Z-0.600 F3000.000
G1 X94.500 Y19.684 Z-0.600 F3000.000
G1 X56.316 Y-18.500 Z-0.600 F3000.000
G1 X57.377 Y-18.500 Z-0.600 F3000.000
G1 X94.500 Y18.623 Z-0.600 F3000.000
G1 X94.500 Y17.562 Z-0.600 F3000.000
G1 X58.438 Y-18.500 Z-0.600 F3000.000
G1 X59.498 Y-18.500 Z-0.600 F3000.000
G1 X94.500 Y16.502 Z-0.600 F3000.000
G1 X94.500 Y15.441 Z-0.600 F3000.000
G1 X60.559 Y-18.500 Z-0.600 F3000.000
G1 X61.620 Y-18.500 Z-0.600 F3000.000
G1 X94.500 Y14.380 Z-0.600 F3000.000
G1 X94.500 Y13.320 Z-0.600 F3000.000
G1 X62.680 Y-18.500 Z-0.600 F3000.000
G1 X63.741 Y-18.500 Z-0.600 F3000.000
G1 X94.500 Y12.259 Z-0.600 F3000.000
G1 X94.500 Y11.198 Z-0.600 F3000.000
G1 X64.802 Y-18.500 Z-0.600 F3000.000
G1 X65.862 Y-18.500 Z-0.600 F3000.000
G1 X94.500 Y10.138 Z-0.600 F3000.000
G1 X94.500 Y9.077 Z-0.600 F3000.000
G1 X66.923 Y-18.500 Z-0.600 F3000.000
G1 X67.983 Y-18.500 Z-0.600 F3000.000
G1 X94.500 Y8.017 Z-0.600 F3000.000
G1 X94.500 Y6.956 Z-0.600 F3000.000
G1 X69.044 Y-18.500 Z-0.600 F3000.000
G1 X70.105 Y-18.500 Z-0.600 F3000.000
G1 X94.500 Y5.895 Z-0.600 F3000.000
G1 X94.500 Y4.835 Z-0.600 F3000.000
G1 X71.165 Y-18.500 Z-0.600 F3000.000
G1 X72.226 Y-18.500 Z-0.600 F3000.000
G1 X94.500 Y3.774 Z-0.600 F3000.000
G1 X94.500 Y2.713 Z-0.600 F3000.000
G1 X73.287 Y-18.500 Z-0.600 F3000.000
G1 X74.347 Y-18.500 Z-0.600 F3000.000
G1 X94.500 Y1.653 Z-0.600 F3000.000
G1 X94.500 Y0.592 Z-0.600 F3000.000
G1 X75.408 Y-18.500 Z-0.600 F3000.000
G1 X76.469 Y-18.500 Z-0.600 F3000.000
G1 X94.500 Y-0.469 Z-0.600 F3000.000
G1 X94.500 Y-1.529 Z-0.600 F3000.000
G1 X77.529 Y-18.500 Z-0.600 F3000.000
G1 X78.590 Y-18.500 Z-0.600 F3000.000
G1 X94.500 Y-2.590 Z-0.600 F3000.000
G1 X94.500 Y-3.651 Z-0.600 F3000.000
G1 X79.651 Y-18.500 Z-0.600 F3000.000
G1 X80.711 Y-18.500 Z-0.600 F3000.000
G1 X94.500 Y-4.711 Z-0.600 F3000.000
G1 X94.500 Y-5.772 Z-0.600 F3000.000
G1 X81.772 Y-18.500 Z-0.600 F3000.000
G1 X82.833 Y-18.500 Z-0.600 F3000.000
G1 X94.500 Y-6.833 Z-0.600 F3000.000
G1 X94.500 Y-7.893 Z-0.600 F3000.000
G1 X83.893 Y-18.500 Z-0.600 F3000.000
G1 X84.954 Y-18.500 Z-0.600 F3000.000
G1 X94.500 Y-8.954 Z-0.600 F3000.000
G1 X94.500 Y-10.015 Z-0.600 F3000.000
G1 X86.015 Y-18.500 Z-0.600 F3000.000
G1 X87.075 Y-18.500 Z-0.600 F3000.000
G1 X94.500 Y-11.075 Z-0.600 F3000.000
G1 X94.500 Y-12.136 Z-0.600 F3000.000
G1 X88.136 Y-18.500 Z-0.600 F3000.000
G1 X89.197 Y-18.500 Z-0.600 F3000.000
G1 X94.500 Y-13.197 Z-0.600 F3000.000
G1 X94.500 Y-14.257 Z-0.600 F3000.000
G1 X90.257 Y-18.500 Z-0.600 F3000.000
G1 X91.318 Y-18.500 Z-0.600 F3000.000
G1 X94.500 Y-15.318 Z-0.600 F3000.000
G1 X94.500 Y-16.379 Z-0.600 F3000.000
G1 X92.379 Y-18.500 Z-0.600 F3000.000
G1 X93.439 Y-18.500 Z-0.600 F3000.000
G1 X94.500 Y-17.439 Z-0.600 F3000.000
G1 X94.500 Y-18.500 Z-0.600 F3000.000
G1 X94.500 Y-18.500 Z-0.700 F3000.000
G1 X94.500 Y-17.439 Z-0.700 F3000.000
G1 X93.439 Y-18.500 Z-0.700 F3000.000
G1 X92.379 Y-18.500 Z-0.700 F3000.000
G1 X94.500 Y-16.379 Z-0.700 F3000.000
G1 X94.500 Y-15.318 Z-0.700 F3000.000
G1 X91.318 Y-18.500 Z-0.700 F3000.000
G1 X90.257 Y-18.500 Z-0.700 F3000.000
G1 X94.500 Y-14.257 Z-0.700 F3000.000
G1 X94.500 Y-13.197 Z-0.700 F3000.000
G1 X89.197 Y-18.500 Z-0.700 F3000.000
G1 X88.136 Y-18.500 Z-0.700 F3000.000
G1 X94.500 Y-12.136 Z-0.700 F3000.000
G1 X94.500 Y-11.075 Z-0.700 F3000.000
G1 X87.075 Y-18.500 Z-0.700 F3000.000
G1 X86.015 Y-18.500 Z-0.700 F3000.000
G1 X94.500 Y-10.015 Z-0.700 F3000.000
G1 X94.500 Y-8.954 Z-0.700 F3000.000
G1 X84.954 Y-18.500 Z-0.700 F3000.000
G1 X83.893 Y-18.500 Z-0.700 F3000.000
G1 X94.500 Y-7.893 Z-0.700 F3000.000
G1 X94.500 Y-6.833 Z-0.700 F3000.000
G1 X82.833 Y-18.500 Z-0.700 F3000.000
G1 X81.772 Y-18.500 Z-0.700 F3000.000
G1 X94.500 Y-5.772 Z-0.700 F3000.000
G1 X94.500 Y-4.711 Z-0.700 F3000.000
G1 X80.711 Y-18.500 Z-0.700 F3000.000
G1 X79.651 Y-18.500 Z-0.700 F3000.000
G1 X94.500 Y-3.651 Z-0.700 F3000.000
G1 X94.500 Y-2.590 Z-0.700 F3000.000
G1 X78.590 Y-18.500 Z-0.700 F3000.000
G1 X77.529 Y-18.500 Z-0.700 F3000.000
G1 X94.500 Y-1.529 Z-0.700 F3000.000
G1 X94.500 Y-0.469 Z-0.700 F3000.000
G1 X76.469 Y-18.500 Z-0.700 F3000.000
G1 X75.408 Y-18.500 Z-0.700 F3000.000
G1 X94.500 Y0.592 Z-0.700 F3000.000
G1 X94.500 Y1.653 Z-0.700 F3000.000
G1 X74.347 Y-18.500 Z-0.700 F3000.000
G1 X73.287 Y-18.500 Z-0.700 F3000.000
G1 X94.500 Y2.713 Z-0.700 F3000.000
G1 X94.500 Y3.774 Z-0.700 F3000.000
G1 X72.226 Y-18.500 Z-0.700 F3000.000
G1 X71.165 Y-18.500 Z-0.700 F3000.000
G1 X94.500 Y4.835 Z-0.700 F3000.000
G1 X94.500 Y5.895 Z-0.700 F3000.000
G1 X70.105 Y-18.500 Z-0.700 F3000.000
G1 X69.044 Y-18.500 Z-0.700 F3000.000
G1 X94.500 Y6.956 Z-0.700 F3000.000
G1 X94.500 Y8.017 Z-0.700 F3000.000
G1 X67.983 Y-18.500 Z-0.700 F3000.000
G1 X66.923 Y-18.500 Z-0.700 F3000.000
G1 X94.500 Y9.077 Z-0.700 F3000.000
G1 X94.500 Y10.138 Z-0.700 F3000.000
G1 X65.862 Y-18.500 Z-0.700 F3000.000
G1 X64.802 Y-18.500 Z-0.700 F3000.000
G1 X94.500 Y11.198 Z-0.700 F3000.000
G1 X94.500 Y12.259 Z-0.700 F3000.000
G1 X63.741 Y-18.500 Z-0.700 F3000.000
G1 X62.680 Y-18.500 Z-0.700 F3000.000
G1 X94.500 Y13.320 Z-0.700 F3000.000
G1 X94.500 Y14.380 Z-0.700 F3000.000
G1 X61.620 Y-18.500 Z-0.700 F3000.000
G1 X60.559 Y-18.500 Z-0.700 F3000.000
G1 X94.500 Y15.441 Z-0.700 F3000.000
G1 X94.500 Y16.502 Z-0.700 F3000.000
G1 X59.498 Y-18.500 Z-0.700 F3000.000
G1 X58.438 Y-18.500 Z-0.700 F3000.000
G1 X94.500 Y17.562 Z-0.700 F3000.000
G1 X94.500 Y18.623 Z-0.700 F3000.000
G1 X57.377 Y-18.500 Z-0.700 F3000.000
G1 X56.316 Y-18.500 Z-0.700 F3000.000
G1 X94.500 Y19.684 Z-0.700 F3000.000
G1 X94.500 Y20.744 Z-0.700 F3000.000
G1 X55.256 Y-18.500 Z-0.700 F3000.000
G1 X54.195 Y-18.500 Z-0.700 F3000.000
G1 X94.500 Y21.805 Z-0.700 F3000.000
G1 X94.500 Y22.866 Z-0.700 F3000.000
G1 X53.134 Y-18.500 Z-0.700 F3000.000
G1 X52.074 Y-18.500 Z-0.700 F3000.000
G1 X94.500 Y23.926 Z-0.700 F3000.000
G1 X94.500 Y24.987 Z-0.700 F3000.000
G1 X51.013 Y-18.500 Z-0.700 F3000.000
G1 X49.952 Y-18.500 Z-0.700 F3000.000
G1 X94.500 Y26.048 Z-0.700 F3000.000
G1 X94.500 Y27.108 Z-0.700 F3000.000
G1 X48.892 Y-18.500 Z-0.700 F3000.000
G1 X47.831 Y-18.500 Z-0.700 F3000.000
G1 X94.500 Y28.169 Z-0.700 F3000.000
G1 X94.500 Y29.230 Z-0.700 F3000.000
G1 X46.770 Y-18.500 Z-0.700 F3000.000
G1 X45.710 Y-18.500 Z-0.700 F3000.000
G1 X94.500 Y30.290 Z-0.700 F3000.000
G1 X94.500 Y31.351 Z-0.700 F3000.000
G1 X44.649 Y-18.500 Z-0.700 F3000.000
G1 X43.588 Y-18.500 Z-0.700 F3000.000
G1 X94.500 Y32.412 Z-0.700 F3000.000
G1 X94.500 Y33.472 Z-0.700 F3000.000
G1 X42.528 Y-18.500 Z-0.700 F3000.000
G1 X41.467 Y-18.500 Z-0.700 F3000.000
G1 X94.500 Y34.533 Z-0.700 F3000.000
G1 X94.500 Y35.594 Z-0.700 F3000.000
G1 X40.406 Y-18.500 Z-0.700 F3000.000
G1 X39.346 Y-18.500 Z-0.700 F3000.000
G1 X94.500 Y36.654 Z-0.700 F3000.000
G1 X94.500 Y37.715 Z-0.700 F3000.000
G1 X38.285 Y-18.500 Z-0.700 F3000.000
G1 X37.224 Y-18.500 Z-0.700 F3000.000
G1 X94.500 Y38.776 Z-0.700 F3000.000
G1 X94.500 Y39.836 Z-0.700 F3000.000
G1 X36.164 Y-18.500 Z-0.700 F3000.000
G1 X35.103 Y-18.500 Z-0.700 F3000.000
G1 X94.500 Y40.897 Z-0.700 F3000.000
G1 X94.500 Y41.958 Z-0.700 F3000.000
G1 X34.042 Y-18.500 Z-0.700 F3000.000
G1 X32.982 Y-18.500 Z-0.700 F3000.000
G1 X94.500 Y43.018 Z-0.700 F3000.000
G1 X94.500 Y44.079 Z-0.700 F3000.000
G1 X31.921 Y-18.500 Z-0.700 F3000.000
G1 X30.860 Y-18.500 Z-0.700 F3000.000
G1 X94.500 Y45.140 Z-0.700 F3000.000
G1 X94.500 Y46.200 Z-0.700 F3000.000
G1 X29.800 Y-18.500 Z-0.700 F3000.000
G1 X28.739 Y-18.500 Z-0.700 F3000.000
G1 X94.500 Y47.261 Z-0.700 F3000.000
G1 X94.500 Y48.322 Z-0.700 F3000.000
G1 X27.678 Y-18.500 Z-0.700 F3000.000
G1 X26.618 Y-18.500 Z-0.700 F3000.000
G1 X94.500 Y49.382 Z-0.700 F3000.000
G1 X94.500 Y50.443 Z-0.700 F3000.000
G1 X25.557 Y-18.500 Z-0.700 F3000.000
G1 X24.496 Y-18.500 Z-0.700 F3000.000
G1 X94.500 Y51.504 Z-0.700 F3000.000
G1 X94.500 Y52.564 Z-0.700 F3000.000
G1 X23.436 Y-18.500 Z-0.700 F3000.000
G1 X22.375 Y-18.500 Z-0.700 F3000.000
G1 X94.500 Y53.625 Z-0.700 F3000.000
G1 X94.500 Y54.686 Z-0.700 F3000.000
G1 X21.314 Y-18.500 Z-0.700 F3000.000
G1 X20.254 Y-18.500 Z-0.700 F3000.000
G1 X94.500 Y55.746 Z-0.700 F3000.000
G1 X94.500 Y56.807 Z-0.700 F3000.000
G1 X19.193 Y-18.500 Z-0.700 F3000.000
G1 X18.132 Y-18.500 Z-0.700 F3000.000
G1 X94.500 Y57.868 Z-0.700 F3000.000
G1 X94.500 Y58.928 Z-0.700 F3000.000
G1 X17.072 Y-18.500 Z-0.700 F3000.000
G1 X16.011 Y-18.500 Z-0.700 F3000.000
G1 X94.500 Y59.989 Z-0.700 F3000.000
G1 X94.500 Y61.050 Z-0.700 F3000.000
G1 X14.950 Y-18.500 Z-0.700 F3000.000
G1 X13.890 Y-18.500 Z-0.700 F3000.000
G1 X94.500 Y62.110 Z-0.700 F3000.000
G1 X94.500 Y63.171 Z-0.700 F3000.000
G1 X12.829 Y-18.500 Z-0.700 F3000.000
G1 X11.769 Y-18.500 Z-0.700 F3000.000
G1 X94.500 Y64.231 Z-0.700 F3000.000
G1 X94.500 Y65.292 Z-0.700 F3000.000
G1 X10.708 Y-18.500 Z-0.700 F3000.000
G1 X9.647 Y-18.500 Z-0.700 F3000.000
G1 X94.500 Y66.353 Z-0.700 F3000.000
G1 X94.500 Y67.413 Z-0.700 F3000.000
G1 X8.587 Y-18.500 Z-0.700 F3000.000
G1 X7.526 Y-18.500 Z-0.700 F3000.000
G1 X94.216 Y68.190 Z-0.700 F3000.000
G1 X93.155 Y68.190 Z-0.700 F3000.000
G1 X6.465 Y-18.500 Z-0.700 F3000.000
G1 X5.405 Y-18.500 Z-0.700 F3000.000
G1 X92.095 Y68.190 Z-0.700 F3000.000
G1 X91.034 Y68.190 Z-0.700 F3000.000
G1 X4.344 Y-18.500 Z-0.700 F3000.000
G1 X3.283 Y-18.500 Z-0.700 F3000.000
G1 X89.973 Y68.190 Z-0.700 F3000.000
G1 X88.913 Y68.190 Z-0.700 F3000.000
G1 X2.223 Y-18.500 Z-0.700 F3000.000
G1 X1.162 Y-18.500 Z-0.700 F3000.000
G1 X87.852 Y68.190 Z-0.700 F3000.000
G1 X86.791 Y68.190 Z-0.700 F3000.000
G1 X0.101 Y-18.500 Z-0.700 F3000.000
G1 X-0.959 Y-18.500 Z-0.700 F3000.000
G1 X85.731 Y68.190 Z-0.700 F3000.000
G1 X84.670 Y68.190 Z-0.700 F3000.000
G1 X-2.020 Y-18.500 Z-0.700 F3000.000
G1 X-3.081 Y-18.500 Z-0.700 F3000.000
G1 X83.609 Y68.190 Z-0.700 F3000.000
G1 X82.549 Y68.190 Z-0.700 F3000.000
G1 X-4.141 Y-18.500 Z-0.700 F3000.000
G1 X-5.202 Y-18.500 Z-0.700 F3000.000
G1 X81.488 Y68.190 Z-0.700 F3000.000
G1 X80.427 Y68.190 Z-0.700 F3000.000
G1 X-6.263 Y-18.500 Z-0.700 F3000.000
G1 X-7.323 Y-18.500 Z-0.700 F3000.000
G1 X79.367 Y68.190 Z-0.700 F3000.000
G1 X78.306 Y68.190 Z-0.700 F3000.000
G1 X-8.384 Y-18.500 Z-0.700 F3000.000
G1 X-9.445 Y-18.500 Z-0.700 F3000.000
G1 X77.245 Y68.190 Z-0.700 F3000.000
G1 X76.185 Y68.190 Z-0.700 F3000.000
G1 X-10.505 Y-18.500 Z-0.700 F3000.000
G1 X-11.566 Y-18.500 Z-0.700 F3000.000
G1 X75.124 Y68.190 Z-0.700 F3000.000
G1 X74.063 Y68.190 Z-0.700 F3000.000
G1 X-12.627 Y-18.500 Z-0.700 F3000.000
G1 X-13.687 Y-18.500 Z-0.700 F3000.000
G1 X73.003 Y68.190 Z-0.700 F3000.000
G1 X71.942 Y68.190 Z-0.700 F3000.000
G1 X-14.748 Y-18.500 Z-0.700 F3000.000
G1 X-15.809 Y-18.500 Z-0.700 F3000.000
G1 X70.881 Y68.190 Z-0.700 F3000.000
G1 X69.821 Y68.190 Z-0.700 F3000.000
G1 X-16.869 Y-18.500 Z-0.700 F3000.000
G1 X-17.930 Y-18.500 Z-0.700 F3000.000
G1 X68.760 Y68.190 Z-0.700 F3000.000
G1 X67.699 Y68.190 Z-0.700 F3000.000
G1 X-18.500 Y-18.009 Z-0.700 F3000.000
G1 X-18.500 Y-16.949 Z-0.700 F3000.000
G1 X66.639 Y68.190 Z-0.700 F3000.000
G1 X65.578 Y68.190 Z-0.700 F3000.000
G1 X-18.500 Y-15.888 Z-0.700 F3000.000
G1 X-18.500 Y-14.827 Z-0.700 F3000.000
G1 X64.517 Y68.190 Z-0.700 F3000.000
G1 X63.457 Y68.190 Z-0.700 F3000.000
G1 X-18.500 Y-13.767 Z-0.700 F3000.000
G1 X-18.500 Y-12.706 Z-0.700 F3000.000
G1 X62.396 Y68.190 Z-0.700 F3000.000
G1 X61.335 Y68.190 Z-0.700 F3000.000
G1 X-18.500 Y-11.645 Z-0.700 F3000.000
G1 X-18.500 Y-10.585 Z-0.700 F3000.000
G1 X60.275 Y68.190 Z-0.700 F3000.000
G1 X59.214 Y68.190 Z-0.700 F3000.000
G1 X-18.500 Y-9.524 Z-0.700 F3000.000
G1 X-18.500 Y-8.463 Z-0.700 F3000.000
G1 X58.153 Y68.190 Z-0.700 F3000.000
G1 X57.093 Y68.190 Z-0.700 F3000.000
G1 X-18.500 Y-7.403 Z-0.700 F3000.000
G1 X-18.500 Y-6.342 Z-0.700 F3000.000
G1 X56.032 Y68.190 Z-0.700 F3000.000
G1 X54.971 Y68.190 Z-0.700 F3000.000
G1 X-18.500 Y-5.281 Z-0.700 F3000.000
G1 X-18.500 Y-4.221 Z-0.700 F3000.000
G1 X53.911 Y68.190 Z-0.700 F3000.000
G1 X52.850 Y68.190 Z-0.700 F3000.000
G1 X-18.500 Y-3.160 Z-0.700 F3000.000
G1 X-18.500 Y-2.099 Z-0.700 F3000.000
G1 X51.789 Y68.190 Z-0.700 F3000.000
G1 X50.729 Y68.190 Z-0.700 F3000.000
G1 X-18.500 Y-1.039 Z-0.700 F3000.000
G1 X-18.500 Y0.022 Z-0.700 F3000.000
G1 X49.668 Y68.190 Z-0.700 F3000.000
G1 X48.607 Y68.190 Z-0.700 F3000.000
G1 X-18.500 Y1.083 Z-0.700 F3000.000
G1 X-18.500 Y2.143 Z-0.700 F3000.000
G1 X47.547 Y68.190 Z-0.700 F3000.000
G1 X46.486 Y68.190 Z-0.700 F3000.000
G1 X-18.500 Y3.204 Z-0.700 F3000.000
G1 X-18.500 Y4.265 Z-0.700 F3000.000
G1 X45.425 Y68.190 Z-0.700 F3000.000
G1 X44.365 Y68.190 Z-0.700 F3000.000
G1 X-18.500 Y5.325 Z-0.700 F3000.000
G1 X-18.500 Y6.386 Z-0.700 F3000.000
G1 X43.304 Y68.190 Z-0.700 F3000.000
G1 X42.244 Y68.190 Z-0.700 F3000.000
G1 X-18.500 Y7.446 Z-0.700 F3000.000
G1 X-18.500 Y8.507 Z-0.700 F3000.000
G1 X41.183 Y68.190 Z-0.700 F3000.000
G1 X40.122 Y68.190 Z-0.700 F3000.000
G1 X-18.500 Y9.568 Z-0.700 F3000.000
G1 X-18.500 Y10.628 Z-0.700 F3000.000
G1 X39.062 Y68.190 Z-0.700 F3000.000
G1 X38.001 Y68.190 Z-0.700 F3000.000
G1 X-18.500 Y11.689 Z-0.700 F3000.000
G1 X-18.500 Y12.750 Z-0.700 F3000.000
G1 X36.940 Y68.190 Z-0.700 F3000.000
G1 X35.880 Y68.190 Z-0.700 F3000.000
G1 X-18.500 Y13.810 Z-0.700 F3000.000
G1 X-18.500 Y14.871 Z-0.700 F3000.000
G1 X34.819 Y68.190 Z-0.700 F3000.000
G1 X33.758 Y68.190 Z-0.700 F3000.000
G1 X-18.500 Y15.932 Z-0.700 F3000.000
G1 X-18.500 Y16.992 Z-0.700 F3000.000
G1 X32.698 Y68.190 Z-0.700 F3000.000
G1 X31.637 Y68.190 Z-0.700 F3000.000
G1 X-18.500 Y18.053 Z-0.700 F3000.000
G1 X-18.500 Y19.114 Z-0.700 F3000.000
G1 X30.576 Y68.190 Z-0.700 F3000.000
G1 X29.516 Y68.190 Z-0.700 F3000.000
G1 X-18.500 Y20.174 Z-0.700 F3000.000
G1 X-18.500 Y21.235 Z-0.700 F3000.000
G1 X28.455 Y68.190 Z-0.700 F3000.000
G1 X27.394 Y68.190 Z-0.700 F3000.000
G1 X-18.500 Y22.296 Z-0.700 F3000.000
G1 X-18.500 Y23.356 Z-0.700 F3000.000
G1 X26.334 Y68.190 Z-0.700 F3000.000
G1 X25.273 Y68.190 Z-0.700 F3000.000
G1 X-18.500 Y24.417 Z-0.700 F3000.000
G1 X-18.500 Y25.478 Z-0.700 F3000.000
G1 X24.212 Y68.190 Z-0.700 F3000.000
G1 X23.152 Y68.190 Z-0.700 F3000.000
G1 X-18.500 Y26.538 Z-0.700 F3000.000
G1 X-18.500 Y27.599 Z-0.700 F3000.000
G1 X22.091 Y68.190 Z-0.700 F3000.000
G1 X21.030 Y68.190 Z-0.700 F3000.000
G1 X-18.500 Y28.660 Z-0.700 F3000.000
G1 X-18.500 Y29.720 Z-0.700 F3000.000
G1 X19.970 Y68.190 Z-0.700 F3000.000
G1 X18.909 Y68.190 Z-0.700 F3000.000
G1 X-18.500 Y30.781 Z-0.700 F3000.000
G1 X-18.500 Y31.842 Z-0.700 F3000.000
G1 X17.848 Y68.190 Z-0.700 F3000.000
G1 X16.788 Y68.190 Z-0.700 F3000.000
G1 X-18.500 Y32.902 Z-0.700 F3000.000
G1 X-18.500 Y33.963 Z-0.700 F3000.000
G1 X15.727 Y68.190 Z-0.700 F3000.000
G1 X14.666 Y68.190 Z-0.700 F3000.000
G1 X-18.500 Y35.024 Z-0.700 F3000.000
G1 X-18.500 Y36.084 Z-0.700 F3000.000
G1 X13.606 Y68.190 Z-0.700 F3000.000
G1 X12.545 Y68.190 Z-0.700 F3000.000
G1 X-18.500 Y37.145 Z-0.700 F3000.000
G1 X-18.500 Y38.206 Z-0.700 F3000.000
G1 X11.484 Y68.190 Z-0.700 F3000.000
G1 X10.424 Y68.190 Z-0.700 F3000.000
G1 X-18.500 Y39.266 Z-0.700 F3000.000
G1 X-18.500 Y40.327 Z-0.700 F3000.000
G1 X9.363 Y68.190 Z-0.700 F3000.000
G1 X8.302 Y68.190 Z-0.700 F3000.000
G1 X-18.500 Y41.388 Z-0.700 F3000.000
G1 X-18.500 Y42.448 Z-0.700 F3000.000
G1 X7.242 Y68.190 Z-0.700 F3000.000
G1 X6.181 Y68.190 Z-0.700 F3000.000
G1 X-18.500 Y43.509 Z-0.700 F3000.000
G1 X-18.500 Y44.570 Z-0.700 F3000.000
G1 X5.120 Y68.190 Z-0.700 F3000.000
G1 X4.060 Y68.190 Z-0.700 F3000.000
G1 X-18.500 Y45.630 Z-0.700 F3000.000
G1 X-18.500 Y46.691 Z-0.700 F3000.000
G1 X2.999 Y68.190 Z-0.700 F3000.000
G1 X1.938 Y68.190 Z-0.700 F3000.000
G1 X-18.500 Y47.752 Z-0.700 F3000.000
G1 X-18.500 Y48.812 Z-0.700 F3000.000
G1 X0.878 Y68.190 Z-0.700 F3000.000
G1 X-0.183 Y68.190 Z-0.700 F3000.000
G1 X-18.500 Y49.873 Z-0.700 F3000.000
G1 X-18.500 Y50.934 Z-0.700 F3000.000
G1 X-1.244 Y68.190 Z-0.700 F3000.000
G1 X-2.304 Y68.190 Z-0.700 F3000.000
G1 X-18.500 Y51.994 Z-0.700 F3000.000
G1 X-18.500 Y53.055 Z-0.700 F3000.000
G1 X-3.365 Y68.190 Z-0.700 F3000.000
G1 X-4.426 Y68.190 Z-0.700 F3000.000
G1 X-18.500 Y54.116 Z-0.700 F3000.000
G1 X-18.500 Y55.176 Z-0.700 F3000.000
G1 X-5.486 Y68.190 Z-0.700 F3000.000
G1 X-6.547 Y68.190 Z-0.700 F3000.000
G1 X-18.500 Y56.237 Z-0.700 F3000.000
G1 X-18.500 Y57.298 Z-0.700 F3000.000
G1 X-7.608 Y68.190 Z-0.700 F3000.000
G1 X-8.668 Y68.190 Z-0.700 F3000.000
G1 X-18.500 Y58.358 Z-0.700 F3000.000
G1 X-18.500 Y59.419 Z-0.700 F3000.000
G1 X-9.729 Y68.190 Z-0.700 F3000.000
G1 X-10.789 Y68.190 Z-0.700 F3000.000
G1 X-18.500 Y60.479 Z-0.700 F3000.000
G1 X-18.500 Y61.540 Z-0.700 F3000.000
G1 X-11.850 Y68.190 Z-0.700 F3000.000
G1 X-12.911 Y68.190 Z-0.700 F3000.000
G1 X-18.500 Y62.601 Z-0.700 F3000.000
G1 X-18.500 Y63.661 Z-0.700 F3000.000
G1 X-13.971 Y68.190 Z-0.700 F3000.000
G1 X-15.032 Y68.190 Z-0.700 F3000.000
G1 X-18.500 Y64.722 Z-0.700 F3000.000
G1 X-18.500 Y65.783 Z-0.700 F3000.000
G1 X-16.093 Y68.190 Z-0.700 F3000.000
G1 X-17.153 Y68.190 Z-0.700 F3000.000
G1 X-18.500 Y66.843 Z-0.700 F3000.000
G1 X-18.500 Y67.904 Z-0.700 F3000.000
G1 X-18.214 Y68.190 Z-0.700 F3000.000
G1 X-18.500 Y68.190 Z-0.700 F3000.000
G1 X-18.500 Y67.904 Z-0.700 F3000.000
G1 X-18.500 Y67.904 Z-0.800 F3000.000
G1 X-18.500 Y68.190 Z-0.800 F3000.000
